; generated by Slic3r 1.3.0 on 2020-06-30 at 10:38:59

; external perimeters extrusion width = 0.44mm (3.38mm^3/s)
; perimeters extrusion width = 0.48mm (7.54mm^3/s)
; infill extrusion width = 0.48mm (10.05mm^3/s)
; solid infill extrusion width = 0.48mm (2.51mm^3/s)
; top infill extrusion width = 0.48mm (1.88mm^3/s)

M107
M190 S35 ; set bed temperature and wait for it to be reached
M109 S210 ; set temperature and wait for it to be reached
G28 ; home all axes
G1 Z5 F5000 ; lift nozzle

; Filament gcode

M109 S210 ; set temperature and wait for it to be reached
G21 ; set units to millimeters
G90 ; use absolute coordinates
M82 ; use absolute distances for extrusion
G92 E0
G1 Z0.350 F7800.000
G1 E-2.00000 F2400.00000
G92 E0
G1 X20.695 Y12.997 F7800.000
G1 E2.00000 F2400.00000
G1 F1800
G1 X22.798 Y11.242 E2.08475
G1 X23.322 Y10.830 E2.10537
G1 X24.214 Y10.236 E2.13852
G1 X24.744 Y9.938 E2.15734
G1 X25.149 Y9.737 E2.17133
G1 X25.673 Y9.504 E2.18907
G1 X26.271 Y9.275 E2.20888
G1 X27.415 Y8.920 E2.24596
G1 X28.074 Y8.757 E2.26696
G1 X28.825 Y8.600 E2.29069
G1 X29.717 Y8.449 E2.31868
G1 X30.310 Y8.373 E2.33718
G1 X30.983 Y8.319 E2.35807
G1 X32.445 Y8.257 E2.40336
G1 X33.499 Y8.252 E2.43596
G1 X34.984 Y8.313 E2.48196
G1 X35.646 Y8.359 E2.50248
G1 X36.372 Y8.447 E2.52512
G1 X37.276 Y8.600 E2.55347
G1 X38.026 Y8.757 E2.57719
G1 X38.829 Y8.960 E2.60280
G1 X39.616 Y9.201 E2.62830
G1 X40.252 Y9.434 E2.64924
G1 X40.952 Y9.737 E2.67283
G1 X41.508 Y10.019 E2.69214
G1 X42.105 Y10.370 E2.71355
G1 X42.586 Y10.692 E2.73146
G1 X43.213 Y11.168 E2.75584
G1 X45.406 Y12.997 E2.84417
G1 X46.886 Y14.749 E2.91513
G1 X47.786 Y18.020 E3.02011
G1 X47.847 Y24.536 E3.22174
G1 X47.848 Y26.805 E3.29193
G1 X47.451 Y29.064 E3.36289
G1 X46.307 Y31.052 E3.43386
G1 X44.555 Y32.531 E3.50482
G1 X42.957 Y33.199 E3.55841
G1 X36.355 Y34.989 E3.77003
G1 X34.622 Y35.220 E3.82415
G1 X31.479 Y35.220 E3.92139
G1 X29.745 Y34.989 E3.97551
G1 X23.144 Y33.199 E4.18714
G1 X21.068 Y32.225 E4.25810
G1 X19.448 Y30.601 E4.32906
G1 X18.479 Y28.522 E4.40002
G1 X18.253 Y26.805 E4.45361
G1 X18.253 Y24.536 E4.52380
G1 X18.315 Y18.020 E4.72543
G1 X18.733 Y15.765 E4.79639
G1 X20.660 Y13.046 E4.89952
G1 E2.89952 F2400.00000
G92 E0
G1 X37.698 Y24.949 F7800.000
G1 E2.00000 F2400.00000
G1 F1800
G1 X36.282 Y24.949 E2.04381
G1 X37.116 Y23.592 E2.09310
G1 X37.698 Y23.756 E2.11183
G1 X37.698 Y24.889 E2.14688
G1 X37.752 Y25.346 F7800.000
G1 E0.14688 F2400.00000
G92 E0
G1 X33.047 Y27.227 F7800.000
G1 E2.00000 F2400.00000
G1 F1800
G1 X30.194 Y22.298 E2.17620
G1 X28.499 Y19.306 E2.28259
G1 X28.769 Y19.306 E2.29095
G1 X28.246 Y17.548 E2.34773
G1 X29.289 Y16.954 E2.38486
G1 X29.800 Y16.746 E2.40194
G1 X30.972 Y16.471 E2.43919
G1 X31.428 Y16.404 E2.45346
G1 X31.927 Y16.367 E2.46894
G1 X33.229 Y16.342 E2.50922
G1 X34.362 Y16.377 E2.54430
G1 X35.116 Y16.468 E2.56781
G1 X36.301 Y16.746 E2.60545
G1 X36.812 Y16.954 E2.62253
G1 X37.855 Y17.548 E2.65966
G1 X37.331 Y19.306 E2.71643
G1 X37.677 Y19.306 E2.72712
G1 X35.721 Y22.573 E2.84492
G1 X35.777 Y22.573 E2.84666
G1 X33.077 Y27.175 E3.01176
G1 X33.051 Y25.984 F7800.000
G1 F1800
G1 X31.441 Y23.197 E3.11134
G1 X34.686 Y23.197 E3.21173
G1 X33.081 Y25.933 E3.30986
G1 X32.851 Y26.331 F7800.000
G1 E1.30986 F2400.00000
G92 E0
G1 X30.558 Y21.673 F7800.000
G1 E2.00000 F2400.00000
G1 F1800
G1 X29.571 Y19.931 E2.06193
G1 X31.129 Y19.931 E2.11013
G1 X31.129 Y18.433 E2.15648
G1 X29.161 Y18.433 E2.21737
G1 X28.986 Y17.845 E2.23635
G1 X29.562 Y17.517 E2.25685
G1 X29.990 Y17.343 E2.27115
G1 X31.089 Y17.085 E2.30607
G1 X31.497 Y17.026 E2.31883
G1 X31.957 Y16.991 E2.33309
G1 X33.225 Y16.967 E2.37235
G1 X34.315 Y17.001 E2.40609
G1 X35.007 Y17.084 E2.42767
G1 X36.110 Y17.343 E2.46272
G1 X36.539 Y17.517 E2.47703
G1 X37.114 Y17.845 E2.49753
G1 X36.939 Y18.433 E2.51651
G1 X34.972 Y18.433 E2.57739
G1 X34.972 Y19.931 E2.62375
G1 X36.574 Y19.931 E2.67333
G1 X35.531 Y21.673 E2.73614
G1 X30.618 Y21.673 E2.88814
G1 X30.196 Y21.842 F7800.000
G1 X29.406 Y22.174 F7800.000
G1 F1800
G1 X27.491 Y22.715 E2.94973
G1 X27.491 Y19.683 E3.04355
G1 X27.511 Y19.683 E3.04419
G1 X27.521 Y19.402 E3.05288
G1 X27.797 Y19.335 E3.06165
G1 X29.377 Y22.122 E3.16078
G1 E1.16078 F2400.00000
G92 E0
G1 X36.729 Y22.184 F7800.000
G1 E2.00000 F2400.00000
G1 F1800
G1 X36.868 Y21.948 E2.00848
G1 X36.823 Y21.948 E2.00987
G1 X38.313 Y19.461 E2.09956
G1 X38.584 Y19.530 E2.10823
G1 X38.589 Y19.683 E2.11294
G1 X38.610 Y19.683 E2.11358
G1 X38.610 Y22.715 E2.20741
G1 X36.787 Y22.200 E2.26601
G1 X36.830 Y22.862 F7800.000
G1 F1800
G1 X35.165 Y25.574 E2.36449
G1 X35.247 Y25.574 E2.36704
G1 X34.060 Y27.620 E2.44023
G1 X32.040 Y27.620 E2.50272
G1 X30.853 Y25.574 E2.57591
G1 X30.936 Y25.574 E2.57846
G1 X29.270 Y22.862 E2.67694
G1 X27.778 Y23.283 E2.72492
G1 X27.778 Y25.830 E2.80371
G1 X26.866 Y25.830 E2.83193
G1 X26.866 Y19.058 E3.04147
G1 X26.908 Y19.058 E3.04278
G1 X26.942 Y18.108 E3.07219
G1 X27.032 Y17.858 E3.08040
G1 X27.203 Y17.571 E3.09075
G1 X27.376 Y17.356 E3.09928
G1 X27.673 Y17.074 E3.11195
G1 X27.973 Y16.850 E3.12353
G1 X28.320 Y16.645 E3.13601
G1 X28.602 Y16.518 E3.14556
G1 X28.957 Y16.388 E3.15727
G1 X29.547 Y16.219 E3.17628
G1 X30.099 Y16.094 E3.19377
G1 X30.862 Y15.962 E3.21774
G1 X31.387 Y15.909 E3.23406
G1 X33.141 Y15.845 E3.28837
G1 X34.708 Y15.908 E3.33690
G1 X35.316 Y15.974 E3.35581
G1 X36.001 Y16.094 E3.37732
G1 X36.553 Y16.219 E3.39484
G1 X37.144 Y16.388 E3.41385
G1 X37.499 Y16.518 E3.42556
G1 X37.780 Y16.645 E3.43511
G1 X38.128 Y16.850 E3.44759
G1 X38.428 Y17.074 E3.45917
G1 X38.724 Y17.356 E3.47184
G1 X38.897 Y17.571 E3.48037
G1 X39.068 Y17.858 E3.49072
G1 X39.158 Y18.108 E3.49893
G1 X39.192 Y19.058 E3.52834
G1 X39.235 Y19.058 E3.52965
G1 X39.235 Y25.830 E3.73919
G1 X38.323 Y25.830 E3.76741
G1 X38.323 Y23.283 E3.84620
G1 X36.888 Y22.878 E3.89232
G1 E1.89232 F2400.00000
G92 E0
G1 X29.819 Y24.949 F7800.000
G1 E2.00000 F2400.00000
G1 F1800
G1 X28.403 Y24.949 E2.04381
G1 X28.403 Y23.756 E2.08072
G1 X28.985 Y23.592 E2.09945
G1 X29.787 Y24.898 E2.14688
G1 X29.933 Y25.333 F7800.000
G1 X30.145 Y25.598 F7800.000
G1 F1800
G1 X29.553 Y25.756 E2.16583
G1 X29.552 Y26.455 E2.18745
G1 X25.228 Y26.455 E2.32123
G1 X25.228 Y24.949 E2.36782
G1 X26.241 Y24.949 E2.39916
G1 X26.241 Y19.931 E2.55443
G1 X25.290 Y19.931 E2.58386
G1 X25.290 Y18.433 E2.63022
G1 X26.305 Y18.433 E2.66165
G1 X26.320 Y18.028 E2.67419
G1 X26.361 Y17.846 E2.67997
G1 X26.473 Y17.577 E2.68898
G1 X26.689 Y17.214 E2.70206
G1 X26.915 Y16.932 E2.71323
G1 X27.269 Y16.596 E2.72833
G1 X27.626 Y16.328 E2.74214
G1 X28.032 Y16.090 E2.75672
G1 X28.365 Y15.939 E2.76801
G1 X28.763 Y15.793 E2.78114
G1 X29.393 Y15.613 E2.80139
G1 X29.977 Y15.481 E2.81992
G1 X30.777 Y15.343 E2.84506
G1 X31.344 Y15.285 E2.86269
G1 X33.142 Y15.220 E2.91837
G1 X34.755 Y15.285 E2.96829
G1 X35.404 Y15.355 E2.98849
G1 X36.124 Y15.481 E3.01111
G1 X36.708 Y15.613 E3.02965
G1 X37.337 Y15.793 E3.04990
G1 X37.736 Y15.939 E3.06302
G1 X38.068 Y16.090 E3.07432
G1 X38.474 Y16.328 E3.08889
G1 X38.832 Y16.596 E3.10271
G1 X39.185 Y16.932 E3.11780
G1 X39.412 Y17.214 E3.12898
G1 X39.628 Y17.577 E3.14206
G1 X39.740 Y17.846 E3.15107
G1 X39.781 Y18.028 E3.15684
G1 X39.795 Y18.433 E3.16939
G1 X40.811 Y18.433 E3.20082
G1 X40.811 Y19.931 E3.24717
G1 X39.860 Y19.931 E3.27661
G1 X39.860 Y24.949 E3.43187
G1 X40.873 Y24.949 E3.46322
G1 X40.873 Y26.455 E3.50981
G1 X36.549 Y26.455 E3.64359
G1 X36.548 Y25.756 E3.66521
G1 X35.956 Y25.598 E3.68416
G1 X34.420 Y28.245 E3.77886
G1 X31.681 Y28.245 E3.86362
G1 X30.175 Y25.650 E3.95646
G1 X29.948 Y25.249 F7800.000
G1 X29.914 Y25.298 F7800.000
G1 F1800
G1 X29.561 Y25.345 E3.95739
G1 F1800
G1 X29.208 Y25.391 E3.95986
G1 F1800
G1 X28.761 Y25.644 E3.96581
G1 F1800
G1 X28.314 Y25.896 E3.97428
G1 F1800
G1 X28.090 Y26.022 E3.97978
G1 X27.322 Y25.518 F7800.000
G1 F1800
G1 X27.322 Y23.088 E4.00528
G1 E2.00528 F2400.00000
G92 E0
G1 X29.847 Y22.767 F7800.000
G1 E2.00000 F2400.00000
G1 F1800
G1 X31.648 Y25.792 E2.06654
G1 F1800
G1 X31.702 Y25.969 E2.06955
G1 X32.477 Y27.308 E2.09475
G1 X33.621 Y27.308 F7800.000
G1 F1800
G1 X34.402 Y25.969 E2.12328
G1 X34.455 Y25.794 E2.12666
G1 X36.471 Y22.436 E2.19878
G1 X35.439 Y22.435 F7800.000
G1 F1800
G1 X30.640 Y22.435 E2.39476
G1 E0.39476 F2400.00000
G92 E0
G1 X30.817 Y19.182 F7800.000
G1 E2.00000 F2400.00000
G1 F1800
G1 X29.058 Y19.182 E2.06950
G1 E0.06950 F2400.00000
G92 E0
G1 X27.922 Y17.327 F7800.000
G1 E2.00000 F2400.00000
G1 F1800
G1 X28.493 Y16.977 E2.00071
G1 X28.845 Y16.803 E2.00113
G1 E0.00113 F2400.00000
G92 E0
G1 X35.284 Y19.182 F7800.000
G1 E2.00000 F2400.00000
G1 F1800
G1 X37.042 Y19.182 E2.06950
G1 E0.06950 F2400.00000
G92 E0
G1 X38.178 Y17.327 F7800.000
G1 E2.00000 F2400.00000
G1 F1800
G1 X37.608 Y16.977 E2.00139
G1 X37.256 Y16.803 E2.00220
G1 E0.00220 F2400.00000
G92 E0
G1 X38.779 Y23.088 F7800.000
G1 E2.00000 F2400.00000
G1 F1800
G1 X38.779 Y25.518 E2.02550
G1 X38.010 Y26.022 F7800.000
G1 F1800
G1 X37.563 Y25.770 E2.03650
G1 F1800
G1 X37.116 Y25.517 E2.04498
G1 F1800
G1 X36.893 Y25.391 E2.04795
G1 X36.716 Y25.368 E2.05001
G1 F1800
G1 X36.363 Y25.321 E2.05248
G1 F1800
G1 X36.187 Y25.298 E2.05295
G1 Z0.650 F7800.000
G1 X36.514 Y24.819 F7800.000
G1 F900
G1 X37.175 Y23.744 E2.07307
G1 X37.568 Y23.855 E2.07958
G1 X37.568 Y24.819 E2.09496
G1 X36.574 Y24.819 E2.11080
G1 X36.117 Y24.771 F7800.000
G1 E0.11080 F2400.00000
G92 E0
G1 X29.586 Y24.819 F7800.000
G1 E2.00000 F2400.00000
G1 F900
G1 X28.533 Y24.819 E2.01680
G1 X28.533 Y23.855 E2.03217
G1 X28.926 Y23.744 E2.03868
G1 X29.555 Y24.768 E2.05785
G1 X29.695 Y25.204 F7800.000
G1 X33.046 Y27.348 F7800.000
G1 F900
G1 X30.159 Y22.359 E2.16034
G1 X28.394 Y19.245 E2.22396
G1 X28.687 Y19.245 E2.22917
G1 X28.173 Y17.518 E2.26120
G1 X29.262 Y16.899 E2.28347
G1 X29.781 Y16.688 E2.29344
G1 X30.960 Y16.411 E2.31498
G1 X31.422 Y16.343 E2.32326
G1 X31.924 Y16.306 E2.33223
G1 X33.231 Y16.281 E2.35546
G1 X34.367 Y16.316 E2.37566
G1 X35.127 Y16.407 E2.38927
G1 X36.319 Y16.688 E2.41104
G1 X36.839 Y16.899 E2.42101
G1 X37.927 Y17.518 E2.44328
G1 X37.414 Y19.245 E2.47531
G1 X37.785 Y19.245 E2.48191
G1 X35.829 Y22.511 E2.54959
G1 X35.884 Y22.511 E2.55058
G1 X33.076 Y27.297 E2.64921
G1 X33.049 Y26.516 F7800.000
G1 F900
G1 X30.978 Y22.930 E2.72282
G1 X35.153 Y22.930 E2.79702
G1 X33.079 Y26.464 E2.86986
G1 X33.052 Y25.726 F7800.000
G1 F900
G1 X31.666 Y23.327 E2.91402
G1 X34.459 Y23.327 E2.95853
G1 X33.082 Y25.674 E3.00191
G1 X32.852 Y26.072 F7800.000
G1 X30.403 Y21.940 F7800.000
G1 F900
G1 X29.113 Y19.664 E3.04842
G1 X30.862 Y19.664 E3.07951
G1 X30.862 Y18.700 E3.09664
G1 X28.962 Y18.700 E3.13042
G1 X28.669 Y17.718 E3.14864
G1 X29.445 Y17.276 E3.16450
G1 X29.909 Y17.088 E3.17340
G1 X31.039 Y16.822 E3.19404
G1 X31.468 Y16.760 E3.20174
G1 X31.944 Y16.724 E3.21024
G1 X33.228 Y16.700 E3.23307
G1 X34.335 Y16.734 E3.25276
G1 X35.054 Y16.821 E3.26563
G1 X36.192 Y17.088 E3.28641
G1 X36.656 Y17.276 E3.29531
G1 X37.431 Y17.718 E3.31117
G1 X37.139 Y18.700 E3.32940
G1 X35.239 Y18.700 E3.36317
G1 X35.239 Y19.664 E3.38030
G1 X37.046 Y19.664 E3.41242
G1 X35.683 Y21.940 E3.45959
G1 X30.463 Y21.940 E3.55238
G1 X30.634 Y21.543 F7800.000
G1 F900
G1 X29.795 Y20.061 E3.57953
G1 X31.259 Y20.061 E3.60287
G1 X31.259 Y18.303 E3.63090
G1 X29.258 Y18.303 E3.66280
G1 X29.140 Y17.907 E3.66939
G1 X29.619 Y17.635 E3.67817
G1 X30.030 Y17.467 E3.68524
G1 X31.113 Y17.213 E3.70298
G1 X31.511 Y17.155 E3.70939
G1 X31.963 Y17.121 E3.71661
G1 X33.226 Y17.097 E3.73675
G1 X34.305 Y17.131 E3.75397
G1 X34.985 Y17.212 E3.76488
G1 X36.071 Y17.467 E3.78266
G1 X36.482 Y17.635 E3.78973
G1 X36.960 Y17.907 E3.79851
G1 X36.842 Y18.303 E3.80510
G1 X34.842 Y18.303 E3.83700
G1 X34.842 Y20.061 E3.86503
G1 X36.345 Y20.061 E3.88899
G1 X35.457 Y21.543 E3.91652
G1 X30.694 Y21.543 E3.99245
G1 X30.270 Y21.709 F7800.000
G1 X29.298 Y22.790 F7800.000
G1 F3600
G1 X27.717 Y23.237 E4.02167
G1 X27.717 Y25.769 E4.06667
G1 X26.927 Y25.769 E4.08071
G1 X26.927 Y19.119 E4.19892
G1 X26.967 Y19.119 E4.19964
G1 X27.003 Y18.116 E4.21749
G1 X27.087 Y17.886 E4.22184
G1 X27.254 Y17.606 E4.22763
G1 X27.421 Y17.398 E4.23238
G1 X27.712 Y17.121 E4.23952
G1 X28.007 Y16.901 E4.24605
G1 X28.349 Y16.700 E4.25311
G1 X28.625 Y16.575 E4.25850
G1 X28.976 Y16.446 E4.26514
G1 X29.563 Y16.278 E4.27599
G1 X30.111 Y16.154 E4.28598
G1 X30.871 Y16.023 E4.29969
G1 X31.392 Y15.970 E4.30900
G1 X33.114 Y15.906 E4.33965
G1 X34.704 Y15.970 E4.36793
G1 X35.307 Y16.035 E4.37872
G1 X35.989 Y16.154 E4.39102
G1 X36.538 Y16.278 E4.40103
G1 X37.125 Y16.446 E4.41188
G1 X37.476 Y16.575 E4.41853
G1 X37.752 Y16.700 E4.42391
G1 X38.094 Y16.901 E4.43097
G1 X38.388 Y17.121 E4.43750
G1 X38.679 Y17.398 E4.44464
G1 X38.847 Y17.606 E4.44939
G1 X39.013 Y17.886 E4.45518
G1 X39.097 Y18.116 E4.45954
G1 X39.133 Y19.119 E4.47738
G1 X39.173 Y19.119 E4.47810
G1 X39.173 Y25.769 E4.59631
G1 X38.384 Y25.769 E4.61035
G1 X38.384 Y23.237 E4.65535
G1 X36.803 Y22.790 E4.68457
G1 X35.055 Y25.635 E4.74392
G1 X35.141 Y25.635 E4.74545
G1 X34.025 Y27.559 E4.78498
G1 X32.076 Y27.559 E4.81963
G1 X30.960 Y25.635 E4.85917
G1 X31.045 Y25.635 E4.86069
G1 X29.329 Y22.841 E4.91897
G1 X29.107 Y23.280 F7800.000
G1 F3600
G1 X28.135 Y23.554 E4.93692
G1 X28.135 Y25.216 E4.96648
G1 X29.690 Y25.216 E4.99412
G1 X29.719 Y25.435 E4.99804
G1 X29.286 Y25.551 E5.00600
G1 X29.285 Y26.188 E5.01732
G1 X25.495 Y26.188 E5.08470
G1 X25.495 Y25.216 E5.10196
G1 X26.508 Y25.216 E5.11997
G1 X26.508 Y19.664 E5.21868
G1 X25.557 Y19.664 E5.23560
G1 X25.557 Y18.700 E5.25273
G1 X26.563 Y18.700 E5.27062
G1 X26.586 Y18.062 E5.28197
G1 X26.616 Y17.927 E5.28443
G1 X26.712 Y17.697 E5.28886
G1 X26.909 Y17.366 E5.29570
G1 X27.112 Y17.114 E5.30147
G1 X27.442 Y16.800 E5.30955
G1 X27.774 Y16.551 E5.31694
G1 X28.156 Y16.327 E5.32480
G1 X28.466 Y16.187 E5.33086
G1 X28.846 Y16.048 E5.33805
G1 X29.459 Y15.872 E5.34938
G1 X30.029 Y15.743 E5.35977
G1 X30.814 Y15.608 E5.37393
G1 X31.363 Y15.552 E5.38374
G1 X33.115 Y15.487 E5.41491
G1 X34.735 Y15.552 E5.44374
G1 X35.366 Y15.620 E5.45502
G1 X36.071 Y15.743 E5.46775
G1 X36.642 Y15.872 E5.47815
G1 X37.255 Y16.048 E5.48948
G1 X37.634 Y16.187 E5.49667
G1 X37.945 Y16.327 E5.50273
G1 X38.326 Y16.551 E5.51059
G1 X38.659 Y16.800 E5.51798
G1 X38.988 Y17.114 E5.52606
G1 X39.192 Y17.366 E5.53183
G1 X39.388 Y17.697 E5.53868
G1 X39.484 Y17.927 E5.54310
G1 X39.515 Y18.062 E5.54556
G1 X39.537 Y18.700 E5.55691
G1 X40.544 Y18.700 E5.57480
G1 X40.544 Y19.664 E5.59194
G1 X39.592 Y19.664 E5.60885
G1 X39.592 Y25.216 E5.70756
G1 X40.605 Y25.216 E5.72557
G1 X40.605 Y26.188 E5.74283
G1 X36.816 Y26.188 E5.81021
G1 X36.814 Y25.551 E5.82153
G1 X36.381 Y25.435 E5.82949
G1 X36.410 Y25.216 E5.83341
G1 X37.965 Y25.216 E5.86106
G1 X37.965 Y23.554 E5.89061
G1 X36.994 Y23.280 E5.90856
G1 X35.804 Y25.216 E5.94897
G1 X35.868 Y25.216 E5.95010
G1 X34.266 Y27.978 E6.00686
G1 X31.834 Y27.978 E6.05009
G1 X30.232 Y25.216 E6.10684
G1 X30.296 Y25.216 E6.10798
G1 X29.138 Y23.331 E6.14732
G1 X29.683 Y25.856 F7800.000
G1 F1800
G1 X29.681 Y26.585 E6.15894
G1 X25.098 Y26.585 E6.23201
G1 X25.098 Y24.819 E6.26016
G1 X26.111 Y24.819 E6.27631
G1 X26.111 Y20.061 E6.35216
G1 X25.160 Y20.061 E6.36733
G1 X25.160 Y18.303 E6.39535
G1 X26.180 Y18.303 E6.41162
G1 X26.190 Y18.011 E6.41628
G1 X26.236 Y17.806 E6.41963
G1 X26.356 Y17.518 E6.42459
G1 X26.582 Y17.139 E6.43163
G1 X26.820 Y16.844 E6.43767
G1 X27.185 Y16.496 E6.44571
G1 X27.554 Y16.220 E6.45306
G1 X27.973 Y15.974 E6.46080
G1 X28.316 Y15.819 E6.46680
G1 X28.723 Y15.670 E6.47372
G1 X29.360 Y15.487 E6.48429
G1 X29.951 Y15.354 E6.49394
G1 X30.760 Y15.214 E6.50702
G1 X31.335 Y15.155 E6.51625
G1 X33.115 Y15.089 E6.54464
G1 X34.764 Y15.155 E6.57095
G1 X35.422 Y15.226 E6.58149
G1 X36.149 Y15.354 E6.59327
G1 X36.740 Y15.487 E6.60293
G1 X37.378 Y15.670 E6.61350
G1 X37.785 Y15.819 E6.62041
G1 X38.128 Y15.974 E6.62642
G1 X38.546 Y16.220 E6.63415
G1 X38.916 Y16.496 E6.64151
G1 X39.281 Y16.844 E6.64954
G1 X39.519 Y17.139 E6.65559
G1 X39.744 Y17.518 E6.66262
G1 X39.864 Y17.806 E6.66759
G1 X39.910 Y18.011 E6.67094
G1 X39.921 Y18.303 E6.67559
G1 X40.941 Y18.303 E6.69186
G1 X40.941 Y20.061 E6.71989
G1 X39.990 Y20.061 E6.73505
