; generated by Slic3r 1.3.0 on 2020-06-30 at 10:41:03

; external perimeters extrusion width = 0.44mm (3.38mm^3/s)
; perimeters extrusion width = 0.48mm (7.54mm^3/s)
; infill extrusion width = 0.48mm (10.05mm^3/s)
; solid infill extrusion width = 0.48mm (2.51mm^3/s)
; top infill extrusion width = 0.48mm (1.88mm^3/s)

M107
M190 S35 ; set bed temperature and wait for it to be reached
M109 S210 ; set temperature and wait for it to be reached
G28 ; home all axes
G1 Z5 F5000 ; lift nozzle

; Filament gcode

M109 S210 ; set temperature and wait for it to be reached
G21 ; set units to millimeters
G90 ; use absolute coordinates
M82 ; use absolute distances for extrusion
G92 E0
G1 Z0.350 F7800.000
G1 E-2.00000 F2400.00000
G92 E0
G1 X3.675 Y6.126 F7800.000
G1 E2.00000 F2400.00000
G1 F1800
G1 X7.015 Y3.356 E2.13424
G1 X7.573 Y2.953 E2.15554
G1 X7.972 Y2.692 E2.17030
G1 X8.624 Y2.309 E2.19370
G1 X9.081 Y2.071 E2.20963
G1 X9.756 Y1.761 E2.23263
G1 X10.362 Y1.519 E2.25281
G1 X11.058 Y1.277 E2.27560
G1 X11.820 Y1.049 E2.30023
G1 X12.686 Y0.829 E2.32786
G1 X13.518 Y0.648 E2.35421
G1 X14.704 Y0.440 E2.39146
G1 X15.388 Y0.344 E2.41284
G1 X16.622 Y0.247 E2.45113
G1 X18.564 Y0.168 E2.51127
G1 X19.368 Y0.161 E2.53615
G1 X22.254 Y0.289 E2.62554
G1 X23.105 Y0.382 E2.65204
G1 X24.090 Y0.542 E2.68291
G1 X25.108 Y0.739 E2.71500
G1 X26.229 Y1.010 E2.75067
G1 X27.135 Y1.277 E2.77990
G1 X27.830 Y1.519 E2.80269
G1 X28.562 Y1.815 E2.82710
G1 X29.360 Y2.197 E2.85447
G1 X30.003 Y2.558 E2.87728
G1 X30.620 Y2.953 E2.89996
G1 X31.530 Y3.635 E2.93514
G1 X34.517 Y6.126 E3.05549
G1 X35.997 Y7.878 E3.12645
G1 X36.897 Y11.150 E3.23144
G1 X36.982 Y20.129 E3.50927
G1 X36.982 Y23.231 E3.60526
G1 X36.585 Y25.490 E3.67622
G1 X35.442 Y27.478 E3.74718
G1 X33.689 Y28.957 E3.81814
G1 X32.091 Y29.625 E3.87173
G1 X22.995 Y32.091 E4.16334
G1 X21.261 Y32.322 E4.21746
G1 X16.931 Y32.322 E4.35145
G1 X15.197 Y32.091 E4.40557
G1 X6.101 Y29.625 E4.69718
G1 X4.025 Y28.651 E4.76814
G1 X2.405 Y27.027 E4.83911
G1 X1.436 Y24.948 E4.91007
G1 X1.210 Y23.231 E4.96366
G1 X1.210 Y20.129 E5.05964
G1 X1.296 Y11.150 E5.33747
G1 X1.714 Y8.895 E5.40844
G1 X3.641 Y6.175 E5.51157
G1 E3.51157 F2400.00000
G92 E0
G1 X23.786 Y20.542 F7800.000
G1 E2.00000 F2400.00000
G1 F1800
G1 X24.786 Y18.913 E2.05913
G1 X25.368 Y19.078 E2.07785
G1 X25.368 Y20.542 E2.12315
G1 X23.846 Y20.542 E2.17025
G1 X23.389 Y20.494 F7800.000
G1 E0.17025 F2400.00000
G92 E0
G1 X14.407 Y20.542 F7800.000
G1 E2.00000 F2400.00000
G1 F1800
G1 X12.824 Y20.542 E2.04896
G1 X12.824 Y19.078 E2.09426
G1 X13.407 Y18.913 E2.11298
G1 X14.375 Y20.490 E2.17025
G1 X14.515 Y20.927 F7800.000
G1 E0.17025 F2400.00000
G92 E0
G1 X16.026 Y17.767 F7800.000
G1 E2.00000 F2400.00000
G1 F1800
G1 X22.210 Y17.767 E2.19135
G1 X19.094 Y23.080 E2.38192
G1 X16.056 Y17.819 E2.56987
G1 X17.108 Y18.392 F7800.000
G1 F1800
G1 X21.119 Y18.392 E2.69396
G1 X19.098 Y21.837 E2.81755
G1 X17.138 Y18.444 E2.93879
G1 X16.908 Y18.046 F7800.000
G1 E0.93879 F2400.00000
G92 E0
G1 X13.977 Y17.453 F7800.000
G1 E2.00000 F2400.00000
G1 F1800
G1 X11.575 Y18.132 E2.07724
G1 X11.575 Y21.631 E2.18550
G1 X10.831 Y21.631 E2.20852
G1 X10.831 Y12.812 E2.48138
G1 X10.880 Y12.812 E2.48291
G1 X10.947 Y11.226 E2.53205
G1 X11.034 Y11.019 E2.53899
G1 X11.251 Y10.654 E2.55213
G1 X11.485 Y10.362 E2.56371
G1 X11.830 Y10.035 E2.57842
G1 X12.242 Y9.727 E2.59432
G1 X12.697 Y9.460 E2.61066
G1 X13.063 Y9.294 E2.62310
G1 X13.535 Y9.121 E2.63865
G1 X13.800 Y9.045 E2.64718
G1 X13.930 Y9.350 E2.65745
G1 X12.133 Y10.386 E2.72164
G1 X12.804 Y12.642 E2.79445
G1 X12.385 Y12.642 E2.80742
G1 X15.011 Y17.276 E2.97225
G1 X18.960 Y24.098 E3.21612
G1 X17.852 Y24.098 E3.25040
G1 X16.514 Y21.791 E3.33290
G1 X16.641 Y21.791 E3.33682
G1 X14.008 Y17.504 E3.49248
G1 X15.376 Y16.651 F7800.000
G1 F1800
G1 X13.457 Y13.267 E3.61286
G1 X15.956 Y13.267 E3.69018
G1 X15.956 Y12.187 E3.72358
G1 X13.321 Y12.187 E3.80512
G1 X12.872 Y10.681 E3.85375
G1 X14.065 Y9.994 E3.89635
G1 X14.590 Y9.771 E3.91400
G1 X15.067 Y9.630 E3.92939
G1 X16.306 Y9.352 E3.96868
G1 X16.902 Y9.265 E3.98730
G1 X17.559 Y9.216 E4.00769
G1 X18.490 Y9.185 E4.03652
G1 X19.326 Y9.182 E4.06239
G1 X20.160 Y9.196 E4.08820
G1 X21.014 Y9.240 E4.11465
G1 X21.543 Y9.296 E4.13110
G1 X22.097 Y9.395 E4.14851
G1 X23.127 Y9.630 E4.18122
G1 X23.602 Y9.771 E4.19654
G1 X24.127 Y9.994 E4.21419
G1 X25.320 Y10.681 E4.25679
G1 X24.872 Y12.187 E4.30542
G1 X22.236 Y12.187 E4.38696
G1 X22.236 Y13.267 E4.42036
G1 X24.821 Y13.267 E4.50033
G1 X22.794 Y16.651 E4.62241
G1 X15.436 Y16.651 E4.85008
G1 X15.740 Y16.027 F7800.000
G1 F1800
G1 X14.530 Y13.892 E4.92602
G1 X16.581 Y13.892 E4.98949
G1 X16.581 Y11.563 E5.06155
G1 X13.787 Y11.563 E5.14802
G1 X13.612 Y10.976 E5.16695
G1 X14.344 Y10.554 E5.19310
G1 X14.802 Y10.360 E5.20848
G1 X15.224 Y10.235 E5.22211
G1 X16.420 Y9.967 E5.26002
G1 X16.970 Y9.887 E5.27723
G1 X17.593 Y9.841 E5.29655
G1 X18.502 Y9.810 E5.32469
G1 X20.139 Y9.821 E5.37535
G1 X20.965 Y9.863 E5.40094
G1 X21.455 Y9.915 E5.41618
G1 X21.972 Y10.008 E5.43245
G1 X22.969 Y10.235 E5.46407
G1 X23.391 Y10.360 E5.47768
G1 X23.848 Y10.554 E5.49306
G1 X24.580 Y10.976 E5.51921
G1 X24.406 Y11.563 E5.53814
G1 X21.611 Y11.563 E5.62461
G1 X21.611 Y13.892 E5.69667
G1 X23.718 Y13.892 E5.76186
G1 X22.440 Y16.027 E5.83886
G1 X15.800 Y16.027 E6.04432
G1 X15.376 Y16.194 F7800.000
G1 E4.04432 F2400.00000
G92 E0
G1 X24.216 Y17.453 F7800.000
G1 E2.00000 F2400.00000
G1 F1800
G1 X21.552 Y21.791 E2.15751
G1 X21.678 Y21.791 E2.16143
G1 X20.340 Y24.098 E2.24394
G1 X19.221 Y24.098 E2.27857
G1 X23.301 Y17.142 E2.52808
G1 X23.228 Y17.142 E2.53034
G1 X25.924 Y12.642 E2.69266
G1 X25.389 Y12.642 E2.70922
G1 X26.060 Y10.386 E2.78203
G1 X24.263 Y9.350 E2.84622
G1 X24.392 Y9.045 E2.85648
G1 X24.657 Y9.121 E2.86502
G1 X25.129 Y9.294 E2.88057
G1 X25.495 Y9.460 E2.89301
G1 X25.951 Y9.727 E2.90935
G1 X26.362 Y10.035 E2.92525
G1 X26.707 Y10.362 E2.93996
G1 X26.942 Y10.654 E2.95154
G1 X27.159 Y11.019 E2.96468
G1 X27.245 Y11.226 E2.97162
G1 X27.312 Y12.812 E3.02076
G1 X27.362 Y12.812 E3.02229
G1 X27.362 Y21.631 E3.29515
G1 X26.618 Y21.631 E3.31816
G1 X26.618 Y18.132 E3.42643
G1 X24.273 Y17.470 E3.50181
G1 X24.501 Y18.183 F7800.000
G1 F1800
G1 X22.669 Y21.166 E3.61013
G1 X22.763 Y21.166 E3.61306
G1 X20.700 Y24.723 E3.74027
G1 X17.492 Y24.723 E3.83952
G1 X15.429 Y21.166 E3.96673
G1 X15.524 Y21.166 E3.96966
G1 X13.692 Y18.183 E4.07798
G1 X12.199 Y18.605 E4.12596
G1 X12.199 Y21.166 E4.20522
G1 X13.786 Y21.166 E4.25431
G1 X13.784 Y22.256 E4.28802
G1 X8.810 Y22.256 E4.44191
G1 X8.810 Y21.166 E4.47562
G1 X10.206 Y21.166 E4.51882
G1 X10.206 Y13.267 E4.76325
G1 X8.895 Y13.267 E4.80381
G1 X8.895 Y12.187 E4.83720
G1 X10.277 Y12.187 E4.87997
G1 X10.313 Y11.200 E4.91055
G1 X10.350 Y11.035 E4.91577
G1 X10.474 Y10.737 E4.92576
G1 X10.736 Y10.296 E4.94164
G1 X11.017 Y9.947 E4.95551
G1 X11.435 Y9.550 E4.97333
G1 X11.895 Y9.206 E4.99112
G1 X12.409 Y8.904 E5.00956
G1 X12.827 Y8.715 E5.02374
G1 X13.342 Y8.526 E5.04071
G1 X14.178 Y8.287 E5.06764
G1 X14.957 Y8.111 E5.09235
G1 X16.031 Y7.925 E5.12607
G1 X16.779 Y7.849 E5.14933
G1 X19.228 Y7.760 E5.22515
G1 X21.408 Y7.848 E5.29267
G1 X22.270 Y7.941 E5.31948
G1 X23.234 Y8.111 E5.34978
G1 X24.014 Y8.287 E5.37452
G1 X24.851 Y8.526 E5.40145
G1 X25.366 Y8.715 E5.41842
G1 X25.783 Y8.904 E5.43260
G1 X26.297 Y9.206 E5.45104
G1 X26.758 Y9.550 E5.46883
G1 X27.175 Y9.947 E5.48665
G1 X27.456 Y10.296 E5.50052
G1 X27.718 Y10.737 E5.51640
G1 X27.843 Y11.035 E5.52639
G1 X27.880 Y11.200 E5.53161
G1 X27.915 Y12.187 E5.56219
G1 X29.297 Y12.187 E5.60496
G1 X29.297 Y13.267 E5.63835
G1 X27.987 Y13.267 E5.67891
G1 X27.987 Y21.166 E5.92334
G1 X29.383 Y21.166 E5.96654
G1 X29.383 Y22.256 E6.00025
G1 X24.409 Y22.256 E6.15414
G1 X24.407 Y21.166 E6.18785
G1 X25.993 Y21.166 E6.23694
G1 X25.993 Y18.605 E6.31620
G1 X24.558 Y18.200 E6.36232
G1 E4.36232 F2400.00000
G92 E0
G1 X23.783 Y21.832 F7800.000
G1 E2.00000 F2400.00000
G1 F1800
G1 X23.192 Y21.674 E2.01895
G1 X21.060 Y25.348 E2.15038
G1 X17.133 Y25.348 E2.27189
G1 X15.001 Y21.674 E2.40332
G1 X14.409 Y21.832 E2.42227
G1 X14.407 Y22.881 E2.45472
G1 X8.185 Y22.881 E2.64724
G1 X8.185 Y20.542 E2.71962
G1 X9.581 Y20.542 E2.76282
G1 X9.581 Y13.892 E2.96858
G1 X8.270 Y13.892 E3.00914
G1 X8.270 Y11.563 E3.08120
G1 X9.674 Y11.563 E3.12465
G1 X9.690 Y11.119 E3.13837
G1 X9.752 Y10.845 E3.14707
G1 X9.914 Y10.456 E3.16013
G1 X10.222 Y9.939 E3.17873
G1 X10.549 Y9.532 E3.19489
G1 X11.039 Y9.066 E3.21582
G1 X11.549 Y8.685 E3.23551
G1 X12.121 Y8.349 E3.25604
G1 X12.590 Y8.136 E3.27197
G1 X13.148 Y7.932 E3.29036
G1 X14.023 Y7.681 E3.31853
G1 X14.835 Y7.498 E3.34428
G1 X15.946 Y7.305 E3.37917
G1 X16.736 Y7.225 E3.40374
G1 X19.229 Y7.135 E3.48093
G1 X21.454 Y7.225 E3.54984
G1 X22.357 Y7.322 E3.57794
G1 X23.357 Y7.498 E3.60935
G1 X24.169 Y7.681 E3.63511
G1 X25.045 Y7.932 E3.66328
G1 X25.603 Y8.136 E3.68167
G1 X26.071 Y8.349 E3.69760
G1 X26.644 Y8.685 E3.71813
G1 X27.153 Y9.066 E3.73781
G1 X27.417 Y9.301 E3.74875
G1 X27.643 Y9.532 E3.75876
G1 X27.971 Y9.939 E3.77492
G1 X28.278 Y10.456 E3.79353
G1 X28.441 Y10.845 E3.80658
G1 X28.502 Y11.119 E3.81528
G1 X28.518 Y11.563 E3.82900
G1 X29.922 Y11.563 E3.87245
G1 X29.922 Y13.892 E3.94451
G1 X28.611 Y13.892 E3.98507
G1 X28.611 Y20.542 E4.19083
G1 X30.007 Y20.542 E4.23403
G1 X30.007 Y22.881 E4.30641
G1 X23.785 Y22.881 E4.49893
G1 X23.783 Y21.892 E4.52953
G1 X23.667 Y21.449 F7800.000
G1 X24.720 Y21.711 F7800.000
G1 F1800
G1 X26.305 Y21.711 E4.56011
G1 X26.990 Y21.319 F7800.000
G1 F1800
G1 X26.990 Y17.912 E4.56748
G1 X26.737 Y17.631 F7800.000
G1 F1800
G1 X26.737 Y13.079 E4.73650
G1 X26.258 Y12.956 E4.75485
G1 X25.987 Y13.409 E4.77446
G1 X25.987 Y17.648 E4.93186
G1 X25.237 Y17.436 E4.96079
G1 X25.237 Y14.661 E5.06384
G1 X24.487 Y15.913 E5.11802
G1 X24.487 Y17.003 E5.15851
G1 X24.310 Y16.897 E5.16620
G1 X24.487 Y16.600 E5.17902
G1 X23.911 Y17.042 F7800.000
G1 F1800
G1 X22.724 Y19.019 E5.20717
G1 F1800
G1 X20.905 Y22.050 E5.23755
G1 X20.895 Y22.107 E5.23805
G1 F1800
G1 X20.876 Y22.221 E5.23957
G1 X19.963 Y23.785 E5.26325
G1 X18.226 Y23.785 F7800.000
G1 F1800
G1 X17.321 Y22.222 E5.28389
G1 X17.291 Y22.048 E5.28590
G1 X15.573 Y19.163 E5.32425
G1 F1800
G1 X14.304 Y17.036 E5.35952
G1 X13.886 Y16.901 F7800.000
G1 F1800
G1 X13.886 Y16.214 E5.38505
G1 X13.136 Y14.891 E5.44151
G1 X13.136 Y17.385 E5.53414
G1 X12.386 Y17.597 E5.56307
G1 X12.386 Y13.568 E5.71269
G1 X11.636 Y12.245 E5.76915
G1 X11.636 Y17.631 E5.96915
G1 X11.456 Y17.631 E5.97585
G1 X11.456 Y13.781 E6.11881
G1 X11.479 Y13.781 E6.11969
G1 X11.524 Y12.734 E6.15861
G1 X11.636 Y12.932 E6.16708
G1 X10.518 Y12.727 F7800.000
G1 F1800
G1 X9.207 Y12.727 E6.19170
G1 E4.19170 F2400.00000
G92 E0
G1 X13.155 Y12.727 F7800.000
G1 E2.00000 F2400.00000
G1 F1800
G1 X15.644 Y12.727 E2.04673
G1 E0.04673 F2400.00000
G92 E0
G1 X14.158 Y9.088 F7800.000
G1 E2.00000 F2400.00000
G1 F1800
G1 X15.104 Y8.850 E2.03773
G1 X16.130 Y8.646 E2.07816
G1 F1800
G1 X16.828 Y8.558 E2.10280
G1 X18.483 Y8.486 E2.16085
G1 X19.327 Y8.474 E2.19042
G1 X21.080 Y8.540 E2.25188
G1 F1800
G1 X21.629 Y8.589 E2.27270
G1 X22.252 Y8.681 E2.29647
G1 F1800
G1 X23.304 Y8.898 E2.34036
G1 X24.034 Y9.088 E2.37116
G1 E0.37116 F2400.00000
G92 E0
G1 X26.480 Y10.578 F7800.000
G1 E2.00000 F2400.00000
G1 F1800
G1 X26.524 Y11.413 E2.03399
G1 X26.506 Y11.554 E2.03977
G1 F1800
G1 X26.475 Y11.840 E2.05279
G1 F1800
G1 X26.528 Y11.980 E2.05914
G1 F1800
G1 X26.580 Y12.120 E2.06478
G1 F1800
G1 X26.633 Y12.261 E2.06972
G1 F1800
G1 X26.685 Y12.401 E2.07396
G1 F1800
G1 X26.711 Y12.471 E2.07575
G1 X26.639 Y12.752 E2.08269
G1 X27.674 Y12.727 F7800.000
G1 F1800
G1 X28.985 Y12.727 E2.10731
G1 E0.10731 F2400.00000
G92 E0
G1 X25.037 Y12.727 F7800.000
G1 E2.00000 F2400.00000
G1 F1800
G1 X22.549 Y12.727 E2.04673
G1 E0.04673 F2400.00000
G92 E0
G1 X22.824 Y17.209 F7800.000
G1 E2.00000 F2400.00000
G1 F1800
G1 X15.343 Y17.209 E2.15406
G1 E0.15406 F2400.00000
G92 E0
G1 X11.203 Y17.912 F7800.000
G1 E2.00000 F2400.00000
G1 F1800
G1 X11.203 Y21.319 E2.00737
G1 X11.887 Y21.711 F7800.000
G1 F1800
G1 X13.472 Y21.711 E2.03795
G1 E0.03795 F2400.00000
G92 E0
G1 X10.518 Y21.711 F7800.000
G1 E2.00000 F2400.00000
G1 F1800
G1 X9.122 Y21.711 E2.02692
G1 E0.02692 F2400.00000
G92 E0
G1 X27.674 Y21.711 F7800.000
G1 E2.00000 F2400.00000
G1 F1800
G1 X29.070 Y21.711 E2.02692
G1 Z0.650 F7800.000
G1 X23.308 Y20.809 F7800.000
G1 F900
G1 X24.664 Y18.601 E2.07299
G1 X25.635 Y18.875 E2.09093
G1 X25.635 Y20.809 E2.12531
G1 X23.368 Y20.809 E2.16561
G1 X24.018 Y20.412 F7800.000
G1 F900
G1 X24.845 Y19.065 E2.19081
G1 X25.238 Y19.176 E2.19732
G1 X25.238 Y20.412 E2.21702
G1 X24.078 Y20.412 E2.23551
G1 X23.620 Y20.370 F7800.000
G1 E0.23551 F2400.00000
G92 E0
G1 X14.884 Y20.809 F7800.000
G1 E2.00000 F2400.00000
G1 F900
G1 X12.557 Y20.809 E2.04138
G1 X12.557 Y18.875 E2.07575
G1 X13.529 Y18.601 E2.09369
G1 X14.853 Y20.758 E2.13869
G1 X14.174 Y20.412 F7800.000
G1 F900
G1 X12.954 Y20.412 E2.15814
G1 X12.954 Y19.176 E2.17784
G1 X13.347 Y19.065 E2.18435
G1 X14.143 Y20.360 E2.20858
G1 X14.277 Y20.798 F7800.000
G1 X15.920 Y17.706 F7800.000
G1 F900
G1 X22.317 Y17.706 E2.32231
G1 X19.093 Y23.201 E2.43558
G1 X15.950 Y17.758 E2.54732
G1 X16.645 Y18.125 F7800.000
G1 F900
G1 X21.586 Y18.125 E2.63515
G1 X19.096 Y22.369 E2.72262
G1 X16.675 Y18.177 E2.80867
G1 X17.333 Y18.522 F7800.000
G1 F900
G1 X20.892 Y18.522 E2.86540
G1 X19.099 Y21.579 E2.92190
G1 X17.363 Y18.574 E2.97721
G1 X17.133 Y18.176 F7800.000
G1 X15.340 Y16.713 F7800.000
G1 F3600
G1 X13.352 Y13.205 E3.04888
G1 X15.895 Y13.205 E3.09409
G1 X15.895 Y12.249 E3.11110
G1 X13.275 Y12.249 E3.15768
G1 X12.800 Y10.652 E3.18728
G1 X14.038 Y9.939 E3.21269
G1 X14.570 Y9.713 E3.22296
G1 X15.052 Y9.570 E3.23190
G1 X16.295 Y9.292 E3.25455
G1 X16.895 Y9.205 E3.26533
G1 X17.556 Y9.155 E3.27711
G1 X18.489 Y9.124 E3.29371
G1 X19.302 Y9.121 E3.30816
G1 X20.162 Y9.135 E3.32345
G1 X21.019 Y9.179 E3.33870
G1 X21.551 Y9.236 E3.34822
G1 X22.109 Y9.335 E3.35829
G1 X23.143 Y9.571 E3.37714
G1 X23.623 Y9.713 E3.38604
G1 X24.155 Y9.939 E3.39632
G1 X25.393 Y10.652 E3.42172
G1 X24.918 Y12.249 E3.45133
G1 X22.298 Y12.249 E3.49791
G1 X22.298 Y13.205 E3.51491
G1 X24.929 Y13.205 E3.56170
G1 X22.829 Y16.713 E3.63438
G1 X15.400 Y16.713 E3.76644
G1 X15.584 Y16.294 F7800.000
G1 F3600
G1 X14.071 Y13.624 E3.82099
G1 X16.314 Y13.624 E3.86087
G1 X16.314 Y11.830 E3.89277
G1 X13.587 Y11.830 E3.94124
G1 X13.296 Y10.850 E3.95941
G1 X14.225 Y10.314 E3.97848
G1 X14.711 Y10.108 E3.98788
G1 X15.157 Y9.976 E3.99614
G1 X16.371 Y9.704 E4.01826
G1 X16.941 Y9.621 E4.02850
G1 X17.578 Y9.574 E4.03986
G1 X18.497 Y9.543 E4.05619
G1 X19.299 Y9.540 E4.07046
G1 X20.148 Y9.554 E4.08555
G1 X20.986 Y9.597 E4.10047
G1 X21.492 Y9.651 E4.10952
G1 X22.026 Y9.746 E4.11915
G1 X23.037 Y9.976 E4.13759
G1 X23.481 Y10.108 E4.14583
G1 X23.968 Y10.314 E4.15522
G1 X24.897 Y10.850 E4.17429
G1 X24.605 Y11.830 E4.19246
G1 X21.879 Y11.830 E4.24093
G1 X21.879 Y13.624 E4.27284
G1 X24.190 Y13.624 E4.31393
G1 X22.591 Y16.294 E4.36924
G1 X15.644 Y16.294 E4.49275
G1 X15.815 Y15.897 F7800.000
G1 F900
G1 X14.753 Y14.022 E4.52711
G1 X16.711 Y14.022 E4.55833
G1 X16.711 Y11.433 E4.59960
G1 X13.884 Y11.433 E4.64468
G1 X13.766 Y11.037 E4.65125
G1 X14.402 Y10.671 E4.66296
G1 X14.846 Y10.483 E4.67064
G1 X15.257 Y10.361 E4.67748
G1 X16.444 Y10.095 E4.69686
G1 X16.985 Y10.016 E4.70558
G1 X17.600 Y9.970 E4.71541
G1 X18.504 Y9.940 E4.72984
G1 X20.134 Y9.951 E4.75583
G1 X20.955 Y9.993 E4.76892
G1 X21.436 Y10.044 E4.77664
G1 X21.947 Y10.135 E4.78490
G1 X22.936 Y10.361 E4.80108
G1 X23.347 Y10.483 E4.80791
G1 X23.790 Y10.671 E4.81559
G1 X24.427 Y11.037 E4.82730
G1 X24.309 Y11.433 E4.83387
G1 X21.481 Y11.433 E4.87895
G1 X21.481 Y14.022 E4.92022
G1 X23.489 Y14.022 E4.95223
G1 X22.366 Y15.897 E4.98707
G1 X15.875 Y15.897 E5.09054
G1 X15.451 Y16.061 F7800.000
G1 X13.720 Y18.112 F7800.000
G1 F3600
G1 X12.138 Y18.559 E5.11976
G1 X12.138 Y21.228 E5.16721
G1 X13.724 Y21.228 E5.19541
G1 X13.722 Y22.195 E5.21260
G1 X8.871 Y22.195 E5.29885
G1 X8.871 Y21.228 E5.31604
G1 X10.267 Y21.228 E5.34086
G1 X10.267 Y13.205 E5.48348
G1 X8.956 Y13.205 E5.50678
G1 X8.956 Y12.249 E5.52379
