; Generated with MatterSlice 2.19.7
; filamentDiameter = 1.75
; extrusionWidth = 0.4
; firstLayerExtrusionWidth = 0.4
; layerThickness = 0.3
; firstLayerThickness = 0.3
; automatic settings before start_gcode
G21 ; set units to millimeters
M107 ; fan off
M140 S35 ; start heating the bed
M104 T0 S210 ; start heating T0
M190 S1115 ; wait for bed temperature to be reached
T0 ; set the active extruder to 0
; settings from start_gcode
G28 X0 Y0 Z0 ; home all axes
G1 Z5 F5000
M109 S1210 ; set the extruder temp and wait
G28 X0 Y0 Z0 ; Home Z again in case there was filament on nozzle
G29 ; probe the bed
; automatic settings after start_gcode
T0 ; set the active extruder to 0
G90 ; use absolute coordinates
G92 E0 ; reset the expected extruder position
M82 ; use absolute distance for extrusion
; Layer count: 30
; Layer Change GCode
; LAYER:0
; LAYER_HEIGHT:0.3
; TYPE:FILL
M400
M107
G1 X1110 Y1110 Z1110.8 F9000
G1 X82.49 Y99.89
G1 X89.08 Y103.26
; TYPE:SKIRT
G1 Z0.3
G1 F1800
G1 X90.17 Y102.42 E0.068 F1080
G1 X90.87 Y101.92 E0.111
G1 X91.56 Y101.48 E0.152
G1 X92.28 Y101.06 E0.194
G1 X93.07 Y100.63 E0.239
G1 X94.3 Y100.06 E0.306
G1 X95.68 Y99.51 E0.381
G1 X96.64 Y99.17 E0.431
G1 X97.56 Y98.89 E0.479
G1 X98.49 Y98.62 E0.528
G1 X100.21 Y98.18 E0.616
G1 X101.79 Y97.84 E0.697
G1 X104.66 Y97.34 E0.842
G1 X106.29 Y97.13 E0.924
G1 X107.56 Y97.03 E0.987
G1 X113.48 Y96.78 E1.283
G1 X114.49 E1.334
G1 X119.41 Y96.98 E1.579
G1 X121.01 Y97.06 E1.659
G1 X122.67 Y97.24 E1.742
G1 X124.94 Y97.61 E1.857
G1 X126.86 Y97.98 E1.955
G1 X128.6 Y98.38 E2.044
G1 X130.34 Y98.86 E2.134
G1 X131.29 Y99.15 E2.184
G1 X132.26 Y99.48 E2.235
G1 X133.66 Y100.04 E2.31
G1 X134.88 Y100.61 E2.377
G1 X135.67 Y101.03 E2.422
G1 X136.39 Y101.45 E2.463
G1 X137.08 Y101.89 E2.504
G1 X137.81 Y102.4 E2.548
G1 X138.9 Y103.25 E2.617
G1 X148.56 Y111.31 E3.245
G1 X148.8 Y137.01 E4.527
G1 Y149.5 E5.151
G1 X120.33 Y157.22 E6.623
G1 X107.67 E7.254
G1 X79.2 Y149.5 E8.726
G1 Y137.01 E9.349
G1 X79.44 Y111.31 E10.632
G1 X89.08 Y103.26 E11.258
G1 X89.33 Y103.57 F9000
G1 X90.4 Y102.74 E11.326 F1080
G1 X91.09 Y102.26 E11.368
G1 X91.77 Y101.82 E11.408
G1 X92.48 Y101.41 E11.449
G1 X93.25 Y100.99 E11.493
G1 X94.46 Y100.42 E11.559
G1 X95.82 Y99.88 E11.632
G1 X96.77 Y99.55 E11.682
G1 X97.67 Y99.27 E11.73
G1 X98.6 Y99 E11.778
G1 X100.3 Y98.57 E11.865
G1 X101.86 Y98.23 E11.945
G1 X104.72 Y97.73 E12.09
G1 X106.34 Y97.52 E12.171
G1 X107.58 Y97.42 E12.233
G1 X113.49 Y97.18 E12.528
G1 X114.48 E12.578
G1 X119.39 Y97.38 E12.823
G1 X120.98 Y97.46 E12.902
G1 X122.61 Y97.63 E12.984
G1 X124.87 Y98 E13.098
G1 X126.77 Y98.37 E13.195
G1 X128.5 Y98.77 E13.283
G1 X130.23 Y99.24 E13.373
G1 X131.17 Y99.53 E13.422
G1 X132.12 Y99.86 E13.472
G1 X133.51 Y100.41 E13.547
G1 X134.7 Y100.96 E13.612
G1 X135.48 Y101.38 E13.656
G1 X136.18 Y101.8 E13.697
G1 X136.86 Y102.23 E13.737
G1 X137.57 Y102.72 E13.78
G1 X138.65 Y103.56 E13.849
G1 X148.16 Y111.49 E14.467
G1 X148.4 Y137.01 E15.74
G1 Y149.19 E16.347
G1 X120.27 Y156.82 E17.802
G1 X107.73 E18.427
G1 X79.6 Y149.19 E19.882
G1 Y137.01 E20.489
G1 X79.84 Y111.49 E21.763
G1 X89.33 Y103.57 E22.38
G1 X89.59 Y103.88 F9000
G1 X90.64 Y103.06 E22.446 F1080
G1 X91.32 Y102.59 E22.487
G1 X91.98 Y102.16 E22.527
G1 X92.67 Y101.75 E22.567
G1 X93.43 Y101.35 E22.61
G1 X94.62 Y100.79 E22.675
G1 X95.96 Y100.26 E22.747
G1 X96.89 Y99.93 E22.796
G1 X97.79 Y99.65 E22.843
G1 X98.7 Y99.39 E22.891
G1 X100.39 Y98.96 E22.978
G1 X101.94 Y98.63 E23.057
G1 X104.78 Y98.13 E23.201
G1 X106.38 Y97.92 E23.281
G1 X107.6 Y97.82 E23.342
G1 X113.5 Y97.58 E23.637
G1 X114.47 E23.685
G1 X119.37 Y97.78 E23.93
G1 X120.95 Y97.86 E24.008
G1 X122.56 Y98.03 E24.089
G1 X124.8 Y98.4 E24.203
G1 X126.69 Y98.76 E24.299
G1 X128.4 Y99.16 E24.386
G1 X130.12 Y99.62 E24.475
G1 X131.04 Y99.91 E24.523
G1 X131.98 Y100.23 E24.573
G1 X133.35 Y100.78 E24.646
G1 X134.52 Y101.32 E24.711
G1 X135.28 Y101.73 E24.754
G1 X135.97 Y102.14 E24.794
G1 X136.64 Y102.56 E24.833
G1 X137.34 Y103.04 E24.876
G1 X138.4 Y103.87 E24.943
G1 X147.76 Y111.68 E25.551
G1 X148 Y137.01 E26.815
G1 Y148.89 E27.407
G1 X120.22 Y156.42 E28.844
G1 X107.78 E29.464
G1 X80 Y148.89 E30.9
G1 Y137.01 E31.493
G1 X80.24 Y111.68 E32.757
G1 X89.59 Y103.88 E33.364
G1 X93.42 Y108.54 F9000
G1 X91.49 Y110.73
G1 X89.4 Y114.43
; TYPE:WALL-OUTER
G1 X89.42 Y113.9 E33.391 F1080
G1 X89.53 Y113.36 E33.418
G1 X89.7 Y112.82 E33.446
G1 X89.92 Y112.28 E33.476
G1 X90.2 Y111.73 E33.506
G1 X90.62 Y111.01 E33.548
G1 X90.88 Y110.62 E33.571
G1 X91.16 Y110.24 E33.595
G1 X91.77 Y109.51 E33.642
G1 X92.37 Y108.89 E33.685
G1 X93.11 Y108.24 E33.734
G1 X93.96 Y107.57 E33.788
G1 X94.44 Y107.24 E33.817
G1 X94.92 Y106.93 E33.846
G1 X95.43 Y106.63 E33.875
G1 X95.94 Y106.36 E33.904
G1 X96.84 Y105.93 E33.954
G1 X97.91 Y105.51 E34.011
G1 X98.65 Y105.25 E34.051
G1 X99.41 Y105.01 E34.09
G1 X100.15 Y104.8 E34.129
G1 X101.68 Y104.42 E34.207
G1 X103.02 Y104.12 E34.276
G1 X105.63 Y103.67 E34.408
G1 X106.96 Y103.49 E34.475
G1 X107.94 Y103.42 E34.524
G1 X113.62 Y103.18 E34.807
G1 X114.36 E34.844
G1 X119.12 Y103.37 E35.082
G1 X120.51 Y103.45 E35.152
G1 X121.82 Y103.58 E35.217
G1 X123.82 Y103.91 E35.318
G1 X125.53 Y104.24 E35.405
G1 X127.03 Y104.59 E35.482
G1 X128.54 Y105 E35.56
G1 X129.3 Y105.23 E35.6
G1 X130.03 Y105.49 E35.639
G1 X131.14 Y105.92 E35.698
G1 X132.02 Y106.34 E35.746
G1 X132.55 Y106.62 E35.776
G1 X133.05 Y106.91 E35.805
G1 X133.54 Y107.23 E35.834
G1 X134.02 Y107.56 E35.863
G1 X134.88 Y108.23 E35.918
G1 X135.61 Y108.87 E35.966
G1 X136.22 Y109.5 E36.01
G1 X136.81 Y110.2 E36.056
G1 X137.1 Y110.59 E36.08
G1 X137.37 Y110.99 E36.104
G1 X137.62 Y111.4 E36.128
G1 X138.07 Y112.27 E36.177
G1 X138.3 Y112.82 E36.207
G1 X138.47 Y113.35 E36.235
G1 X138.58 Y113.9 E36.262
G1 X138.6 Y114.43 E36.289
G1 X142.19 E36.468
G1 Y121.72 E36.832
G1 X138.86 E36.998
G1 Y137.24 E37.772
G1 X142.4 E37.949
G1 Y144.56 E38.314
G1 X125.22 E39.171
G1 X125.22 Y141.36 E39.331
G1 X124.92 Y141.28 E39.346
G1 X119.38 Y150.82 E39.896
G1 X108.62 E40.434
G1 X103.08 Y141.28 E40.984
G1 X102.78 Y141.36 E40.999
G1 X102.78 Y144.56 E41.159
G1 X85.6 E42.016
G1 Y137.24 E42.381
G1 X89.14 E42.558
G1 Y121.72 E43.332
G1 X85.81 E43.498
G1 Y114.43 E43.862
G1 X89.36 E44.039
G1 X89.4
G1 X89.42 Y113.9
G1 X89.53 Y113.36
G1 X89.7 Y112.82
G1 X89.92 Y112.28
G1 X90.2 Y111.73
G1 X90.28 Y111.6
G1 X89.79 Y114.83 F9000
; TYPE:WALL-INNER
G1 X89.82 Y113.95 E44.083 F1080
G1 X89.92 Y113.46 E44.108
G1 X90.07 Y112.95 E44.135
G1 X90.29 Y112.44 E44.162
G1 X90.55 Y111.92 E44.191
G1 X90.95 Y111.23 E44.231
G1 X91.22 Y110.84 E44.255
G1 X91.48 Y110.48 E44.277
G1 X92.07 Y109.78 E44.323
G1 X92.65 Y109.18 E44.364
G1 X93.36 Y108.55 E44.411
G1 X94.2 Y107.9 E44.465
G1 X94.66 Y107.57 E44.493
G1 X95.62 Y106.98 E44.549
G1 X96.13 Y106.71 E44.578
G1 X97 Y106.3 E44.626
G1 X98.05 Y105.88 E44.682
G1 X98.79 Y105.63 E44.721
G1 X99.51 Y105.4 E44.759
G1 X100.26 Y105.18 E44.798
G1 X101.77 Y104.8 E44.876
G1 X103.09 Y104.52 E44.943
G1 X105.68 Y104.06 E45.074
G1 X107 Y103.89 E45.141
G1 X107.95 Y103.82 E45.188
G1 X113.63 Y103.58 E45.472
G1 X114.34 E45.507
G1 X119.1 Y103.77 E45.745
G1 X120.47 Y103.84 E45.813
G1 X121.77 Y103.98 E45.879
G1 X123.75 Y104.3 E45.979
G1 X125.45 Y104.63 E46.065
G1 X126.92 Y104.97 E46.14
G1 X128.43 Y105.38 E46.218
G1 X129.18 Y105.62 E46.257
G1 X129.88 Y105.86 E46.295
G1 X130.98 Y106.29 E46.353
G1 X131.85 Y106.7 E46.401
G1 X132.34 Y106.96 E46.429
G1 X132.83 Y107.25 E46.457
G1 X133.32 Y107.56 E46.486
G1 X133.78 Y107.88 E46.514
G1 X134.63 Y108.54 E46.568
G1 X135.33 Y109.16 E46.614
G1 X135.91 Y109.76 E46.656
G1 X136.5 Y110.45 E46.702
G1 X136.78 Y110.83 E46.725
G1 X137.04 Y111.22 E46.748
G1 X137.27 Y111.6 E46.771
G1 X137.71 Y112.44 E46.818
G1 X137.93 Y112.96 E46.846
G1 X138.08 Y113.44 E46.871
G1 X138.18 Y113.95 E46.897
G1 X138.21 Y114.83 E46.941
G1 X141.79 E47.119
G1 Y121.32 E47.443
G1 X138.46 E47.61
G1 Y137.64 E48.423
G1 X142 E48.6
G1 Y144.16 E48.926
G1 X125.62 E49.743
G1 X125.62 Y141.05 E49.898
G1 X124.73 Y140.82 E49.944
G1 X119.15 Y150.42 E50.498
G1 X108.85 E51.012
G1 X103.27 Y140.82 E51.566
G1 X102.38 Y141.05 E51.612
G1 X102.38 Y144.16 E51.767
G1 X86 E52.584
G1 Y137.64 E52.909
G1 X89.54 E53.086
G1 Y121.32 E53.9
G1 X86.21 E54.066
G1 Y114.83 E54.39
G1 X89.75 E54.567
G1 X89.79
G1 X103.58 Y121.72 F9000
; TYPE:WALL-OUTER
G1 X105.88 Y125.77 E54.799 F1080
G1 X122.1 E55.608
G1 X124.4 Y121.93 E55.831
G1 X124.29 Y121.72 E55.843
G1 X119.7 E56.072
G1 Y114.43 E56.436
G1 X127.27 E56.814
G1 X127.36 Y114.15 E56.829
G1 X126.78 Y113.75 E56.864
G1 X126.03 Y113.31 E56.907
G1 X125.22 Y112.93 E56.952
G1 X124.45 Y112.64 E56.993
G1 X123.72 Y112.43 E57.031
G1 X121.24 Y111.86 E57.158
G1 X120.23 Y111.67 E57.209
G1 X119.32 Y111.55 E57.255
G1 X117.86 Y111.44 E57.328
G1 X116.13 Y111.37 E57.414
G1 X113.56 Y111.35 E57.542
G1 X111.45 Y111.38 E57.648
G1 X109.65 Y111.47 E57.738
G1 X108.42 Y111.58 E57.799
G1 X107.33 Y111.75 E57.854
G1 X104.41 Y112.4 E58.004
G1 X103.6 Y112.62 E58.045
G1 X102.83 Y112.91 E58.087
G1 X102.02 Y113.29 E58.131
G1 X101.28 Y113.71 E58.173
G1 X100.65 Y114.14 E58.212
G1 X100.74 Y114.42 E58.226
G1 X108.3 Y114.43 E58.604
G1 Y121.72 E58.968
G1 X103.62 E59.201
G1 X103.58
G1 X105.06 Y124.33
G1 X102.9 Y121.32 F9000
; TYPE:WALL-INNER
G1 X105.64 Y126.17 E59.479 F1080
G1 X122.33 E60.311
G1 X124.87 Y121.93 E60.558
G1 X124.52 Y121.32 E60.592
G1 X120.1 E60.813
G1 Y114.83 E61.137
G1 X127.57 E61.51
G1 X127.83 Y113.99 E61.554
G1 X126.99 Y113.41 E61.605
G1 X126.22 Y112.96 E61.649
G1 X125.38 Y112.56 E61.696
G1 X124.57 Y112.26 E61.739
G1 X123.82 Y112.04 E61.778
G1 X121.32 Y111.47 E61.906
G1 X120.29 Y111.27 E61.958
G1 X119.36 Y111.15 E62.005
G1 X117.88 Y111.04 E62.079
G1 X116.14 Y110.97 E62.166
G1 X113.56 Y110.95 E62.294
G1 X111.44 Y110.98 E62.4
G1 X109.62 Y111.07 E62.491
G1 X108.38 Y111.18 E62.553
G1 X107.25 Y111.35 E62.61
G1 X104.31 Y112.01 E62.761
G1 X103.48 Y112.24 E62.804
G1 X102.67 Y112.54 E62.847
G1 X101.83 Y112.93 E62.893
G1 X101.07 Y113.37 E62.937
G1 X100.18 Y113.98 E62.99
G1 X100.44 Y114.82 E63.034
G1 X107.9 Y114.83 E63.406
G1 Y121.32 E63.73
G1 X102.94 E63.978
G1 X102.9
G1 X107.22 Y120.56 F9000
; TYPE:WALL-OUTER
G1 Y120.14 E63.999 F1080
G1 X101.04 Y120.14 E64.307
G1 X100.92 Y120.34 E64.319
G1 X101.06 Y120.56 E64.331
G1 X107.18 E64.637
G1 X107.22 Y120.56
G1 Y120.14
G1 X104.64
G1 X107.62 Y120.96 F9000
; TYPE:WALL-INNER
G1 Y119.74 E64.698 F1080
G1 X100.81 Y119.74 E65.038
G1 X100.46 Y120.35 E65.073
G1 X100.83 Y120.96 E65.108
G1 X107.58 E65.445
G1 X107.62 Y120.96
G1 E62.445 F1800
G1 Z0.8
G1 X107.47 Y120.81 F9000
G1 X104.54 Y121.01
G1 X103.63 Y121.62
G1 X103.92 Y123.58
G1 X105.55 Y126.06
G1 X106.89 Y127.2
G1 X110 Y133.07
G1 X111.04 Y136.23
G1 X113.26 Y139.77
G1 X114.01 Y139.85
; TYPE:WALL-OUTER
G1 Z0.3
G1 E65.445 F1800
G1 X117.82 Y133.36 E65.82 F1080
G1 X117.7 Y133.16 E65.832
G1 X110.38 E66.197
G1 X110.26 Y133.36 E66.209
G1 X113.99 Y139.81 E66.581
G1 X114.01 Y139.85
G1 X115.53 Y137.26
G1 X114.01 Y140.64 F9000
; TYPE:WALL-INNER
G1 X118.28 Y133.36 E67.002 F1080
G1 X117.93 Y132.76 E67.037
G1 X110.14 E67.425
G1 X109.8 Y133.36 E67.46
G1 X113.99 Y140.61 E67.878
G1 X114.01 Y140.64
G1 X128.07 Y137.8 F9000
G1 X129.24 Y137.24
; TYPE:WALL-OUTER
G1 Y134.38 E68.021 F1080
G1 X128.95 Y134.29 E68.036
G1 X127.27 Y137.03 E68.196
G1 X127.38 Y137.24 E68.208
G1 X129.2 E68.298
G1 X129.24
G1 Y134.38
G1 X129.11 Y134.34
G1 X129.64 Y137.64 F9000
; TYPE:WALL-INNER
G1 Y134.07 E68.476 F1080
G1 X128.77 Y133.83 E68.522
G1 X126.81 Y137.02 E68.709
G1 X127.15 Y137.64 E68.744
G1 X129.6 E68.866
G1 X129.64
G1 E65.866 F1800
G1 Z0.8
G1 X114.76 Y139.53 F9000
G1 X113.1 Y139.66
G1 X110.35 Y138.92
G1 X100.59 Y137.5
G1 X99.37 Y137.78
G1 X98.76 Y137.24
; TYPE:WALL-OUTER
G1 Z0.3
G1 E68.866 F1800
G1 X100.62 E68.959 F1080
G1 X100.73 Y137.03 E68.971
G1 X99.05 Y134.29 E69.131
G1 X98.76 Y134.38 E69.146
G1 Y137.2 E69.287
G1 Y137.24
G1 X100.62
G1 X100.73 Y137.03
G1 X100.26 Y136.26
G1 X98.36 Y137.64 F9000
; TYPE:WALL-INNER
G1 X100.85 E69.411 F1080
G1 X101.19 Y137.02 E69.446
G1 X99.23 Y133.83 E69.634
G1 X98.36 Y134.07 E69.679
G1 Y137.6 E69.855
G1 Y137.64
G1 X98.48 Y137.98 F9000
; TYPE:FILL
G1 X92.64 Y143.82 E70.267 F1080
G1 X93.21 F9000
G1 X99.05 Y137.98 E70.679 F1080
G1 X99.61 F9000
G1 X93.77 Y143.82 E71.091 F1080
G1 X94.34 F9000
G1 X100.18 Y137.98 E71.503 F1080
G1 X100.74 F9000
G1 X94.9 Y143.82 E71.915 F1080
G1 X95.47 F9000
G1 X112.78 Y126.51 E73.136 F1080
G1 X113.34 F9000
G1 X96.03 Y143.82 E74.357 F1080
G1 X96.6 F9000
G1 X113.91 Y126.51 E75.578 F1080
G1 X114.47 Y126.51 F9000
G1 X97.17 Y143.82 E76.8 F1080
G1 X97.73 F9000
G1 X115.04 Y126.51 E78.021 F1080
G1 X115.61 F9000
G1 X98.3 Y143.82 E79.242 F1080
G1 X98.86 F9000
G1 X109.51 Y133.17 E79.994 F1080
G1 X109.58 Y133.66 F9000
G1 X102.6 Y140.64 E80.486 F1080
G1 X102.04 Y141.2 F9000
G1 X99.43 Y143.82 E80.671 F1080
G1 X99.99 F9000
G1 X102.04 Y141.77 E80.815 F1080
G1 X102.04 Y142.33 F9000
G1 X100.56 Y143.82 E80.92 F1080
G1 X101.13 F9000
G1 X102.04 Y142.9 E80.984 F1080
G1 X102.04 Y143.47 F9000
G1 X101.69 Y143.82 E81.009 F1080
G1 X102.68 Y141.21 F9000
G1 X104.46 Y142.18
G1 X110.82 Y135.81 E81.458 F1080
G1 X110.62 Y135.46 F9000
G1 X104.25 Y141.82 E81.907 F1080
G1 X104.04 Y141.47 F9000
G1 X110.41 Y135.1 E82.357 F1080
G1 X110.2 Y134.74 F9000
G1 X103.83 Y141.11 E82.806 F1080
G1 X103.63 Y140.75 F9000
G1 X110 Y134.38 E83.256 F1080
G1 X109.79 Y134.02 F9000
G1 X103.37 Y140.44 E83.708 F1080
G1 X104.66 Y142.54 F9000
G1 X111.03 Y136.17 E84.158 F1080
G1 X111.24 Y136.53 F9000
G1 X104.87 Y142.9 E84.607 F1080
G1 X105.08 Y143.26 F9000
G1 X111.45 Y136.89 E85.056 F1080
G1 X111.65 Y137.25 F9000
G1 X105.29 Y143.61 E85.505 F1080
G1 X105.5 Y143.97 F9000
G1 X111.86 Y137.61 E85.954 F1080
G1 X112.07 Y137.97 F9000
G1 X105.7 Y144.33 E86.403 F1080
G1 X105.91 Y144.69 F9000
G1 X112.27 Y138.32 E86.852 F1080
G1 X112.48 Y138.68 F9000
G1 X106.12 Y145.05 E87.301 F1080
G1 X106.33 Y145.4 F9000
G1 X112.69 Y139.04 E87.75 F1080
G1 X112.9 Y139.4 F9000
G1 X106.53 Y145.76 E88.199 F1080
G1 X106.74 Y146.12 F9000
G1 X113.1 Y139.76 E88.647 F1080
G1 X113.31 Y140.12 F9000
G1 X106.95 Y146.48 E89.096 F1080
G1 X107.16 Y146.84 F9000
G1 X113.52 Y140.48 E89.545 F1080
G1 X113.72 Y140.84 F9000
G1 X107.36 Y147.19 E89.993 F1080
G1 X107.57 Y147.55 F9000
G1 X113.93 Y141.19 E90.442 F1080
G1 X114.28 Y140.84 F9000
G1 X139.95 Y115.17 E92.253 F1080
G1 X140.52 F9000
G1 X107.78 Y147.91 E94.563 F1080
G1 X107.99 Y148.27 F9000
G1 X141.09 Y115.17 E96.898 F1080
G1 X141.45 Y115.38 F9000
G1 X108.2 Y148.63 E99.244 F1080
G1 X108.4 Y148.98 F9000
G1 X141.45 Y115.94 E101.576 F1080
G1 Y116.51 F9000
G1 X108.61 Y149.34 E103.892 F1080
G1 X108.82 Y149.7 F9000
G1 X141.45 Y117.07 E106.195 F1080
G1 Y117.64 F9000
G1 X109.03 Y150.06 E108.482 F1080
G1 X109.57 Y150.08 F9000
G1 X138.12 Y121.53 E110.496 F1080
G1 Y122.1 F9000
G1 X110.13 Y150.08 E112.47 F1080
G1 X110.7 F9000
G1 X138.12 Y122.66 E114.405 F1080
G1 Y123.23 F9000
G1 X111.27 Y150.08 E116.299 F1080
G1 X111.83 F9000
G1 X138.12 Y123.8 E118.154 F1080
G1 Y124.36 F9000
G1 X128.95 Y133.53 E118.8 F1080
G1 X129.39 Y133.65 F9000
G1 X138.12 Y124.93 E119.416 F1080
G1 Y125.49 F9000
G1 X129.84 Y133.77 E120 F1080
G1 X129.98 Y134.19 F9000
G1 X138.12 Y126.06 E120.574 F1080
G1 Y126.62 F9000
G1 X129.98 Y134.76 E121.148 F1080
G1 Y135.33 F9000
G1 X138.12 Y127.19 E121.722 F1080
G1 Y127.76 F9000
G1 X129.98 Y135.89 E122.296 F1080
G1 X129.98 Y136.46 F9000
G1 X138.12 Y128.32 E122.87 F1080
G1 Y128.89 F9000
G1 X129.98 Y137.02 E123.444 F1080
G1 Y137.59 F9000
G1 X138.12 Y129.45 E124.018 F1080
G1 X138.12 Y130.02 F9000
G1 X125.96 Y142.18 E124.876 F1080
G1 X125.96 Y141.61 F9000
G1 X129.59 Y137.98 E125.133 F1080
G1 X129.03 F9000
G1 X125.95 Y141.05 E125.349 F1080
G1 X125.71 Y140.73 F9000
G1 X128.46 Y137.98 E125.543 F1080
G1 X127.9 F9000
G1 X125.26 Y140.61 E125.729 F1080
G1 X124.82 Y140.49 F9000
G1 X127.33 Y137.98 E125.906 F1080
G1 X126.88 Y137.86 F9000
G1 X114.66 Y150.08 E126.769 F1080
G1 X115.23 F9000
G1 X124.12 Y141.19 E127.396 F1080
G1 X123.34 Y142.53 F9000
G1 X115.79 Y150.08 E127.929 F1080
G1 X116.36 F9000
G1 X122.56 Y143.88 E128.366 F1080
G1 X121.77 Y145.23 F9000
G1 X116.92 Y150.08 E128.709 F1080
G1 X117.49 F9000
G1 X120.99 Y146.58 E128.956 F1080
G1 X120.21 Y147.92 F9000
G1 X118.05 Y150.08 E129.108 F1080
G1 X118.62 F9000
G1 X119.43 Y149.27 E129.165 F1080
G1 X114.09 Y150.08 F9000
G1 X126.68 Y137.5 E130.053 F1080
G1 X126.48 Y137.13 F9000
G1 X113.53 Y150.08 E130.967 F1080
G1 X112.96 F9000
G1 X127.02 Y136.02 E131.959 F1080
G1 X127.92 Y134.56 F9000
G1 X112.4 Y150.08 E133.054 F1080
G1 Y149.93 F9000
G1 X115.09 Y139.47
G1 X139.39 Y115.17 E134.769 F1080
G1 X138.82 F9000
G1 X115.89 Y138.11 E136.387 F1080
G1 X116.69 Y136.74 F9000
G1 X138.26 Y115.17 E137.908 F1080
G1 X137.88 Y114.98 F9000
G1 X117.49 Y135.37 E139.346 F1080
G1 X118.3 Y134 F9000
G1 X137.86 Y114.44 E140.726 F1080
G1 X137.82 Y113.91 F9000
G1 X118.56 Y133.17 E142.085 F1080
G1 X118.36 Y132.81 F9000
G1 X137.72 Y113.44 E143.452 F1080
G1 X137.58 Y113.02 F9000
G1 X118.15 Y132.45 E144.823 F1080
G1 X117.62 Y132.41 F9000
G1 X137.41 Y112.62 E146.22 F1080
G1 X137.22 Y112.24 F9000
G1 X117.05 Y132.41 E147.643 F1080
G1 X116.49 F9000
G1 X122.39 Y126.51 E148.059 F1080
G1 X122.71 Y126.19 F9000
G1 X137.03 Y111.87 E149.07 F1080
G1 X136.82 Y111.51 F9000
G1 X123.56 Y124.78 E150.005 F1080
G1 X124.4 Y123.37 F9000
G1 X136.6 Y111.17 E150.866 F1080
G1 X136.36 Y110.84 F9000
G1 X125.25 Y121.96 E151.651 F1080
G1 X125.06 Y121.58 F9000
G1 X136.11 Y110.52 E152.431 F1080
G1 X135.86 Y110.22 F9000
G1 X124.85 Y121.22 E153.207 F1080
G1 X124.52 Y120.98 F9000
G1 X135.59 Y109.92 E153.988 F1080
G1 X135.31 Y109.63 F9000
G1 X123.96 Y120.98 E154.789 F1080
G1 X123.39 F9000
G1 X135.03 Y109.35 E155.61 F1080
G1 X134.73 Y109.08 F9000
G1 X122.83 Y120.98 E156.45 F1080
G1 X122.26 F9000
G1 X134.43 Y108.82 E157.308 F1080
G1 X134.11 Y108.57 F9000
G1 X127.96 Y114.72 E157.742 F1080
G1 X127.51 Y115.17 F9000
G1 X121.7 Y120.98 E158.153 F1080
G1 X121.13 F9000
G1 X126.94 Y115.17 E158.563 F1080
G1 X126.38 F9000
G1 X120.56 Y120.98 E158.973 F1080
G1 X120.44 Y120.54 F9000
G1 X125.81 Y115.17 E159.352 F1080
G1 X125.25 F9000
G1 X120.44 Y119.98 E159.691 F1080
G1 Y119.41 F9000
G1 X124.68 Y115.17 E159.99 F1080
G1 X124.11 F9000
G1 X120.44 Y118.85 E160.25 F1080
G1 Y118.28 F9000
G1 X123.55 Y115.17 E160.469 F1080
G1 X122.98 F9000
G1 X120.44 Y117.72 E160.649 F1080
G1 Y117.15 F9000
G1 X122.42 Y115.17 E160.789 F1080
G1 X121.85 F9000
G1 X120.44 Y116.58 E160.888 F1080
G1 Y116.02 F9000
G1 X121.29 Y115.17 E160.948 F1080
G1 X120.72 F9000
G1 X120.44 Y115.45 E160.968 F1080
G1 X126.82 Y114.64 F9000
G1 X127.57 Y113.92
G1 X125.09 Y112.15
G1 X121.36 Y111.13
G1 X127.12 Y105.38 E161.374 F1080
G1 X127.56 Y105.5 F9000
G1 X121.83 Y111.24 E161.779 F1080
G1 X122.29 Y111.34 F9000
G1 X128.01 Y105.62 E162.183 F1080
G1 X128.45 Y105.74 F9000
G1 X122.75 Y111.45 E162.585 F1080
G1 X123.21 Y111.55 F9000
G1 X128.88 Y105.88 E162.985 F1080
G1 X129.31 Y106.02 F9000
G1 X123.67 Y111.66 E163.383 F1080
G1 X124.12 Y111.77 F9000
G1 X129.73 Y106.16 E163.779 F1080
G1 X130.13 Y106.32 F9000
G1 X124.56 Y111.9 E164.172 F1080
G1 X124.98 Y112.05 F9000
G1 X130.54 Y106.48 E164.565 F1080
G1 X130.94 Y106.65 F9000
G1 X125.39 Y112.2 E164.956 F1080
G1 X125.78 Y112.37 F9000
G1 X131.32 Y106.83 E165.348 F1080
G1 X131.71 Y107.01 F9000
G1 X126.16 Y112.56 E165.739 F1080
G1 X126.53 Y112.75 F9000
G1 X132.08 Y107.21 E166.13 F1080
G1 X132.44 Y107.41 F9000
G1 X126.89 Y112.96 E166.521 F1080
G1 X127.25 Y113.17 F9000
G1 X132.79 Y107.63 E166.912 F1080
G1 X133.14 Y107.85 F9000
G1 X127.58 Y113.4 E167.304 F1080
G1 X127.91 Y113.63 F9000
G1 X133.47 Y108.08 E167.696 F1080
G1 X133.79 Y108.32 F9000
G1 X128.21 Y113.9 E168.09 F1080
G1 X123.14 Y111.47 F9000
G1 X120.89 Y111.04
G1 X126.67 Y105.26 E168.498 F1080
G1 X126.21 Y105.16 F9000
G1 X120.41 Y110.95 E168.907 F1080
G1 X119.92 Y110.88 F9000
G1 X125.75 Y105.05 E169.318 F1080
G1 X125.29 Y104.94 F9000
G1 X119.42 Y110.81 E169.732 F1080
G1 X118.9 Y110.77 F9000
G1 X124.81 Y104.85 E170.15 F1080
G1 X124.34 Y104.76 F9000
G1 X118.37 Y110.73 E170.571 F1080
G1 X117.84 Y110.7 F9000
G1 X123.86 Y104.67 E170.996 F1080
G1 X123.38 Y104.59 F9000
G1 X117.3 Y110.68 E171.426 F1080
G1 X116.75 Y110.65 F9000
G1 X122.9 Y104.51 E171.859 F1080
G1 X122.41 Y104.43 F9000
G1 X116.21 Y110.63 E172.297 F1080
G1 X115.65 Y110.63 F9000
G1 X121.92 Y104.35 E172.74 F1080
G1 X121.42 Y104.29 F9000
G1 X115.09 Y110.62 E173.187 F1080
G1 X114.53 Y110.62 F9000
G1 X120.91 Y104.23 E173.637 F1080
G1 X120.4 Y104.18 F9000
G1 X113.96 Y110.61 E174.091 F1080
G1 X113.4 Y110.61 F9000
G1 X119.86 Y104.15 E174.547 F1080
G1 X119.32 Y104.13 F9000
G1 X112.83 Y110.62 E175.005 F1080
G1 X112.25 Y110.63 F9000
G1 X118.78 Y104.1 E175.465 F1080
G1 X118.23 Y104.08 F9000
G1 X111.68 Y110.64 E175.928 F1080
G1 X111.09 Y110.66 F9000
G1 X117.69 Y104.06 E176.394 F1080
G1 X117.15 Y104.04 F9000
G1 X110.5 Y110.69 E176.863 F1080
G1 X109.9 Y110.71 F9000
G1 X116.6 Y104.01 E177.335 F1080
G1 X116.06 Y103.99 F9000
G1 X109.3 Y110.75 E177.813 F1080
G1 X108.68 Y110.81 F9000
G1 X115.51 Y103.97 E178.295 F1080
G1 X114.97 Y103.95 F9000
G1 X108.03 Y110.89 E178.785 F1080
G1 X107.36 Y110.99 F9000
G1 X114.43 Y103.93 E179.283 F1080
G1 X113.87 Y103.92 F9000
G1 X106.65 Y111.14 E179.792 F1080
G1 X105.92 Y111.3 F9000
G1 X113.28 Y103.94 E180.311 F1080
G1 X112.7 Y103.96 F9000
G1 X105.19 Y111.46 E180.84 F1080
G1 X104.47 Y111.63 F9000
G1 X112.11 Y103.99 E181.379 F1080
G1 X111.52 Y104.01 F9000
G1 X103.7 Y111.82 E181.931 F1080
G1 X102.85 Y112.11 F9000
G1 X110.93 Y104.03 E182.5 F1080
G1 X110.34 Y104.06 F9000
G1 X101.84 Y112.55 E183.1 F1080
G1 X100.45 Y113.38 F9000
G1 X109.75 Y104.08 E183.755 F1080
G1 X109.16 Y104.11 F9000
G1 X89.88 Y123.38 E185.115 F1080
G1 Y123.95 F9000
G1 X99.83 Y114 E185.817 F1080
G1 X99.97 Y114.43 F9000
G1 X89.88 Y124.51 E186.529 F1080
G1 Y125.08 F9000
G1 X100.1 Y114.86 E187.25 F1080
G1 X100.37 Y115.16 F9000
G1 X89.88 Y125.64 E187.989 F1080
G1 Y126.21 F9000
G1 X100.93 Y115.16 E188.769 F1080
G1 X101.5 F9000
G1 X89.88 Y126.78 E189.589 F1080
G1 Y127.34 F9000
G1 X102.06 Y115.16 E190.448 F1080
G1 X102.63 Y115.16 F9000
G1 X89.88 Y127.91 E191.347 F1080
G1 Y128.47 F9000
G1 X103.19 Y115.16 E192.286 F1080
G1 X103.76 Y115.16 F9000
G1 X89.88 Y129.04 E193.265 F1080
G1 Y129.6 F9000
G1 X104.32 Y115.16 E194.284 F1080
G1 X104.89 Y115.17 F9000
G1 X100.65 Y119.4 E194.583 F1080
G1 X100.55 Y119.51 F9000
G1 X89.88 Y130.17 E195.335 F1080
G1 Y130.74 F9000
G1 X100.14 Y120.48 E196.059 F1080
G1 X100.35 Y120.83 F9000
G1 X89.88 Y131.3 E196.798 F1080
G1 Y131.87 F9000
G1 X100.57 Y121.18 E197.552 F1080
G1 X101.02 Y121.3 F9000
G1 X89.88 Y132.43 E198.337 F1080
G1 Y133 F9000
G1 X101.58 Y121.3 E199.163 F1080
G1 X102.15 F9000
G1 X89.88 Y133.56 E200.029 F1080
G1 Y134.13 F9000
G1 X102.57 Y121.44 E200.924 F1080
G1 X102.78 Y121.8 F9000
G1 X89.88 Y134.7 E201.834 F1080
G1 Y135.26 F9000
G1 X102.98 Y122.16 E202.758 F1080
G1 X103.19 Y122.52 F9000
G1 X89.88 Y135.83 E203.697 F1080
G1 Y136.39 F9000
G1 X103.39 Y122.88 E204.65 F1080
G1 X103.59 Y123.25 F9000
G1 X89.88 Y136.96 E205.617 F1080
G1 Y137.52 F9000
G1 X103.8 Y123.61 E206.599 F1080
G1 X104 Y123.97 F9000
G1 X86.34 Y141.64 E207.846 F1080
G1 Y141.07 F9000
G1 X89.43 Y137.98 E208.064 F1080
G1 X88.86 F9000
G1 X86.34 Y140.5 E208.242 F1080
G1 Y139.94 F9000
G1 X88.3 Y137.98 E208.381 F1080
G1 X87.73 F9000
G1 X86.34 Y139.37 E208.479 F1080
G1 Y138.81 F9000
G1 X87.17 Y137.98 E208.538 F1080
G1 X86.6 F9000
G1 X86.34 Y138.24 E208.556 F1080
G1 X86.34 Y142.2 F9000
G1 X104.21 Y124.33 E209.817 F1080
G1 X104.41 Y124.69 F9000
G1 X86.34 Y142.77 E211.093 F1080
G1 Y143.33 F9000
G1 X104.62 Y125.05 E212.383 F1080
G1 X104.82 Y125.41 F9000
G1 X86.42 Y143.82 E213.681 F1080
G1 X86.98 F9000
G1 X105.03 Y125.77 E214.954 F1080
G1 X105.23 Y126.13 F9000
G1 X87.55 Y143.82 E216.202 F1080
G1 X88.11 F9000
G1 X98.02 Y133.91 E216.901 F1080
G1 X98.15 Y133.78 F9000
G1 X105.44 Y126.5 E217.414 F1080
G1 X105.99 Y126.51 F9000
G1 X98.94 Y133.55 E217.912 F1080
G1 X99.48 Y133.58 F9000
G1 X106.55 Y126.51 E218.411 F1080
G1 X107.12 F9000
G1 X99.7 Y133.93 E218.934 F1080
G1 X99.91 Y134.28 F9000
G1 X107.69 Y126.51 E219.483 F1080
G1 X108.25 F9000
G1 X100.13 Y134.63 E220.056 F1080
G1 X100.34 Y134.98 F9000
G1 X108.82 Y126.51 E220.654 F1080
G1 X109.38 F9000
G1 X100.56 Y135.33 E221.277 F1080
G1 X100.77 Y135.68 F9000
G1 X109.95 Y126.51 E221.924 F1080
G1 X110.51 F9000
G1 X100.99 Y136.04 E222.596 F1080
G1 X101.2 Y136.39 F9000
G1 X111.08 Y126.51 E223.293 F1080
G1 X111.65 F9000
G1 X101.42 Y136.74 E224.015 F1080
G1 X101.44 Y137.28 F9000
G1 X112.21 Y126.51 E224.775 F1080
G1 X116.17 Y126.51 F9000
G1 X110.26 Y132.41 E225.191 F1080
G1 X110.83 F9000
G1 X116.74 Y126.51 E225.608 F1080
G1 X117.3 F9000
G1 X111.4 Y132.41 E226.025 F1080
G1 X111.96 F9000
G1 X117.87 Y126.51 E226.442 F1080
G1 X118.43 F9000
G1 X112.53 Y132.41 E226.858 F1080
G1 X113.09 F9000
G1 X119 Y126.51 E227.275 F1080
G1 X119.57 F9000
G1 X113.66 Y132.41 E227.692 F1080
G1 X114.22 F9000
G1 X120.13 Y126.51 E228.109 F1080
G1 X120.7 F9000
G1 X114.79 Y132.41 E228.525 F1080
G1 X115.36 F9000
G1 X121.26 Y126.51 E228.942 F1080
G1 X121.83 F9000
G1 X115.92 Y132.41 E229.359 F1080
G1 X117.03 Y132.44 F9000
G1 X117.89 Y133.06
G1 X119.62 Y135.67
G1 X124.36 Y141.06
G1 X125.32 Y141.47
G1 X125.96 Y142.74
G1 X138.12 Y130.58 E230.217 F1080
G1 Y131.15 F9000
G1 X125.96 Y143.31 E231.075 F1080
G1 X126.02 Y143.82 F9000
G1 X138.12 Y131.72 E231.928 F1080
G1 Y132.28 F9000
G1 X126.58 Y143.82 E232.742 F1080
G1 X127.15 F9000
G1 X138.12 Y132.85 E233.516 F1080
G1 Y133.41 F9000
G1 X127.71 Y143.82 E234.25 F1080
G1 X128.28 F9000
G1 X138.12 Y133.98 E234.944 F1080
G1 Y134.54 F9000
G1 X128.84 Y143.82 E235.598 F1080
G1 X129.41 F9000
G1 X138.12 Y135.11 E236.212 F1080
G1 Y135.68 F9000
G1 X129.98 Y143.82 E236.787 F1080
G1 X130.54 F9000
G1 X138.12 Y136.24 E237.321 F1080
G1 Y136.81 F9000
G1 X131.11 Y143.82 E237.816 F1080
G1 X131.67 F9000
G1 X138.12 Y137.37 E238.27 F1080
G1 Y137.94 F9000
G1 X132.24 Y143.82 E238.685 F1080
G1 X132.8 F9000
G1 X138.64 Y137.98 E239.097 F1080
G1 X139.21 F9000
G1 X133.37 Y143.82 E239.509 F1080
G1 X133.94 F9000
G1 X139.77 Y137.98 E239.921 F1080
G1 X140.34 F9000
G1 X134.5 Y143.82 E240.333 F1080
G1 X135.07 F9000
G1 X140.91 Y137.98 E240.745 F1080
G1 X141.47 F9000
G1 X135.63 Y143.82 E241.157 F1080
G1 X136.2 F9000
G1 X141.66 Y138.35 E241.542 F1080
G1 Y138.92 F9000
G1 X136.76 Y143.82 E241.888 F1080
G1 X137.33 F9000
G1 X141.66 Y139.48 E242.194 F1080
G1 Y140.05 F9000
G1 X137.9 Y143.82 E242.46 F1080
G1 X138.46 F9000
G1 X141.66 Y140.61 E242.686 F1080
G1 Y141.18 F9000
G1 X139.03 Y143.82 E242.872 F1080
G1 X139.59 F9000
G1 X141.66 Y141.75 E243.018 F1080
G1 Y142.31 F9000
G1 X140.16 Y143.82 E243.124 F1080
G1 X140.72 F9000
G1 X141.66 Y142.88 E243.19 F1080
G1 Y143.44 F9000
G1 X141.29 Y143.82 E243.216 F1080
G1 E240.216 F1800
G1 Z0.8
G1 X139.26 Y137.8 F9000
G1 X138.16 Y135.83
G1 Y122.53
G1 X138.61 Y121.47
G1 X140.93 Y120.98
G1 Z0.3
G1 E243.216 F1800
G1 X141.45 Y120.47 E243.253 F1080
G1 Y119.9 F9000
G1 X140.36 Y120.98 E243.329 F1080
G1 X139.8 F9000
G1 X141.45 Y119.33 E243.446 F1080
G1 Y118.77 F9000
G1 X139.23 Y120.98 E243.602 F1080
G1 X138.67 F9000
G1 X141.45 Y118.2 E243.798 F1080
G1 E240.798 F1800
G1 Z0.8
G1 X122.71 Y125.5 F9000
G1 X121.37 Y126.47
G1 X106.61
G1 X105.05 Y125.56
G1 X103.67 Y123.13
G1 X103.63 Y121.62
G1 X105.23 Y121.02
G1 X107.44 Y120.85
G1 X107.56 Y118.15
G1 Z0.3
G1 E243.798 F1800
G1 X106.31 Y119.4 E243.887 F1080
G1 X105.74 F9000
G1 X107.56 Y117.58 E244.015 F1080
G1 Y117.02 F9000
G1 X105.18 Y119.4 E244.183 F1080
G1 X104.61 F9000
G1 X107.56 Y116.45 E244.391 F1080
G1 Y115.89 F9000
G1 X104.05 Y119.4 E244.639 F1080
G1 X103.48 F9000
G1 X107.56 Y115.32 E244.926 F1080
G1 X107.15 Y115.17 F9000
G1 X102.92 Y119.4 E245.225 F1080
G1 X102.35 F9000
G1 X106.58 Y115.17 E245.524 F1080
G1 X106.02 Y115.17 F9000
G1 X101.78 Y119.4 E245.822 F1080
G1 X101.22 F9000
G1 X105.45 Y115.17 E246.121 F1080
G1 X107.56 Y118.71 F9000
G1 X106.88 Y119.4 E246.169 F1080
G1 X107.44 F9000
G1 X107.56 Y119.28 E246.178 F1080
G1 X107.41 F9000
G1 X101.91 Y115
G1 X100.74 Y114.37
G1 X101.19 Y112.94
G1 X104.73 Y104.57
G1 X88.32 Y120.98 E247.335 F1080
G1 X87.75 F9000
G1 X104.04 Y104.69 E248.485 F1080
G1 X103.36 Y104.81 F9000
G1 X87.19 Y120.98 E249.626 F1080
G1 X86.62 F9000
G1 X102.65 Y104.96 E250.756 F1080
G1 X101.92 Y105.12 F9000
G1 X86.55 Y120.49 E251.841 F1080
G1 Y119.92 F9000
G1 X101.17 Y105.31 E252.872 F1080
G1 X100.41 Y105.5 F9000
G1 X86.55 Y119.36 E253.85 F1080
G1 Y118.79 F9000
G1 X99.63 Y105.72 E254.773 F1080
G1 X98.79 Y105.98 F9000
G1 X90.13 Y114.64 E255.384 F1080
G1 X90.16 Y114.05 F9000
G1 X97.91 Y106.31 E255.931 F1080
G1 X96.95 Y106.7 F9000
G1 X90.31 Y113.33 E256.399 F1080
G1 X90.7 Y112.38 F9000
G1 X95.82 Y107.26 E256.76 F1080
G1 X94.16 Y108.36 F9000
G1 X91.52 Y111 E256.946 F1080
G1 X89.61 Y115.17 F9000
G1 X86.55 Y118.23 E257.162 F1080
G1 Y117.66 F9000
G1 X89.04 Y115.17 E257.338 F1080
G1 X88.48 F9000
G1 X86.55 Y117.09 E257.474 F1080
G1 Y116.53 F9000
G1 X87.91 Y115.17 E257.57 F1080
G1 X87.35 F9000
G1 X86.55 Y115.96 E257.626 F1080
G1 Y115.4 F9000
G1 X86.78 Y115.17 E257.642 F1080
G1 X88.89 Y120.98 F9000
G1 X105.42 Y104.45 E258.808 F1080
G1 X106.08 Y104.35 F9000
G1 X89.45 Y120.98 E259.982 F1080
G1 X89.88 Y121.12 F9000
G1 X106.73 Y104.27 E261.171 F1080
G1 X107.36 Y104.2 F9000
G1 X89.88 Y121.68 E262.404 F1080
G1 Y122.25 F9000
G1 X107.98 Y104.15 E263.681 F1080
G1 X108.57 Y104.13 F9000
G1 X89.88 Y122.82 E264.999 F1080
G1 X98.02 Y134.48 F9000
G1 X88.68 Y143.82 E265.658 F1080
G1 X89.25 F9000
G1 X98.02 Y135.04 E266.277 F1080
G1 Y135.61 F9000
G1 X89.81 Y143.82 E266.856 F1080
G1 X90.38 F9000
G1 X98.02 Y136.18 E267.395 F1080
G1 Y136.74 F9000
G1 X90.94 Y143.82 E267.894 F1080
G1 X91.51 F9000
G1 X98.02 Y137.31 E268.353 F1080
G1 Y137.87 F9000
G1 X92.07 Y143.82 E268.773 F1080
; Layer Change GCode
; LAYER:1
; LAYER_HEIGHT:0.3
; TYPE:FILL
G1 Z0.6 F9000
G1 X89.54 Y137.64
; TYPE:WALL-INNER
G1 Y133.56 E268.976 F3600
G1 Y129.48 E269.18
G1 Y125.4 E269.383
G1 Y121.32 E269.586
G1 X86.21 E269.753
G1 Y118.08 E269.915
G1 Y114.83 E270.077
G1 X89.79 E270.255
G1 X89.82 Y113.96 E270.298
G1 X89.91 Y113.48 E270.323
G1 X90.07 Y112.98 E270.349
G1 X90.27 Y112.47 E270.376
G1 X90.55 Y111.93 E270.406
G1 X90.94 Y111.25 E270.446
G1 X91.22 Y110.83 E270.471
G1 X91.75 Y110.15 E270.514
G1 X92.34 Y109.49 E270.558
G1 X92.93 Y108.92 E270.599
G1 X93.77 Y108.21 E270.654
G1 X94.63 Y107.59 E270.707
G1 X95.58 Y107 E270.763
G1 X96.09 Y106.73 E270.791
G1 X96.99 Y106.31 E270.841
G1 X98.01 Y105.9 E270.896
G1 X98.79 Y105.63 E270.937
G1 X100.22 Y105.2 E271.012
G1 X101.72 Y104.82 E271.089
G1 X103.11 Y104.51 E271.16
G1 X105.68 Y104.06 E271.29
G1 X106.97 Y103.9 E271.355
G1 X107.94 Y103.82 E271.404
G1 X113.23 Y103.6 E271.667
G1 X114.32 Y103.58 E271.722
G1 X119.07 Y103.77 E271.959
G1 X120.44 Y103.84 E272.027
G1 X121.74 Y103.98 E272.093
G1 X123.71 Y104.3 E272.192
G1 X124.81 Y104.5 E272.248
G1 X126.14 Y104.79 E272.316
G1 X127.7 Y105.17 E272.396
G1 X129.11 Y105.6 E272.47
G1 X129.86 Y105.85 E272.509
G1 X130.95 Y106.28 E272.568
G1 X131.8 Y106.67 E272.614
G1 X132.32 Y106.95 E272.644
G1 X132.8 Y107.23 E272.672
G1 X133.32 Y107.56 E272.702
G1 X134.18 Y108.18 E272.755
G1 X135 Y108.86 E272.808
G1 X135.6 Y109.42 E272.849
G1 X136.23 Y110.11 E272.896
G1 X136.76 Y110.8 E272.939
G1 X137.02 Y111.19 E272.963
G1 X137.24 Y111.56 E272.984
G1 X137.7 Y112.43 E273.033
G1 X137.92 Y112.93 E273.06
G1 X138.07 Y113.43 E273.086
G1 X138.18 Y113.95 E273.113
G1 X138.21 Y114.83 E273.157
G1 X141.79 E273.335
G1 Y118.08 E273.497
G1 Y121.32 E273.659
G1 X138.46 E273.825
G1 Y125.4 E274.029
G1 Y129.48 E274.232
G1 Y133.56 E274.436
G1 Y137.64 E274.639
G1 X142 E274.816
G1 Y140.9 E274.979
G1 Y144.16 E275.141
G1 X137.91 E275.346
G1 X133.81 E275.55
G1 X129.72 E275.755
G1 X125.62 E275.959
G1 X125.62 Y141.05 E276.114
G1 X124.73 Y140.82 E276.159
G1 X122.87 Y144.02 E276.344
G1 X121.01 Y147.22 E276.528
G1 X119.15 Y150.42 E276.713
G1 X115.72 E276.885
G1 X112.28 E277.056
G1 X108.85 E277.228
G1 X106.99 Y147.22 E277.413
G1 X105.13 Y144.02 E277.597
G1 X103.27 Y140.82 E277.782
G1 X102.38 Y141.05 E277.828
G1 X102.38 Y144.16 E277.983
G1 X98.29 E278.187
G1 X94.19 E278.392
G1 X90.1 E278.596
G1 X86 E278.8
G1 Y140.9 E278.963
G1 Y137.64 E279.125
G1 X89.5 E279.3
G1 X89.54
G1 X89.14 Y137.24 F9000
; TYPE:WALL-OUTER
G1 Y133.36 E279.494 F600
G1 Y129.48 E279.687
G1 Y125.6 E279.881
G1 Y121.72 E280.074
G1 X85.81 E280.24
G1 Y118.08 E280.422
G1 Y114.43 E280.604
G1 X89.4 E280.783
G1 X89.42 Y113.92 E280.809
G1 X89.52 Y113.39 E280.836
G1 X89.69 Y112.85 E280.864
G1 X89.91 Y112.3 E280.893
G1 X90.2 Y111.74 E280.925
G1 X90.59 Y111.05 E280.965
G1 X90.89 Y110.6 E280.992
G1 X91.44 Y109.9 E281.036
G1 X92.05 Y109.21 E281.082
G1 X92.67 Y108.62 E281.124
G1 X93.52 Y107.9 E281.18
G1 X94.41 Y107.26 E281.234
G1 X94.88 Y106.96 E281.263
G1 X95.39 Y106.66 E281.292
G1 X95.91 Y106.37 E281.322
G1 X96.81 Y105.95 E281.372
G1 X97.86 Y105.53 E281.428
G1 X98.67 Y105.24 E281.471
G1 X100.11 Y104.81 E281.546
G1 X101.63 Y104.43 E281.624
G1 X103.04 Y104.12 E281.696
G1 X105.63 Y103.67 E281.827
G1 X106.93 Y103.5 E281.892
G1 X107.9 Y103.42 E281.941
G1 X110.57 Y103.31 E282.074
G1 X113.23 Y103.2 E282.207
G1 X114.33 Y103.18 E282.262
G1 X119.09 Y103.37 E282.5
G1 X120.48 Y103.44 E282.569
G1 X121.79 Y103.58 E282.635
G1 X123.77 Y103.9 E282.735
G1 X124.9 Y104.11 E282.792
G1 X126.23 Y104.39 E282.86
G1 X127.81 Y104.79 E282.941
G1 X129.25 Y105.22 E283.016
G1 X129.99 Y105.47 E283.055
G1 X131.11 Y105.91 E283.116
G1 X131.98 Y106.31 E283.163
G1 X132.51 Y106.6 E283.193
G1 X133.02 Y106.89 E283.222
G1 X133.56 Y107.24 E283.254
G1 X134.42 Y107.86 E283.307
G1 X135.27 Y108.56 E283.362
G1 X135.89 Y109.15 E283.405
G1 X136.53 Y109.85 E283.453
G1 X137.08 Y110.56 E283.497
G1 X137.35 Y110.96 E283.521
G1 X137.6 Y111.38 E283.546
G1 X138.06 Y112.25 E283.595
G1 X138.29 Y112.79 E283.624
G1 X138.46 Y113.33 E283.652
G1 X138.58 Y113.9 E283.681
G1 X138.6 Y114.43 E283.708
G1 X142.19 E283.887
G1 Y118.08 E284.069
G1 Y121.72 E284.251
G1 X138.86 E284.417
G1 Y125.6 E284.611
G1 Y129.48 E284.804
G1 Y133.36 E284.998
G1 Y137.24 E285.191
G1 X142.4 E285.368
G1 Y140.9 E285.551
G1 Y144.56 E285.733
G1 X138.11 E285.947
G1 X133.81 E286.162
G1 X129.52 E286.376
G1 X125.22 E286.59
G1 X125.22 Y141.36 E286.75
G1 X124.92 Y141.28 E286.765
G1 X123.07 Y144.46 E286.948
G1 X121.23 Y147.64 E287.132
G1 X119.38 Y150.82 E287.315
G1 X115.79 E287.494
G1 X112.21 E287.674
G1 X108.62 E287.853
G1 X106.77 Y147.64 E288.036
G1 X104.93 Y144.46 E288.22
G1 X103.08 Y141.28 E288.403
G1 X102.78 Y141.36 E288.418
G1 X102.78 Y144.56 E288.578
G1 X98.49 E288.792
G1 X94.19 E289.007
G1 X89.9 E289.221
G1 X85.6 E289.435
G1 Y140.9 E289.618
G1 Y137.24 E289.8
G1 X89.1 E289.975
G1 X89.14
G1 Y134.24
G1 X89.54 Y137.64 F9000
G1 X98.36
; TYPE:WALL-INNER
G1 X100.85 E290.099 F3600
G1 X101.19 Y137.02 E290.134
G1 X99.23 Y133.83 E290.322
G1 X98.36 Y134.07 E290.367
G1 Y137.6 E290.543
G1 Y137.64
G1 X98.76 Y137.24 F9000
; TYPE:WALL-OUTER
G1 X100.62 E290.635 F600
G1 X100.73 Y137.03 E290.647
G1 X99.05 Y134.29 E290.808
G1 X98.76 Y134.38 E290.823
G1 Y137.2 E290.963
G1 Y137.24
G1 X100.62
G1 X100.73 Y137.03
G1 X100.26 Y136.26
G1 X98.36 Y137.64 F9000
G1 X106.19 Y139.14
G1 X114.01 Y140.64
; TYPE:WALL-INNER
G1 X116.15 Y137 E291.174 F3600
G1 X118.28 Y133.36 E291.385
G1 X117.93 Y132.76 E291.419
G1 X114.04 E291.614
G1 X110.14 E291.808
G1 X109.8 Y133.36 E291.843
G1 X111.9 Y136.99 E292.052
G1 X113.99 Y140.61 E292.26
G1 X114.01 Y140.64
G1 X114.01 Y139.85 F9000
; TYPE:WALL-OUTER
G1 X115.92 Y136.61 E292.448 F600
G1 X117.82 Y133.36 E292.636
G1 X117.7 Y133.16 E292.648
G1 X114.04 E292.831
G1 X110.38 E293.013
G1 X110.26 Y133.36 E293.025
G1 X112.13 Y136.59 E293.211
G1 X113.99 Y139.81 E293.397
G1 X114.01 Y139.85
G1 X115.53 Y137.26
G1 X114.01 Y140.64 F9000
G1 X121.83 Y139.14
G1 X129.64 Y137.64
; TYPE:WALL-INNER
G1 Y134.07 E293.574 F3600
G1 X128.77 Y133.83 E293.62
G1 X126.81 Y137.02 E293.807
G1 X127.15 Y137.64 E293.842
G1 X129.6 E293.964
G1 X129.64
G1 X129.24 Y137.24 F9000
; TYPE:WALL-OUTER
G1 Y134.38 E294.107 F600
G1 X128.95 Y134.29 E294.122
G1 X127.27 Y137.03 E294.283
G1 X127.38 Y137.24 E294.294
G1 X129.2 E294.385
G1 X129.24
G1 Y134.38
G1 X129.11 Y134.34
G1 X129.64 Y137.64 F9000
G1 E291.385 F1800
G1 Z1.1
G1 X128.21 Y137.84 F9000
G1 X118.36 Y132.16
G1 X107.07 Y126.44
G1 X105.05 Y125.56
G1 X103.67 Y123.13
G1 X103.63 Y121.62
G1 X105.16 Y121
G1 X107.62 Y120.95
; TYPE:WALL-INNER
G1 Z0.6
G1 E294.385 F1800
G1 Y119.74 E294.446 F3600
G1 X104.22 E294.616
G1 X100.81 E294.785
G1 X100.46 Y120.35 E294.82
G1 X100.82 Y120.96 E294.856
G1 X104.2 E295.025
G1 X107.58 E295.193
G1 X107.62 Y120.95
G1 X107.22 Y120.56 F9000
; TYPE:WALL-OUTER
G1 Y120.14 E295.213 F600
G1 X104.13 E295.367
G1 X101.04 E295.521
G1 X100.93 Y120.34 E295.533
G1 X101.05 Y120.56 E295.546
G1 X104.12 E295.699
G1 X107.18 E295.851
G1 X107.22 Y120.56
G1 Y120.14
G1 X104.63
G1 X107.62 Y120.95 F9000
G1 X107.47 Y120.8
G1 X102.9 Y121.32
; TYPE:WALL-INNER
G1 X105.64 Y126.17 E296.129 F3600
G1 X109.81 E296.337
G1 X113.99 E296.545
G1 X118.16 E296.753
G1 X122.33 E296.961
G1 X124.87 Y121.93 E297.208
G1 X124.52 Y121.32 E297.243
G1 X120.1 E297.463
G1 Y118.08 E297.625
G1 Y114.83 E297.787
G1 X123.84 E297.974
G1 X127.57 E298.16
G1 X127.83 Y113.99 E298.204
G1 X127.14 Y113.51 E298.246
G1 X126.49 Y113.11 E298.284
G1 X125.66 Y112.68 E298.33
G1 X124.95 Y112.39 E298.369
G1 X124.15 Y112.13 E298.411
G1 X121.46 Y111.5 E298.549
G1 X120.43 Y111.3 E298.601
G1 X119.37 Y111.15 E298.654
G1 X118.03 Y111.05 E298.721
G1 X116.06 Y110.97 E298.82
G1 X113.62 Y110.95 E298.941
G1 X111.59 Y110.98 E299.042
G1 X109.62 Y111.07 E299.141
G1 X108.34 Y111.18 E299.205
G1 X107.25 Y111.35 E299.26
G1 X104.24 Y112.03 E299.414
G1 X103.48 Y112.24 E299.454
G1 X102.63 Y112.56 E299.499
G1 X101.92 Y112.89 E299.538
G1 X101.13 Y113.33 E299.583
G1 X100.17 Y113.98 E299.641
G1 X100.43 Y114.83 E299.685
G1 X104.17 E299.872
G1 X107.9 E300.058
G1 Y118.08 E300.22
G1 Y121.32 E300.382
G1 X102.94 E300.63
G1 X102.9
G1 X103.58 Y121.72 F9000
; TYPE:WALL-OUTER
G1 X105.88 Y125.77 E300.862 F600
G1 X109.94 E301.064
G1 X113.99 E301.267
G1 X118.05 E301.469
G1 X122.1 E301.671
G1 X124.4 Y121.93 E301.895
G1 X124.29 Y121.72 E301.906
G1 X119.7 E302.135
G1 Y118.08 E302.317
G1 Y114.43 E302.499
G1 X123.49 E302.688
G1 X127.27 E302.877
G1 X127.36 Y114.15 E302.891
G1 X126.92 Y113.84 E302.918
G1 X126.3 Y113.46 E302.955
G1 X125.49 Y113.05 E303
G1 X124.81 Y112.77 E303.037
G1 X124.04 Y112.51 E303.077
G1 X121.37 Y111.89 E303.214
G1 X120.37 Y111.69 E303.265
G1 X119.32 Y111.55 E303.318
G1 X118.01 Y111.45 E303.383
G1 X116.05 Y111.37 E303.481
G1 X113.62 Y111.35 E303.602
G1 X111.61 Y111.38 E303.703
G1 X109.65 Y111.47 E303.801
G1 X108.39 Y111.58 E303.864
G1 X107.33 Y111.75 E303.917
G1 X104.34 Y112.41 E304.07
G1 X103.6 Y112.62 E304.108
G1 X102.78 Y112.93 E304.152
G1 X102.11 Y113.24 E304.189
G1 X101.34 Y113.67 E304.233
G1 X100.64 Y114.15 E304.275
G1 X100.72 Y114.43 E304.29
G1 X104.51 E304.479
G1 X108.3 E304.668
G1 Y118.08 E304.85
G1 Y121.72 E305.032
G1 X103.62 E305.265
G1 X103.58
G1 X105.06 Y124.33
G1 X102.9 Y121.32 F9000
G1 X102.06 Y121.3
; TYPE:FILL
G1 X103.05 Y122.28 E305.335 F3600
G1 X103.79 Y123.59 F9000
G1 X101.5 Y121.3 E305.496 F3600
G1 X100.93 F9000
G1 X104.53 Y124.89 E305.75 F3600
G1 X105.27 Y126.2 F9000
G1 X102.41 Y123.34 E305.952 F3600
G1 X99.55 Y120.48 E306.154
G1 X96.68 Y117.61 E306.356
G1 X93.82 Y114.75 E306.558
G1 X90.96 Y111.89 E306.76
G1 X91.17 Y111.53 F9000
G1 X94.18 Y114.54 E306.972 F3600
G1 X97.18 Y117.55 E307.184
G1 X100.19 Y120.56 E307.396
G1 X100.24 Y120.04 F9000
G1 X97.29 Y117.09 E307.604 F3600
G1 X94.34 Y114.14 E307.813
G1 X91.39 Y111.19 E308.021
G1 X91.63 Y110.86 F9000
G1 X94.57 Y113.8 E308.229 F3600
G1 X97.51 Y116.74 E308.436
G1 X100.45 Y119.68 E308.644
G1 X100.73 Y119.4 F9000
G1 X97.78 Y116.45 E308.852 F3600
G1 X94.82 Y113.49 E309.061
G1 X91.87 Y110.54 E309.269
G1 X92.13 Y110.23 F9000
G1 X95.19 Y113.29 E309.485 F3600
G1 X98.24 Y116.34 E309.7
G1 X101.3 Y119.4 E309.916
G1 X101.86 F9000
G1 X98.71 Y116.24 E310.139 F3600
G1 X95.55 Y113.09 E310.361
G1 X92.4 Y109.93 E310.584
G1 X92.67 Y109.64 F9000
G1 X95.92 Y112.89 E310.813 F3600
G1 X99.18 Y116.15 E311.043
G1 X102.43 Y119.4 E311.272
G1 X102.99 F9000
G1 X99.65 Y116.05 E311.508 F3600
G1 X96.3 Y112.71 E311.745
G1 X92.96 Y109.36 E311.981
G1 X93.25 Y109.09 F9000
G1 X96.69 Y112.53 E312.223 F3600
G1 X100.12 Y115.96 E312.466
G1 X103.56 Y119.4 E312.708
G1 X104.13 F9000
G1 X100.61 Y115.88 E312.956 F3600
G1 X97.08 Y112.36 E313.205
G1 X93.56 Y108.84 E313.453
G1 X93.87 Y108.58 F9000
G1 X96.96 Y111.67 E313.671 F3600
G1 X100.05 Y114.76 E313.889
G1 X100.46 Y115.17 F9000
G1 X104.69 Y119.4 E314.188 F3600
G1 X105.26 F9000
G1 X101.03 Y115.17 E314.486 F3600
G1 X101.59 F9000
G1 X105.82 Y119.4 E314.785 F3600
G1 X106.39 Y119.4 F9000
G1 X102.16 Y115.17 E315.083 F3600
G1 X102.72 F9000
G1 X106.95 Y119.4 E315.381 F3600
G1 X107.52 F9000
G1 X103.29 Y115.17 E315.68 F3600
G1 X103.86 F9000
G1 X107.56 Y118.87 E315.941 F3600
G1 Y118.31 F9000
G1 X104.42 Y115.17 E316.163 F3600
G1 X104.99 F9000
G1 X107.56 Y117.74 E316.344 F3600
G1 X107.56 Y117.18 F9000
G1 X105.55 Y115.17 E316.486 F3600
G1 X106.12 F9000
G1 X107.56 Y116.61 E316.588 F3600
G1 Y116.04 F9000
G1 X106.68 Y115.17 E316.649 F3600
G1 X107.25 F9000
G1 X107.56 Y115.48 E316.671 F3600
G1 X107.41 F9000
G1 X101.48 Y114.94
G1 X100.72 Y114.38
G1 X100.85 Y113.24
G1 X104.96 Y111.55
G1 X106.62 Y111.15
G1 X103.74 Y108.27 E316.875 F3600
G1 X100.86 Y105.39 E317.078
G1 X101.31 Y105.27 F9000
G1 X104.2 Y108.16 E317.282 F3600
G1 X107.08 Y111.04 E317.485
G1 X107.56 Y110.96 F9000
G1 X104.66 Y108.06 E317.69 F3600
G1 X101.76 Y105.16 E317.894
G1 X102.23 Y105.05 F9000
G1 X105.14 Y107.97 E318.1 F3600
G1 X108.05 Y110.88 E318.305
G1 X108.56 Y110.82 F9000
G1 X105.63 Y107.89 E318.513 F3600
G1 X102.69 Y104.95 E318.72
G1 X103.15 Y104.85 F9000
G1 X106.12 Y107.81 E318.929 F3600
G1 X109.08 Y110.77 E319.137
G1 X109.6 Y110.73 F9000
G1 X106.62 Y107.75 E319.348 F3600
G1 X103.63 Y104.76 E319.558
G1 X104.12 Y104.68 F9000
G1 X107.13 Y107.69 E319.771 F3600
G1 X110.14 Y110.7 E319.983
G1 X110.68 Y110.68 F9000
G1 X107.64 Y107.64 E320.198 F3600
G1 X104.6 Y104.6 E320.412
G1 X105.08 Y104.51 F9000
G1 X108.15 Y107.58 E320.629 F3600
G1 X111.22 Y110.65 E320.846
G1 X111.77 Y110.64 F9000
G1 X108.67 Y107.54 E321.065 F3600
G1 X105.56 Y104.43 E321.284
G1 X106.05 Y104.36 F9000
G1 X109.19 Y107.5 E321.505 F3600
G1 X112.32 Y110.63 E321.726
G1 X112.88 Y110.62 F9000
G1 X109.72 Y107.46 E321.95 F3600
G1 X106.55 Y104.29 E322.173
G1 X107.06 Y104.23 F9000
G1 X110.25 Y107.42 E322.398 F3600
G1 X113.44 Y110.61 E322.623
G1 X114.01 F9000
G1 X110.8 Y107.4 E322.85 F3600
G1 X107.58 Y104.19 E323.076
G1 X108.11 Y104.15 F9000
G1 X111.35 Y107.39 E323.305 F3600
G1 X114.58 Y110.62 E323.533
G1 X115.15 Y110.62 F9000
G1 X111.9 Y107.38 E323.762 F3600
G1 X108.65 Y104.13 E323.991
G1 X109.19 Y104.1 F9000
G1 X112.46 Y107.37 E324.221 F3600
G1 X115.72 Y110.63 E324.451
G1 X116.29 Y110.64 F9000
G1 X113.02 Y107.36 E324.683 F3600
G1 X109.74 Y104.08 E324.914
G1 X110.28 Y104.06 F9000
G1 X113.58 Y107.36 E325.147 F3600
G1 X116.88 Y110.66 E325.38
G1 X117.47 Y110.68 F9000
G1 X114.15 Y107.36 E325.615 F3600
G1 X110.82 Y104.04 E325.849
G1 X111.37 Y104.01 F9000
G1 X114.72 Y107.36 E326.085 F3600
G1 X118.06 Y110.71 E326.321
G1 X118.68 Y110.76 F9000
G1 X115.3 Y107.38 E326.56 F3600
G1 X111.91 Y103.99 E326.798
G1 X112.45 Y103.97 F9000
G1 X115.87 Y107.39 E327.04 F3600
G1 X119.29 Y110.8 E327.281
G1 X119.94 Y110.88 F9000
G1 X116.47 Y107.42 E327.526 F3600
G1 X113 Y103.95 E327.77
G1 X113.55 Y103.93 F9000
G1 X117.08 Y107.46 E328.019 F3600
G1 X120.6 Y110.98 E328.268
G1 X121.31 Y111.12 F9000
G1 X118.91 Y108.72 E328.437 F3600
G1 X116.51 Y106.33 E328.607
G1 X114.11 Y103.93 E328.776
G1 X114.69 Y103.94 F9000
G1 X117.14 Y106.39 E328.949 F3600
G1 X119.58 Y108.83 E329.121
G1 X122.03 Y111.28 E329.294
G1 X122.77 Y111.46 F9000
G1 X120.27 Y108.96 E329.47 F3600
G1 X117.78 Y106.46 E329.647
G1 X115.28 Y103.96 E329.823
G1 X115.87 Y103.99 F9000
G1 X118.42 Y106.54 E330.003 F3600
G1 X120.96 Y109.08 E330.182
G1 X123.51 Y111.63 E330.362
G1 X124.25 Y111.8 F9000
G1 X121.65 Y109.2 E330.545 F3600
G1 X119.05 Y106.61 E330.729
G1 X116.45 Y104.01 E330.912
G1 X117.04 Y104.03 F9000
G1 X119.72 Y106.71 E331.101 F3600
G1 X122.41 Y109.4 E331.291
G1 X125.09 Y112.08 E331.48
G1 X126.11 Y112.53 F9000
G1 X123.28 Y109.71 E331.679 F3600
G1 X120.46 Y106.88 E331.879
G1 X117.63 Y104.06 E332.078
G1 X118.22 Y104.08 F9000
G1 X121.3 Y107.16 E332.295 F3600
G1 X124.37 Y110.23 E332.512
G1 X127.45 Y113.31 E332.729
G1 X128.18 Y114.03 F9000
G1 X131.49 Y117.34 E332.963 F3600
G1 X134.81 Y120.66 E333.196
G1 X138.12 Y123.97 E333.43
G1 Y124.54 F9000
G1 X134.76 Y121.18 E333.667 F3600
G1 X131.4 Y117.82 E333.904
G1 X128.04 Y114.46 E334.141
G1 X127.9 Y114.89 F9000
G1 X131.31 Y118.3 E334.381 F3600
G1 X134.71 Y121.7 E334.622
G1 X138.12 Y125.11 E334.862
G1 Y125.67 F9000
G1 X134.62 Y122.17 E335.109 F3600
G1 X131.12 Y118.67 E335.356
G1 X127.62 Y115.17 E335.603
G1 X127.05 F9000
G1 X129.82 Y117.94 E335.798 F3600
G1 X132.59 Y120.71 E335.994
G1 X135.35 Y123.47 E336.189
G1 X138.12 Y126.24 E336.384
G1 Y126.8 F9000
G1 X135.21 Y123.89 E336.589 F3600
G1 X132.3 Y120.99 E336.794
G1 X129.39 Y118.08 E336.999
G1 X126.48 Y115.17 E337.204
G1 X125.92 F9000
G1 X128.97 Y118.22 E337.419 F3600
G1 X132.02 Y121.27 E337.635
G1 X135.07 Y124.32 E337.85
G1 X138.12 Y127.37 E338.065
G1 Y127.93 F9000
G1 X134.93 Y124.74 E338.29 F3600
G1 X131.74 Y121.55 E338.515
G1 X128.54 Y118.36 E338.74
G1 X125.35 Y115.17 E338.965
G1 X124.79 F9000
G1 X128.12 Y118.5 E339.2 F3600
G1 X131.46 Y121.84 E339.436
G1 X134.79 Y125.17 E339.671
G1 X138.12 Y128.5 E339.906
G1 Y129.07 F9000
G1 X134.65 Y125.6 E340.151 F3600
G1 X131.17 Y122.12 E340.396
G1 X127.7 Y118.65 E340.641
G1 X124.22 Y115.17 E340.886
G1 X123.66 F9000
G1 X126.55 Y118.06 E341.09 F3600
G1 X129.44 Y120.95 E341.294
G1 X132.34 Y123.85 E341.499
G1 X135.23 Y126.74 E341.703
G1 X138.12 Y129.63 E341.907
G1 Y130.2 F9000
G1 X135.11 Y127.19 E342.119 F3600
G1 X132.11 Y124.19 E342.331
G1 X129.1 Y121.18 E342.543
G1 X126.1 Y118.18 E342.755
G1 X123.09 Y115.17 E342.967
G1 X122.52 F9000
G1 X125.64 Y118.29 E343.187 F3600
G1 X128.76 Y121.41 E343.407
G1 X131.88 Y124.52 E343.627
G1 X135 Y127.64 E343.847
G1 X138.12 Y130.76 E344.067
G1 Y131.33 F9000
G1 X134.89 Y128.1 E344.295 F3600
G1 X131.66 Y124.87 E344.523
G1 X128.42 Y121.63 E344.751
G1 X125.19 Y118.4 E344.979
G1 X121.96 Y115.17 E345.207
G1 X121.39 F9000
G1 X124.74 Y118.51 E345.443 F3600
G1 X128.08 Y121.86 E345.679
G1 X131.43 Y125.2 E345.915
G1 X134.77 Y128.55 E346.151
G1 X138.12 Y131.89 E346.387
G1 Y132.46 F9000
G1 X134.66 Y129 E346.631 F3600
G1 X131.2 Y125.54 E346.875
G1 X127.75 Y122.09 E347.118
G1 X124.29 Y118.63 E347.362
G1 X120.83 Y115.17 E347.606
G1 X120.44 Y115.35 F9000
G1 X123.98 Y118.88 E347.856 F3600
G1 X127.51 Y122.42 E348.105
G1 X131.05 Y125.95 E348.355
G1 X134.58 Y129.49 E348.604
G1 X138.12 Y133.02 E348.854
G1 Y133.59 F9000
G1 X135.17 Y130.64 E349.062 F3600
G1 X132.23 Y127.7 E349.27
G1 X129.28 Y124.75 E349.478
G1 X126.33 Y121.8 E349.685
G1 X123.39 Y118.86 E349.893
G1 X120.44 Y115.91 E350.101
G1 Y116.48 F9000
G1 X123.39 Y119.43 E350.309 F3600
G1 X126.33 Y122.37 E350.517
G1 X129.28 Y125.32 E350.725
G1 X132.23 Y128.27 E350.932
G1 X135.17 Y131.21 E351.14
G1 X138.12 Y134.16 E351.348
G1 Y134.72 F9000
G1 X134.88 Y131.48 E351.577 F3600
G1 X131.64 Y128.25 E351.805
G1 X128.4 Y125.01 E352.034
G1 X125.16 Y121.77 E352.262
G1 X125.07 Y122.25 F9000
G1 X128.33 Y125.51 E352.492 F3600
G1 X131.6 Y128.77 E352.722
G1 X134.86 Y132.03 E352.952
G1 X138.12 Y135.29 E353.182
G1 Y135.85 F9000
G1 X134.81 Y132.54 E353.416 F3600
G1 X131.49 Y129.23 E353.65
G1 X128.18 Y125.91 E353.883
G1 X124.86 Y122.6 E354.117
G1 X124.65 Y122.95 F9000
G1 X128.02 Y126.32 E354.355 F3600
G1 X131.39 Y129.69 E354.592
G1 X134.75 Y133.05 E354.83
G1 X138.12 Y136.42 E355.067
G1 Y136.98 F9000
G1 X134.7 Y133.56 E355.308 F3600
G1 X131.28 Y130.15 E355.55
G1 X127.86 Y126.73 E355.791
G1 X124.44 Y123.31 E356.032
G1 X124.23 Y123.66 F9000
G1 X127.7 Y127.13 E356.277 F3600
G1 X131.18 Y130.61 E356.522
G1 X134.65 Y134.08 E356.767
G1 X138.12 Y137.55 E357.012
G1 X138.54 Y137.98 F9000
G1 X141.66 Y141.1 E357.232 F3600
G1 Y140.53 F9000
G1 X139.11 Y137.98 E357.413 F3600
G1 X139.67 F9000
G1 X141.66 Y139.97 E357.553 F3600
G1 Y139.4 F9000
G1 X140.24 Y137.98 E357.653 F3600
G1 X140.81 F9000
G1 X141.66 Y138.83 E357.714 F3600
G1 Y138.27 F9000
G1 X141.37 Y137.98 E357.734 F3600
G1 X141.66 Y141.66 F9000
G1 X138.13 Y138.13 E357.983 F3600
G1 X134.6 Y134.6 E358.232
G1 X131.07 Y131.07 E358.481
G1 X127.54 Y127.54 E358.73
G1 X124.01 Y124.01 E358.979
G1 X123.8 Y124.37 F9000
G1 X126.78 Y127.35 E359.189 F3600
G1 X129.75 Y130.32 E359.399
G1 X132.73 Y133.3 E359.61
G1 X135.71 Y136.28 E359.82
G1 X138.68 Y139.25 E360.03
G1 X141.66 Y142.23 E360.24
G1 Y142.79 F9000
G1 X138.65 Y139.78 E360.453 F3600
G1 X135.64 Y136.77 E360.665
G1 X132.63 Y133.76 E360.878
G1 X129.61 Y130.74 E361.09
G1 X126.6 Y127.73 E361.303
G1 X123.59 Y124.72 E361.515
G1 X123.38 Y125.08 F9000
G1 X126.43 Y128.13 E361.73 F3600
G1 X129.47 Y131.17 E361.945
G1 X132.52 Y134.22 E362.16
G1 X135.57 Y137.27 E362.375
G1 X138.61 Y140.31 E362.59
G1 X141.66 Y143.36 E362.805
G1 X141.55 Y143.82 F9000
G1 X138.49 Y140.76 E363.021 F3600
G1 X135.42 Y137.69 E363.237
G1 X132.36 Y134.63 E363.454
G1 X129.3 Y131.56 E363.67
G1 X126.23 Y128.5 E363.886
G1 X123.17 Y125.43 E364.102
G1 X122.96 Y125.78 F9000
G1 X125.97 Y128.79 E364.314 F3600
G1 X128.97 Y131.79 E364.526
G1 X131.98 Y134.8 E364.738
G1 X134.98 Y137.81 E364.95
G1 X137.99 Y140.81 E365.162
G1 X140.99 Y143.82 E365.374
G1 X140.42 F9000
G1 X137.47 Y140.87 E365.582 F3600
G1 X134.53 Y137.93 E365.79
G1 X131.58 Y134.98 E365.998
G1 X128.63 Y132.03 E366.206
G1 X125.69 Y129.09 E366.414
G1 X122.74 Y126.14 E366.622
G1 X122.53 Y126.49 F9000
G1 X124.96 Y128.92 E366.793 F3600
G1 X127.38 Y131.34 E366.964
G1 X129.81 Y133.77 E367.135
G1 X129.98 Y133.94 F9000
G1 X133.27 Y137.23 E367.367 F3600
G1 X136.57 Y140.53 E367.6
G1 X139.86 Y143.82 E367.832
G1 X139.29 F9000
G1 X136.19 Y140.72 E368.051 F3600
G1 X133.08 Y137.61 E368.27
G1 X129.98 Y134.51 E368.489
G1 Y135.07 F9000
G1 X132.9 Y137.99 E368.694 F3600
G1 X135.81 Y140.9 E368.9
G1 X138.73 Y143.82 E369.105
G1 X138.16 F9000
G1 X135.43 Y141.09 E369.297 F3600
G1 X132.71 Y138.37 E369.49
G1 X129.98 Y135.64 E369.682
G1 X129.98 Y136.2 F9000
G1 X132.52 Y138.74 E369.861 F3600
G1 X135.05 Y141.28 E370.041
G1 X137.59 Y143.82 E370.22
G1 X137.03 F9000
G1 X133.51 Y140.3 E370.469 F3600
G1 X129.98 Y136.77 E370.717
G1 Y137.33 F9000
G1 X133.22 Y140.58 E370.946 F3600
G1 X136.46 Y143.82 E371.174
G1 X135.9 F9000
G1 X132.94 Y140.86 E371.383 F3600
G1 X129.98 Y137.9 E371.592
G1 X129.49 Y137.98 F9000
G1 X132.41 Y140.9 E371.798 F3600
G1 X135.33 Y143.82 E372.004
G1 X134.77 F9000
G1 X131.85 Y140.9 E372.21 F3600
G1 X128.93 Y137.98 E372.416
G1 X128.36 F9000
G1 X131.28 Y140.9 E372.622 F3600
G1 X134.2 Y143.82 E372.828
G1 X133.63 F9000
G1 X130.71 Y140.9 E373.034 F3600
G1 X127.79 Y137.98 E373.24
G1 X127.23 F9000
G1 X130.15 Y140.9 E373.446 F3600
G1 X133.07 Y143.82 E373.652
G1 X132.5 F9000
G1 X129.04 Y140.36 E373.896 F3600
G1 X125.58 Y136.9 E374.14
G1 X122.11 Y133.43 E374.385
G1 X118.65 Y129.97 E374.629
G1 X115.19 Y126.51 E374.873
G1 X115.76 F9000
G1 X118.47 Y129.22 E375.064 F3600
G1 X121.18 Y131.93 E375.256
G1 X123.88 Y134.63 E375.447
G1 X126.59 Y137.34 E375.638
G1 X126.57 Y136.75 F9000
G1 X123.16 Y133.34 E375.879 F3600
G1 X119.74 Y129.92 E376.12
G1 X116.33 Y126.51 E376.361
G1 X116.89 F9000
G1 X120.19 Y129.81 E376.594 F3600
G1 X123.49 Y133.1 E376.826
G1 X126.79 Y136.4 E377.059
G1 X127 Y136.05 F9000
G1 X123.82 Y132.87 E377.283 F3600
G1 X120.64 Y129.69 E377.508
G1 X117.46 Y126.51 E377.732
G1 X118.02 F9000
G1 X121.09 Y129.57 E377.948 F3600
G1 X124.15 Y132.64 E378.165
G1 X127.22 Y135.7 E378.381
G1 X127.43 Y135.35 F9000
G1 X124.48 Y132.4 E378.589 F3600
G1 X121.54 Y129.46 E378.797
G1 X118.59 Y126.51 E379.005
G1 X119.15 F9000
G1 X121.98 Y129.34 E379.205 F3600
G1 X124.82 Y132.17 E379.404
G1 X127.65 Y135 E379.604
G1 X127.86 Y134.65 F9000
G1 X125.15 Y131.94 E379.796 F3600
G1 X122.43 Y129.22 E379.987
G1 X119.72 Y126.51 E380.179
G1 X120.29 F9000
G1 X122.89 Y129.11 E380.362 F3600
G1 X125.48 Y131.7 E380.545
G1 X128.08 Y134.3 E380.728
G1 X128.29 Y133.95 F9000
G1 X125.81 Y131.47 E380.903 F3600
G1 X123.33 Y128.99 E381.078
G1 X120.85 Y126.51 E381.253
G1 X121.42 F9000
G1 X123.78 Y128.87 E381.42 F3600
G1 X126.15 Y131.24 E381.587
G1 X128.51 Y133.6 E381.754
G1 X129.02 Y133.54 F9000
G1 X125.5 Y130.03 E382.002 F3600
G1 X121.98 Y126.51 E382.25
G1 X124.35 Y122.95 F9000
G1 X124.47 Y121.62
G1 X122.8 Y121
G1 X122.11 Y120.98
G1 X120.44 Y119.31 E382.368 F3600
G1 Y119.87 F9000
G1 X121.55 Y120.98 E382.447 F3600
G1 X120.98 F9000
G1 X120.44 Y120.44 E382.485 F3600
G1 Y118.74 F9000
G1 X122.68 Y120.98 E382.643 F3600
G1 X123.25 F9000
G1 X120.44 Y118.18 E382.841 F3600
G1 X120.44 Y117.61 F9000
G1 X123.81 Y120.98 E383.08 F3600
G1 X124.38 F9000
G1 X120.44 Y117.04 E383.358 F3600
G1 X123.42 Y120.95 F9000
G1 X124.47 Y121.62
G1 X123.69 Y123.94
G1 X122.44 Y126.02
G1 X118.92 Y126.41
G1 X114.63 Y126.51
G1 X118.09 Y129.97 E383.602 F3600
G1 X121.55 Y133.43 E383.846
G1 X125.02 Y136.9 E384.091
G1 X128.48 Y140.36 E384.335
G1 X131.94 Y143.82 E384.579
G1 X131.37 F9000
G1 X127.91 Y140.36 E384.823 F3600
G1 X124.45 Y136.9 E385.067
G1 X120.98 Y133.43 E385.312
G1 X117.52 Y129.97 E385.556
G1 X114.06 Y126.51 E385.8
G1 X113.5 Y126.51 F9000
G1 X116.96 Y129.97 E386.044 F3600
G1 X120.42 Y133.43 E386.288
G1 X123.89 Y136.9 E386.533
G1 X127.35 Y140.36 E386.777
G1 X130.81 Y143.82 E387.021
G1 X130.24 F9000
G1 X126.78 Y140.36 E387.265 F3600
G1 X123.32 Y136.9 E387.509
G1 X119.85 Y133.43 E387.754
G1 X116.39 Y129.97 E387.998
G1 X112.93 Y126.51 E388.242
G1 X112.37 F9000
G1 X115.83 Y129.97 E388.486 F3600
G1 X119.29 Y133.43 E388.731
G1 X122.75 Y136.9 E388.975
G1 X126.21 Y140.36 E389.22
G1 X129.67 Y143.82 E389.464
G1 X129.11 F9000
G1 X125.63 Y140.34 E389.709 F3600
G1 X122.14 Y136.85 E389.955
G1 X118.66 Y133.37 E390.2
G1 X118.46 Y133.73 F9000
G1 X121.91 Y137.18 E390.444 F3600
G1 X125.36 Y140.63 E390.687
G1 X124.59 Y140.43 F9000
G1 X121.42 Y137.26 E390.911 F3600
G1 X118.25 Y134.09 E391.135
G1 X118.04 Y134.44 F9000
G1 X121.2 Y137.61 E391.358 F3600
G1 X124.36 Y140.77 E391.581
G1 X124.16 Y141.13 F9000
G1 X121 Y137.97 E391.805 F3600
G1 X117.83 Y134.8 E392.028
G1 X117.62 Y135.15 F9000
G1 X120.79 Y138.32 E392.251 F3600
G1 X123.95 Y141.48 E392.474
G1 X123.74 Y141.84 F9000
G1 X120.58 Y138.68 E392.698 F3600
G1 X117.41 Y135.51 E392.921
G1 X117.2 Y135.87 F9000
G1 X120.37 Y139.04 E393.145 F3600
G1 X123.53 Y142.2 E393.368
G1 X123.32 Y142.56 F9000
G1 X120.16 Y139.39 E393.591 F3600
G1 X116.99 Y136.22 E393.814
G1 X116.78 Y136.58 F9000
G1 X119.95 Y139.75 E394.038 F3600
G1 X123.12 Y142.92 E394.261
G1 X122.91 Y143.27 F9000
G1 X119.74 Y140.11 E394.485 F3600
G1 X116.57 Y136.94 E394.708
G1 X116.36 Y137.29 F9000
G1 X119.53 Y140.46 E394.932 F3600
G1 X122.7 Y143.63 E395.156
G1 X122.49 Y143.99 F9000
G1 X119.32 Y140.82 E395.38 F3600
G1 X116.15 Y137.65 E395.603
G1 X115.95 Y138.01 F9000
G1 X119.12 Y141.18 E395.827 F3600
G1 X122.29 Y144.35 E396.05
G1 X122.08 Y144.71 F9000
G1 X118.91 Y141.54 E396.274 F3600
G1 X115.74 Y138.36 E396.498
G1 X115.53 Y138.72 F9000
G1 X118.7 Y141.89 E396.722 F3600
G1 X121.87 Y145.06 E396.945
G1 X121.66 Y145.42 F9000
G1 X118.49 Y142.25 E397.169 F3600
G1 X115.32 Y139.08 E397.393
G1 X115.11 Y139.43 F9000
G1 X118.28 Y142.61 E397.617 F3600
G1 X121.45 Y145.78 E397.841
G1 X121.25 Y146.14 F9000
G1 X118.08 Y142.97 E398.065 F3600
G1 X114.9 Y139.79 E398.289
G1 X114.69 Y140.15 F9000
G1 X117.87 Y143.33 E398.513 F3600
G1 X121.04 Y146.5 E398.737
G1 X120.83 Y146.85 F9000
G1 X117.66 Y143.68 E398.961 F3600
G1 X114.48 Y140.5 E399.185
G1 X114.27 Y140.86 F9000
G1 X117.45 Y144.04 E399.409 F3600
G1 X120.62 Y147.21 E399.633
G1 X120.42 Y147.57 F9000
G1 X117.24 Y144.4 E399.857 F3600
G1 X114.06 Y141.22 E400.081
G1 X113.78 Y140.93 F9000
G1 X110.56 Y137.71 E400.308 F3600
G1 X107.34 Y134.49 E400.536
G1 X104.12 Y131.27 E400.763
G1 X100.9 Y128.05 E400.99
G1 X97.68 Y124.83 E401.217
G1 X94.46 Y121.61 E401.445
G1 X91.24 Y118.39 E401.672
G1 X88.02 Y115.17 E401.899
G1 X87.45 F9000
G1 X90.73 Y118.45 E402.13 F3600
G1 X94 Y121.72 E402.361
G1 X97.28 Y125 E402.592
G1 X100.55 Y128.27 E402.823
G1 X103.83 Y131.55 E403.055
G1 X107.11 Y134.83 E403.286
G1 X110.38 Y138.1 E403.517
G1 X113.66 Y141.38 E403.748
G1 X116.93 Y144.65 E403.979
G1 X120.21 Y147.93 E404.21
G1 X120 Y148.29 F9000
G1 X116.69 Y144.98 E404.444 F3600
G1 X113.38 Y141.67 E404.677
G1 X110.06 Y138.35 E404.911
G1 X106.75 Y135.04 E405.145
G1 X103.44 Y131.73 E405.379
G1 X100.13 Y128.42 E405.612
G1 X96.82 Y125.11 E405.846
G1 X93.5 Y121.79 E406.08
G1 X90.19 Y118.48 E406.313
G1 X86.88 Y115.17 E406.547
G1 X86.55 Y115.4 F9000
G1 X89.87 Y118.72 E406.782 F3600
G1 X93.2 Y122.05 E407.016
G1 X96.52 Y125.37 E407.251
G1 X99.85 Y128.7 E407.485
G1 X103.17 Y132.02 E407.72
G1 X106.49 Y135.34 E407.954
G1 X109.82 Y138.67 E408.189
G1 X113.14 Y141.99 E408.423
G1 X116.47 Y145.32 E408.658
G1 X119.79 Y148.64 E408.892
G1 X119.59 Y149 F9000
G1 X116.29 Y145.7 E409.125 F3600
G1 X112.98 Y142.39 E409.358
G1 X109.68 Y139.09 E409.591
G1 X106.37 Y135.79 E409.824
G1 X103.07 Y132.49 E410.058
G1 X99.77 Y129.18 E410.291
G1 X96.46 Y125.88 E410.524
G1 X93.16 Y122.58 E410.757
G1 X89.85 Y119.27 E410.99
G1 X86.55 Y115.97 E411.223
G1 Y116.53 F9000
G1 X89.83 Y119.81 E411.455 F3600
G1 X93.12 Y123.1 E411.686
G1 X96.4 Y126.38 E411.918
G1 X99.68 Y129.66 E412.149
G1 X102.97 Y132.95 E412.381
G1 X106.25 Y136.23 E412.613
G1 X109.53 Y139.51 E412.844
G1 X112.81 Y142.79 E413.076
G1 X116.1 Y146.08 E413.307
G1 X119.38 Y149.36 E413.539
G1 X119.17 Y149.72 F9000
G1 X115.91 Y146.46 E413.769 F3600
G1 X112.65 Y143.2 E413.999
G1 X109.38 Y139.93 E414.229
G1 X106.12 Y136.67 E414.459
G1 X102.86 Y133.41 E414.69
G1 X99.6 Y130.15 E414.92
G1 X96.34 Y126.89 E415.15
G1 X93.07 Y123.62 E415.38
G1 X89.81 Y120.36 E415.61
G1 X86.55 Y117.1 E415.84
G1 Y117.66 F9000
G1 X89.87 Y120.98 E416.075 F3600
G1 X89.88 Y120.99 F9000
G1 X93.11 Y124.22 E416.303 F3600
G1 X96.34 Y127.45 E416.531
G1 X99.57 Y130.68 E416.759
G1 X102.8 Y133.91 E416.987
G1 X106.04 Y137.15 E417.214
G1 X109.27 Y140.38 E417.442
G1 X112.5 Y143.61 E417.67
G1 X115.73 Y146.84 E417.898
G1 X118.96 Y150.07 E418.126
G1 X118.4 Y150.08 F9000
G1 X115.23 Y146.91 E418.35 F3600
G1 X112.06 Y143.74 E418.573
G1 X108.89 Y140.57 E418.797
G1 X105.72 Y137.4 E419.021
G1 X102.56 Y134.24 E419.244
G1 X99.39 Y131.07 E419.468
G1 X96.22 Y127.9 E419.692
G1 X93.05 Y124.73 E419.915
G1 X89.88 Y121.56 E420.139
G1 Y122.13 F9000
G1 X93.38 Y125.62 E420.386 F3600
G1 X96.87 Y129.12 E420.632
G1 X100.37 Y132.61 E420.879
G1 X103.86 Y136.11 E421.125
G1 X107.36 Y139.6 E421.372
G1 X110.85 Y143.09 E421.618
G1 X114.35 Y146.59 E421.865
G1 X117.84 Y150.08 E422.111
G1 X117.27 F9000
G1 X113.85 Y146.66 E422.353 F3600
G1 X110.42 Y143.23 E422.594
G1 X107 Y139.81 E422.836
G1 X103.58 Y136.39 E423.078
G1 X100.15 Y132.96 E423.319
G1 X96.73 Y129.54 E423.561
G1 X93.3 Y126.11 E423.802
G1 X89.88 Y122.69 E424.044
G1 Y123.26 F9000
G1 X93.23 Y126.61 E424.281 F3600
G1 X96.59 Y129.97 E424.517
G1 X99.94 Y133.32 E424.754
G1 X103.3 Y136.67 E424.99
G1 X106.65 Y140.02 E425.227
G1 X110 Y143.38 E425.463
G1 X113.36 Y146.73 E425.7
G1 X116.71 Y150.08 E425.936
G1 X116.14 F9000
G1 X112.86 Y146.8 E426.168 F3600
G1 X109.58 Y143.52 E426.399
G1 X106.29 Y140.23 E426.631
G1 X103.01 Y136.95 E426.863
G1 X99.73 Y133.67 E427.094
G1 X96.45 Y130.39 E427.326
G1 X93.16 Y127.1 E427.557
G1 X89.88 Y123.82 E427.789
G1 Y124.39 F9000
G1 X92.93 Y127.44 E428.004 F3600
G1 X95.97 Y130.48 E428.219
G1 X99.02 Y133.53 E428.434
G1 X98.58 Y133.66 F9000
G1 X95.68 Y130.76 E428.639 F3600
G1 X92.78 Y127.85 E428.843
G1 X89.88 Y124.95 E429.048
G1 Y125.52 F9000
G1 X92.63 Y128.27 E429.242 F3600
G1 X95.39 Y131.03 E429.437
G1 X98.14 Y133.78 E429.631
G1 X98.02 Y134.22 F9000
G1 X95.31 Y131.51 E429.822 F3600
G1 X92.59 Y128.8 E430.014
G1 X89.88 Y126.09 E430.205
G1 Y126.65 F9000
G1 X92.59 Y129.36 E430.396 F3600
G1 X95.31 Y132.08 E430.588
G1 X98.02 Y134.79 E430.779
G1 Y135.35 F9000
G1 X95.31 Y132.64 E430.97 F3600
G1 X92.59 Y129.93 E431.162
G1 X89.88 Y127.22 E431.353
G1 Y127.78 F9000
G1 X92.59 Y130.49 E431.544 F3600
G1 X95.31 Y133.21 E431.736
G1 X98.02 Y135.92 E431.927
G1 Y136.48 F9000
G1 X95.31 Y133.77 E432.118 F3600
G1 X92.59 Y131.06 E432.31
G1 X89.88 Y128.35 E432.501
G1 Y128.91 F9000
G1 X92.59 Y131.62 E432.692 F3600
G1 X95.31 Y134.34 E432.884
G1 X98.02 Y137.05 E433.075
G1 Y137.62 F9000
G1 X95.31 Y134.91 E433.266 F3600
G1 X92.59 Y132.19 E433.458
G1 X89.88 Y129.48 E433.649
G1 Y130.05 F9000
G1 X92.92 Y133.09 E433.864 F3600
G1 X95.96 Y136.13 E434.078
G1 X99 Y139.16 E434.293
G1 X102.04 Y142.2 E434.507
G1 X102.04 Y141.64 F9000
G1 X98.38 Y137.98 E434.766 F3600
G1 X98.94 F9000
G1 X102.04 Y141.08 E434.984 F3600
G1 X102.27 Y140.73 F9000
G1 X99.51 Y137.98 E435.179 F3600
G1 X100.08 F9000
G1 X102.71 Y140.61 E435.365 F3600
G1 X103.16 Y140.49 F9000
G1 X100.64 Y137.98 E435.542 F3600
G1 X101.11 Y137.88 F9000
G1 X104.16 Y140.93 E435.757 F3600
G1 X107.21 Y143.98 E435.973
G1 X110.26 Y147.03 E436.188
G1 X113.31 Y150.08 E436.403
G1 X112.75 F9000
G1 X109.81 Y147.14 E436.611 F3600
G1 X106.86 Y144.19 E436.818
G1 X103.92 Y141.25 E437.026
G1 X104.7 Y142.6 F9000
G1 X107.19 Y145.09 E437.202 F3600
G1 X109.69 Y147.59 E437.378
G1 X112.18 Y150.08 E437.554
G1 X111.61 F9000
G1 X108.55 Y147.02 E437.771 F3600
G1 X105.48 Y143.95 E437.987
G1 X106.26 Y145.3 F9000
G1 X108.66 Y147.69 E438.156 F3600
G1 X111.05 Y150.08 E438.324
G1 X110.48 F9000
G1 X107.05 Y146.64 E438.567 F3600
G1 X107.83 Y147.99 F9000
G1 X109.92 Y150.08 E438.714 F3600
G1 X109.35 F9000
G1 X108.61 Y149.34 E438.767 F3600
G1 X113.88 Y150.08 F9000
G1 X110.74 Y146.94 E438.989 F3600
G1 X107.6 Y143.8 E439.21
G1 X104.45 Y140.65 E439.432
G1 X101.31 Y137.51 E439.653
G1 X101.51 Y137.15 F9000
G1 X104.74 Y140.38 E439.881 F3600
G1 X107.98 Y143.62 E440.11
G1 X111.21 Y146.85 E440.338
G1 X114.44 Y150.08 E440.566
G1 X115.01 F9000
G1 X111.52 Y146.59 E440.813 F3600
G1 X108.02 Y143.09 E441.059
G1 X104.53 Y139.6 E441.306
G1 X101.03 Y136.1 E441.552
G1 X100.13 Y134.64 F9000
G1 X103.22 Y137.73 E441.77 F3600
G1 X106.31 Y140.82 E441.988
G1 X109.39 Y143.9 E442.206
G1 X112.48 Y146.99 E442.424
G1 X115.57 Y150.08 E442.642
G1 Y149.93 F9000
G1 X113.01 Y139.59
G1 X109.52 Y136.1 E442.888 F3600
G1 X106.03 Y132.61 E443.134
G1 X102.54 Y129.12 E443.38
G1 X99.05 Y125.64 E443.627
G1 X95.56 Y122.15 E443.873
G1 X92.07 Y118.66 E444.119
G1 X88.58 Y115.17 E444.365
G1 X89.15 F9000
G1 X92.45 Y118.47 E444.598 F3600
G1 X95.74 Y121.77 E444.83
G1 X99.04 Y125.07 E445.063
G1 X102.34 Y128.36 E445.296
G1 X105.64 Y131.66 E445.529
G1 X108.93 Y134.96 E445.761
G1 X112.23 Y138.26 E445.994
G1 X111.46 Y136.92 F9000
G1 X108.35 Y133.81 E446.213 F3600
G1 X105.25 Y130.71 E446.433
G1 X102.14 Y127.6 E446.652
G1 X99.03 Y124.49 E446.871
G1 X95.92 Y121.38 E447.09
G1 X92.82 Y118.28 E447.31
G1 X89.71 Y115.17 E447.529
G1 X90.12 Y115.01 F9000
G1 X93.55 Y118.44 E447.771 F3600
G1 X96.98 Y121.87 E448.013
G1 X100.41 Y125.3 E448.255
G1 X103.83 Y128.72 E448.496
G1 X107.26 Y132.15 E448.738
G1 X110.69 Y135.58 E448.98
G1 X109.92 Y134.24 F9000
G1 X106.62 Y130.95 E449.213 F3600
G1 X103.33 Y127.65 E449.445
G1 X100.03 Y124.36 E449.678
G1 X96.73 Y121.06 E449.91
G1 X93.44 Y117.77 E450.143
G1 X90.14 Y114.47 E450.375
G1 X90.17 Y113.93 F9000
G1 X93.39 Y117.15 E450.602 F3600
G1 X96.6 Y120.36 E450.829
G1 X99.82 Y123.58 E451.056
G1 X103.04 Y126.8 E451.283
G1 X106.25 Y130.01 E451.51
G1 X109.47 Y133.23 E451.737
G1 X109.68 Y132.87 F9000
G1 X106.45 Y129.64 E451.965 F3600
G1 X103.21 Y126.4 E452.193
G1 X99.98 Y123.17 E452.422
G1 X96.74 Y119.94 E452.65
G1 X93.51 Y116.7 E452.878
G1 X90.27 Y113.47 E453.106
G1 X90.41 Y113.04 F9000
G1 X93.66 Y116.29 E453.335 F3600
G1 X96.9 Y119.53 E453.564
G1 X100.15 Y122.78 E453.794
G1 X103.4 Y126.03 E454.023
G1 X106.64 Y129.27 E454.252
G1 X109.89 Y132.52 E454.481
G1 X110.35 Y132.41 F9000
G1 X107.05 Y129.12 E454.714 F3600
G1 X103.76 Y125.82 E454.946
G1 X100.46 Y122.53 E455.179
G1 X97.16 Y119.23 E455.411
G1 X93.87 Y115.94 E455.644
G1 X90.57 Y112.64 E455.876
G1 X90.76 Y112.26 F9000
G1 X94.12 Y115.62 E456.113 F3600
G1 X97.48 Y118.98 E456.35
G1 X100.84 Y122.34 E456.587
G1 X104.2 Y125.69 E456.824
G1 X107.56 Y129.05 E457.061
G1 X110.92 Y132.41 E457.298
G1 X111.48 F9000
G1 X108.53 Y129.46 E457.507 F3600
G1 X105.58 Y126.51 E457.715
G1 X106.14 F9000
G1 X109.1 Y129.46 E457.924 F3600
G1 X112.05 Y132.41 E458.132
G1 X112.62 F9000
G1 X109.67 Y129.46 E458.34 F3600
G1 X106.71 Y126.51 E458.548
G1 X107.28 F9000
G1 X110.23 Y129.46 E458.757 F3600
G1 X113.18 Y132.41 E458.965
G1 X113.75 F9000
G1 X110.8 Y129.46 E459.174 F3600
G1 X107.84 Y126.51 E459.382
G1 X108.41 F9000
G1 X111.36 Y129.46 E459.591 F3600
G1 X114.31 Y132.41 E459.799
G1 X114.88 F9000
G1 X111.93 Y129.46 E460.007 F3600
G1 X108.97 Y126.51 E460.215
G1 X109.54 F9000
G1 X112.49 Y129.46 E460.424 F3600
G1 X115.44 Y132.41 E460.632
G1 X116.01 F9000
G1 X113.06 Y129.46 E460.841 F3600
G1 X110.1 Y126.51 E461.049
G1 X110.67 F9000
G1 X113.63 Y129.46 E461.257 F3600
G1 X116.58 Y132.41 E461.465
G1 X117.14 F9000
G1 X114.19 Y129.46 E461.674 F3600
G1 X111.23 Y126.51 E461.882
G1 X111.8 F9000
G1 X114.76 Y129.46 E462.091 F3600
G1 X117.71 Y132.41 E462.299
G1 X125.95 Y141.23 F9000
G1 X128.54 Y143.82 E462.482 F3600
G1 X127.98 F9000
G1 X125.96 Y141.79 E462.624 F3600
G1 X125.96 Y142.36 F9000
G1 X127.41 Y143.82 E462.727 F3600
G1 X126.85 F9000
G1 X125.96 Y142.93 E462.789 F3600
G1 X125.96 Y143.5 F9000
G1 X126.28 Y143.82 E462.812 F3600
G1 E459.812 F1800
G1 Z1.1
G1 X130.23 Y137.02 F9000
G1 X134.17 Y130.21
G1 X138.12 Y123.41
G1 Z0.6
G1 E462.812 F1800
G1 X134.9 Y120.19 E463.039 F3600
G1 X131.68 Y116.97 E463.266
G1 X128.47 Y113.76 E463.493
G1 X125.25 Y110.54 E463.72
G1 X122.03 Y107.32 E463.947
G1 X118.81 Y104.1 E464.174
G1 X119.4 Y104.13 F9000
G1 X122.52 Y107.25 E464.394 F3600
G1 X125.64 Y110.37 E464.614
G1 X128.76 Y113.49 E464.834
G1 X131.88 Y116.6 E465.054
G1 X135 Y119.72 E465.274
G1 X138.12 Y122.84 E465.494
G1 Y122.28 F9000
G1 X135.1 Y119.26 E465.707 F3600
G1 X132.08 Y116.24 E465.92
G1 X129.06 Y113.22 E466.134
G1 X126.04 Y110.2 E466.347
G1 X123.02 Y107.18 E466.56
G1 X120 Y104.16 E466.773
G1 X120.61 Y104.2 F9000
G1 X124.11 Y107.7 E467.02 F3600
G1 X127.61 Y111.2 E467.267
G1 X131.12 Y114.71 E467.514
G1 X134.62 Y118.21 E467.761
G1 X138.12 Y121.71 E468.008
G1 Y121.15 F9000
G1 X134.74 Y117.77 E468.246 F3600
G1 X131.37 Y114.4 E468.484
G1 X127.99 Y111.02 E468.723
G1 X124.62 Y107.65 E468.961
G1 X121.24 Y104.27 E469.199
G1 X121.88 Y104.34 F9000
G1 X125.21 Y107.67 E469.434 F3600
G1 X128.54 Y111 E469.669
G1 X131.86 Y114.32 E469.903
G1 X135.19 Y117.65 E470.138
G1 X138.52 Y120.98 E470.373
G1 X139.09 F9000
G1 X135.78 Y117.67 E470.606 F3600
G1 X132.48 Y114.37 E470.84
G1 X129.17 Y111.06 E471.073
G1 X125.87 Y107.76 E471.307
G1 X122.56 Y104.45 E471.54
G1 X123.23 Y104.56 F9000
G1 X126.51 Y107.84 E471.772 F3600
G1 X129.8 Y111.13 E472.003
G1 X133.08 Y114.41 E472.235
G1 X136.37 Y117.7 E472.466
G1 X139.65 Y120.98 E472.698
G1 X140.22 Y120.98 F9000
G1 X136.96 Y117.72 E472.928 F3600
G1 X133.7 Y114.46 E473.158
G1 X130.43 Y111.2 E473.388
G1 X127.17 Y107.94 E473.618
G1 X123.91 Y104.68 E473.848
G1 X124.61 Y104.81 F9000
G1 X127.84 Y108.04 E474.076 F3600
G1 X131.08 Y111.28 E474.305
G1 X134.31 Y114.51 E474.533
G1 X137.55 Y117.75 E474.762
G1 X140.78 Y120.98 E474.99
G1 X141.35 F9000
G1 X138.14 Y117.78 E475.216 F3600
G1 X134.94 Y114.57 E475.442
G1 X131.73 Y111.37 E475.669
G1 X128.53 Y108.16 E475.895
G1 X125.32 Y104.96 E476.121
G1 X126.04 Y105.11 F9000
G1 X129.12 Y108.19 E476.338 F3600
G1 X132.2 Y111.27 E476.555
G1 X135.29 Y114.36 E476.773
G1 X138.37 Y117.44 E476.99
G1 X141.45 Y120.52 E477.207
G1 Y119.95 F9000
G1 X138.52 Y117.02 E477.414 F3600
G1 X135.59 Y114.09 E477.621
G1 X132.65 Y111.16 E477.827
G1 X129.72 Y108.23 E478.034
G1 X126.79 Y105.3 E478.241
G1 X127.55 Y105.49 F9000
G1 X131.03 Y108.96 E478.486 F3600
G1 X134.5 Y112.44 E478.732
G1 X137.98 Y115.91 E478.977
G1 X141.45 Y119.38 E479.222
G1 Y118.82 F9000
G1 X138.18 Y115.55 E479.453 F3600
G1 X134.9 Y112.27 E479.684
G1 X131.63 Y109 E479.915
G1 X128.35 Y105.72 E480.146
G1 X129.17 Y105.97 F9000
G1 X132.07 Y108.87 E480.351 F3600
G1 X134.96 Y111.77 E480.555
G1 X137.86 Y114.67 E480.76
G1 X137.84 Y114.08 F9000
G1 X135.24 Y111.48 E480.943 F3600
G1 X132.65 Y108.89 E481.126
G1 X130.05 Y106.29 E481.309
G1 X131 Y106.68 F9000
G1 X134.35 Y110.03 E481.546 F3600
G1 X137.7 Y113.37 E481.782
G1 X137.32 Y112.43 F9000
G1 X134.72 Y109.83 E481.966 F3600
G1 X132.12 Y107.22 E482.149
G1 X133.73 Y108.27 F9000
G1 X136.53 Y111.08 E482.346 F3600
G1 X138.36 Y115.17 F9000
G1 X141.45 Y118.25 E482.564 F3600
G1 Y117.69 F9000
G1 X138.93 Y115.17 E482.742 F3600
G1 X139.49 F9000
G1 X141.45 Y117.12 E482.879 F3600
G1 Y116.56 F9000
G1 X140.06 Y115.17 E482.977 F3600
G1 X140.63 F9000
G1 X141.45 Y115.99 E483.035 F3600
G1 Y115.42 F9000
G1 X141.19 Y115.17 E483.053 F3600
G1 E480.053 F1800
G1 Z1.1
G1 X126.44 Y112.68 F9000
G1 X119.3 Y110.85
G1 X108.63 Y110.73
G1 X106.16 Y111.25
G1 Z0.6
G1 E483.053 F1800
G1 X103.29 Y108.38 E483.256 F3600
G1 X100.41 Y105.5 E483.459
G1 X99.97 Y105.63 F9000
G1 X102.83 Y108.49 E483.661 F3600
G1 X105.69 Y111.35 E483.863
G1 X105.23 Y111.45 F9000
G1 X102.38 Y108.61 E484.064 F3600
G1 X99.53 Y105.76 E484.265
G1 X99.1 Y105.89 F9000
G1 X101.94 Y108.73 E484.465 F3600
G1 X104.77 Y111.56 E484.665
G1 X104.31 Y111.66 F9000
G1 X101.49 Y108.85 E484.864 F3600
G1 X98.67 Y106.03 E485.062
G1 X98.25 Y106.17 F9000
G1 X101.06 Y108.98 E485.26 F3600
G1 X103.86 Y111.78 E485.458
G1 X103.42 Y111.9 F9000
G1 X100.63 Y109.12 E485.655 F3600
G1 X97.84 Y106.33 E485.851
G1 X97.44 Y106.49 F9000
G1 X100.22 Y109.27 E486.047 F3600
G1 X103 Y112.05 E486.243
G1 X102.59 Y112.21 F9000
G1 X99.82 Y109.44 E486.439 F3600
G1 X97.04 Y106.66 E486.635
G1 X96.66 Y106.84 F9000
G1 X99.43 Y109.61 E486.831 F3600
G1 X102.2 Y112.38 E487.026
G1 X101.81 Y112.56 F9000
G1 X99.04 Y109.79 E487.222 F3600
G1 X96.27 Y107.02 E487.417
G1 X95.9 Y107.22 F9000
G1 X98.68 Y109.99 E487.613 F3600
G1 X101.45 Y112.76 E487.808
G1 X101.08 Y112.96 F9000
G1 X98.32 Y110.2 E488.004 F3600
G1 X95.55 Y107.43 E488.199
G1 X95.2 Y107.64 F9000
G1 X97.97 Y110.41 E488.395 F3600
G1 X100.74 Y113.18 E488.59
G1 X100.4 Y113.41 F9000
G1 X97.63 Y110.64 E488.786 F3600
G1 X94.85 Y107.86 E488.982
G1 X94.52 Y108.09 F9000
G1 X97.29 Y110.87 E489.178 F3600
G1 X100.06 Y113.64 E489.373
G1 X99.8 Y113.94 F9000
G1 X97 Y111.14 E489.571 F3600
G1 X94.19 Y108.33 E489.769
G1 X86.55 Y118.23 F9000
G1 X89.3 Y120.98 E489.963 F3600
G1 X88.74 F9000
G1 X86.55 Y118.8 E490.117 F3600
G1 Y119.36 F9000
G1 X88.17 Y120.98 E490.232 F3600
G1 X87.61 F9000
G1 X86.55 Y119.93 E490.307 F3600
G1 Y120.49 F9000
G1 X87.04 Y120.98 E490.341 F3600
G1 X88.31 Y121.01 F9000
G1 X89.76 Y122.54
G1 X89.88 Y130.61
G1 X92.92 Y133.65 E490.556 F3600
G1 X95.96 Y136.69 E490.77
G1 X99 Y139.73 E490.985
G1 X102.04 Y142.77 E491.199
G1 Y143.33 F9000
G1 X99 Y140.29 E491.414 F3600
G1 X95.96 Y137.26 E491.628
G1 X92.92 Y134.22 E491.843
G1 X89.88 Y131.18 E492.057
G1 Y131.74 F9000
G1 X92.9 Y134.76 E492.27 F3600
G1 X95.92 Y137.78 E492.483
G1 X98.94 Y140.8 E492.696
G1 X101.96 Y143.82 E492.909
G1 X101.39 F9000
G1 X98.51 Y140.94 E493.112 F3600
G1 X95.64 Y138.07 E493.315
G1 X92.76 Y135.19 E493.518
G1 X89.88 Y132.31 E493.721
G1 Y132.87 F9000
G1 X92.62 Y135.61 E493.914 F3600
G1 X95.35 Y138.35 E494.107
G1 X98.09 Y141.08 E494.3
G1 X100.82 Y143.82 E494.493
G1 X100.26 F9000
G1 X96.8 Y140.36 E494.737 F3600
G1 X93.34 Y136.9 E494.981
G1 X89.88 Y133.44 E495.225
G1 Y134.01 F9000
G1 X93.15 Y137.28 E495.456 F3600
G1 X96.42 Y140.55 E495.686
G1 X99.69 Y143.82 E495.917
G1 X99.13 F9000
G1 X96.05 Y140.74 E496.134 F3600
G1 X92.96 Y137.65 E496.352
G1 X89.88 Y134.57 E496.569
G1 Y135.14 F9000
G1 X92.77 Y138.03 E496.773 F3600
G1 X95.67 Y140.93 E496.978
G1 X98.56 Y143.82 E497.182
G1 X98 F9000
G1 X95.29 Y141.11 E497.373 F3600
G1 X92.59 Y138.41 E497.563
G1 X89.88 Y135.7 E497.754
G1 Y136.27 F9000
G1 X92.4 Y138.79 E497.932 F3600
G1 X94.91 Y141.3 E498.109
G1 X97.43 Y143.82 E498.287
G1 X96.86 F9000
G1 X93.37 Y140.33 E498.534 F3600
G1 X89.88 Y136.83 E498.78
G1 Y137.4 F9000
G1 X93.09 Y140.61 E499.006 F3600
G1 X96.3 Y143.82 E499.232
G1 X95.73 F9000
G1 X92.81 Y140.9 E499.439 F3600
G1 X89.88 Y137.97 E499.645
G1 X89.33 Y137.98 F9000
G1 X92.25 Y140.9 E499.851 F3600
G1 X95.17 Y143.82 E500.057
G1 X94.6 F9000
G1 X91.68 Y140.9 E500.263 F3600
G1 X88.76 Y137.98 E500.469
G1 X88.2 F9000
G1 X91.12 Y140.9 E500.675 F3600
G1 X94.04 Y143.82 E500.881
G1 X93.47 F9000
G1 X90.55 Y140.9 E501.087 F3600
G1 X87.63 Y137.98 E501.293
G1 X87.06 F9000
G1 X89.98 Y140.9 E501.499 F3600
G1 X92.9 Y143.82 E501.705
G1 X92.34 F9000
G1 X89.42 Y140.9 E501.911 F3600
G1 X86.5 Y137.98 E502.117
G1 X86.34 Y138.38 F9000
G1 X89.06 Y141.1 E502.309 F3600
G1 X91.77 Y143.82 E502.501
G1 X91.21 F9000
G1 X88.78 Y141.39 E502.673 F3600
G1 X86.34 Y138.95 E502.845
G1 Y139.51 F9000
G1 X88.49 Y141.67 E502.997 F3600
G1 X90.64 Y143.82 E503.149
G1 X90.08 F9000
G1 X86.34 Y140.08 E503.412 F3600
G1 Y140.64 F9000
G1 X89.51 Y143.82 E503.636 F3600
G1 X88.94 F9000
G1 X86.34 Y141.21 E503.82 F3600
G1 Y141.77 F9000
G1 X88.38 Y143.82 E503.965 F3600
G1 X87.81 F9000
G1 X86.34 Y142.34 E504.069 F3600
G1 Y142.9 F9000
G1 X87.25 Y143.82 E504.133 F3600
G1 X86.68 F9000
G1 X86.34 Y143.47 E504.158 F3600
; Layer Change GCode
; LAYER:2
; LAYER_HEIGHT:0.3
; TYPE:FILL
G1 Z0.9 F9000
G1 X89.54 Y137.64
; TYPE:WALL-INNER
G1 Y133.56 E504.362 F3600
G1 Y129.48 E504.565
G1 Y125.4 E504.769
G1 Y121.32 E504.972
G1 X86.21 E505.138
G1 Y118.08 E505.3
G1 Y114.83 E505.462
G1 X89.79 E505.64
G1 X89.82 Y113.97 E505.683
G1 X89.91 Y113.49 E505.708
G1 X90.06 Y113 E505.733
G1 X90.27 Y112.49 E505.761
G1 X90.54 Y111.95 E505.791
G1 X90.93 Y111.27 E505.83
G1 X91.17 Y110.91 E505.851
G1 X91.49 Y110.47 E505.879
G1 X92.02 Y109.83 E505.92
G1 X92.66 Y109.17 E505.966
G1 X93.36 Y108.55 E506.013
G1 X94.14 Y107.94 E506.062
G1 X94.66 Y107.57 E506.094
G1 X95.56 Y107.02 E506.147
G1 X96.05 Y106.75 E506.175
G1 X96.96 Y106.32 E506.225
G1 X97.96 Y105.92 E506.278
G1 X98.79 Y105.63 E506.322
G1 X100.18 Y105.21 E506.395
G1 X101.66 Y104.83 E506.471
G1 X103.12 Y104.51 E506.545
G1 X105.68 Y104.06 E506.675
G1 X106.93 Y103.9 E506.738
G1 X107.91 Y103.82 E506.787
G1 X113.23 Y103.6 E507.053
G1 X114.3 Y103.58 E507.106
G1 X119.49 Y103.79 E507.365
G1 X120.91 Y103.88 E507.436
G1 X121.99 Y104.01 E507.491
G1 X124.32 Y104.4 E507.608
G1 X126.08 Y104.77 E507.698
G1 X127.71 Y105.18 E507.782
G1 X129.08 Y105.58 E507.853
G1 X129.79 Y105.82 E507.89
G1 X130.93 Y106.27 E507.952
G1 X131.76 Y106.66 E507.998
G1 X132.29 Y106.93 E508.027
G1 X132.77 Y107.21 E508.055
G1 X133.33 Y107.57 E508.088
G1 X134.15 Y108.16 E508.138
G1 X134.97 Y108.83 E508.191
G1 X135.64 Y109.46 E508.237
G1 X136.22 Y110.1 E508.28
G1 X136.74 Y110.77 E508.323
G1 X137 Y111.15 E508.346
G1 X137.28 Y111.62 E508.373
G1 X137.69 Y112.4 E508.417
G1 X137.91 Y112.91 E508.444
G1 X138.07 Y113.41 E508.471
G1 X138.18 Y113.95 E508.498
G1 X138.21 Y114.83 E508.542
G1 X141.79 E508.721
G1 Y118.08 E508.883
G1 Y121.32 E509.045
G1 X138.46 E509.211
G1 Y125.4 E509.415
G1 Y129.48 E509.618
G1 Y133.56 E509.822
G1 Y137.64 E510.025
G1 X142 E510.201
G1 Y140.9 E510.364
G1 Y144.16 E510.527
G1 X137.91 E510.731
G1 X133.81 E510.936
G1 X129.72 E511.14
G1 X125.62 E511.344
G1 X125.62 Y141.05 E511.499
G1 X124.73 Y140.82 E511.545
G1 X122.87 Y144.02 E511.73
G1 X121.01 Y147.22 E511.914
G1 X119.15 Y150.42 E512.099
G1 X115.72 E512.27
G1 X112.28 E512.442
G1 X108.85 E512.613
G1 X106.99 Y147.22 E512.798
G1 X105.13 Y144.02 E512.982
G1 X103.27 Y140.82 E513.167
G1 X102.38 Y141.05 E513.213
G1 X102.38 Y144.16 E513.368
G1 X98.29 E513.572
G1 X94.19 E513.777
G1 X90.1 E513.981
G1 X86 E514.185
G1 Y140.9 E514.348
G1 Y137.64 E514.51
G1 X89.5 E514.685
G1 X89.54
G1 X89.14 Y137.24 F9000
; TYPE:WALL-OUTER
G1 Y133.36 E514.879 F600
G1 Y129.48 E515.072
G1 Y125.6 E515.266
G1 Y121.72 E515.459
G1 X85.81 E515.625
G1 Y118.08 E515.807
G1 Y114.43 E515.989
G1 X89.4 E516.168
G1 X89.42 Y113.93 E516.194
G1 X89.52 Y113.41 E516.22
G1 X89.68 Y112.86 E516.248
G1 X89.91 Y112.32 E516.278
G1 X90.19 Y111.76 E516.309
G1 X90.58 Y111.08 E516.348
G1 X90.84 Y110.67 E516.372
G1 X91.18 Y110.21 E516.401
G1 X91.72 Y109.57 E516.443
G1 X92.38 Y108.88 E516.49
G1 X93.11 Y108.24 E516.539
G1 X93.9 Y107.62 E516.589
G1 X94.45 Y107.23 E516.622
G1 X95.35 Y106.68 E516.675
G1 X95.88 Y106.39 E516.705
G1 X96.8 Y105.95 E516.756
G1 X97.82 Y105.55 E516.811
G1 X98.67 Y105.24 E516.856
G1 X100.06 Y104.83 E516.928
G1 X101.58 Y104.44 E517.006
G1 X103.04 Y104.12 E517.081
G1 X105.63 Y103.67 E517.212
G1 X106.89 Y103.5 E517.276
G1 X107.87 Y103.42 E517.325
G1 X110.55 Y103.31 E517.459
G1 X113.23 Y103.2 E517.592
G1 X114.31 Y103.18 E517.646
G1 X116.91 Y103.29 E517.776
G1 X119.5 Y103.39 E517.905
G1 X120.94 Y103.48 E517.977
G1 X122.05 Y103.62 E518.033
G1 X124.38 Y104.01 E518.151
G1 X126.18 Y104.38 E518.243
G1 X127.81 Y104.79 E518.327
G1 X129.2 Y105.2 E518.399
G1 X129.93 Y105.45 E518.437
G1 X131.08 Y105.9 E518.499
G1 X131.95 Y106.3 E518.547
G1 X132.47 Y106.58 E518.576
G1 X132.98 Y106.87 E518.605
G1 X133.56 Y107.24 E518.64
G1 X134.4 Y107.84 E518.691
G1 X135.24 Y108.54 E518.746
G1 X135.92 Y109.18 E518.792
G1 X136.53 Y109.85 E518.837
G1 X137.07 Y110.54 E518.881
G1 X137.33 Y110.93 E518.905
G1 X137.63 Y111.42 E518.934
G1 X138.05 Y112.23 E518.979
G1 X138.28 Y112.76 E519.008
G1 X138.46 Y113.31 E519.037
G1 X138.58 Y113.9 E519.067
G1 X138.6 Y114.43 E519.093
G1 X142.19 E519.272
G1 Y118.08 E519.454
G1 Y121.72 E519.636
G1 X138.86 E519.802
G1 Y125.6 E519.996
G1 Y129.48 E520.189
G1 Y133.36 E520.383
G1 Y137.24 E520.576
G1 X142.4 E520.753
G1 Y140.9 E520.936
G1 Y144.56 E521.118
G1 X138.11 E521.332
G1 X133.81 E521.547
G1 X129.52 E521.761
G1 X125.22 E521.975
G1 X125.22 Y141.36 E522.135
G1 X124.92 Y141.28 E522.15
G1 X123.07 Y144.46 E522.334
G1 X121.23 Y147.64 E522.517
G1 X119.38 Y150.82 E522.701
G1 X115.79 E522.88
G1 X112.21 E523.059
G1 X108.62 E523.238
G1 X106.77 Y147.64 E523.421
G1 X104.93 Y144.46 E523.605
G1 X103.08 Y141.28 E523.788
G1 X102.78 Y141.36 E523.803
G1 X102.78 Y144.56 E523.963
G1 X98.49 E524.177
G1 X94.19 E524.392
G1 X89.9 E524.606
G1 X85.6 E524.82
G1 Y140.9 E525.003
G1 Y137.24 E525.185
G1 X89.1 E525.36
G1 X89.14
G1 Y134.24
G1 X89.54 Y137.64 F9000
G1 X98.36
; TYPE:WALL-INNER
G1 X100.85 E525.485 F3600
G1 X101.19 Y137.02 E525.52
G1 X99.23 Y133.83 E525.707
G1 X98.36 Y134.07 E525.752
G1 Y137.6 E525.928
G1 Y137.64
G1 X98.76 Y137.24 F9000
; TYPE:WALL-OUTER
G1 X100.62 E526.021 F600
G1 X100.73 Y137.03 E526.032
G1 X99.05 Y134.29 E526.193
G1 X98.76 Y134.38 E526.208
G1 Y137.2 E526.349
G1 Y137.24
G1 X100.62
G1 X100.73 Y137.03
G1 X100.26 Y136.26
G1 X98.36 Y137.64 F9000
G1 X106.19 Y139.14
G1 X114.01 Y140.64
; TYPE:WALL-INNER
G1 X116.15 Y137 E526.56 F3600
G1 X118.28 Y133.36 E526.77
G1 X117.93 Y132.76 E526.805
G1 X114.04 E526.999
G1 X110.14 E527.193
G1 X109.8 Y133.36 E527.228
G1 X111.9 Y136.99 E527.437
G1 X113.99 Y140.61 E527.646
G1 X114.01 Y140.64
G1 X114.01 Y139.85 F9000
; TYPE:WALL-OUTER
G1 X115.92 Y136.61 E527.834 F600
G1 X117.82 Y133.36 E528.021
G1 X117.7 Y133.16 E528.033
G1 X114.04 E528.216
G1 X110.38 E528.398
G1 X110.26 Y133.36 E528.41
G1 X112.13 Y136.59 E528.596
G1 X113.99 Y139.81 E528.782
G1 X114.01 Y139.85
G1 X115.53 Y137.26
G1 X114.01 Y140.64 F9000
G1 X121.83 Y139.14
G1 X129.64 Y137.64
; TYPE:WALL-INNER
G1 Y134.07 E528.96 F3600
G1 X128.77 Y133.83 E529.005
G1 X126.81 Y137.02 E529.192
G1 X127.15 Y137.64 E529.227
G1 X129.6 E529.35
G1 X129.64
G1 X129.24 Y137.24 F9000
; TYPE:WALL-OUTER
G1 Y134.38 E529.492 F600
G1 X128.95 Y134.29 E529.508
G1 X127.27 Y137.03 E529.668
G1 X127.38 Y137.24 E529.68
G1 X129.2 E529.77
G1 X129.24
G1 Y134.38
G1 X129.11 Y134.34
G1 X129.64 Y137.64 F9000
G1 E526.77 F1800
G1 Z1.4
G1 X128.21 Y137.84 F9000
G1 X118.36 Y132.16
G1 X107.07 Y126.44
G1 X105.05 Y125.56
G1 X103.67 Y123.13
G1 X103.63 Y121.62
G1 X105.16 Y121
G1 X107.62 Y120.95
; TYPE:WALL-INNER
G1 Z0.9
G1 E529.77 F1800
G1 Y119.74 E529.831 F3600
G1 X103.88 E530.018
G1 X100.13 E530.204
G1 X100.82 Y120.96 E530.274
G1 X104.2 Y120.96 E530.443
G1 X107.58 Y120.95 E530.611
G1 X107.62 Y120.95
G1 X107.22 Y120.56 F9000
; TYPE:WALL-OUTER
G1 Y120.14 E530.632 F600
G1 X104.02 E530.792
G1 X100.82 E530.951
G1 X101.05 Y120.56 E530.975
G1 X104.12 E531.128
G1 X107.18 E531.281
G1 X107.22 Y120.56
G1 Y120.14
G1 X104.63 Y120.14
G1 X107.62 Y120.95 F9000
G1 X107.47 Y120.8
G1 X102.9 Y121.32
; TYPE:WALL-INNER
G1 X105.64 Y126.17 E531.559 F3600
G1 X109.81 E531.767
G1 X113.99 E531.975
G1 X118.16 E532.183
G1 X122.33 E532.391
G1 X124.87 Y121.93 E532.638
G1 X124.52 Y121.32 E532.672
G1 X120.1 E532.893
G1 Y118.08 E533.055
G1 Y114.83 E533.217
G1 X123.84 E533.404
G1 X127.57 E533.59
G1 X127.83 Y113.99 E533.634
G1 X126.96 Y113.39 E533.686
G1 X126.22 Y112.96 E533.729
G1 X125.38 Y112.56 E533.776
G1 X124.52 Y112.24 E533.821
G1 X123.76 Y112.03 E533.861
G1 X122.91 Y111.84 E533.904
G1 X121.76 Y111.57 E533.963
G1 X120.58 Y111.32 E534.023
G1 X119.57 Y111.17 E534.074
G1 X118.19 Y111.06 E534.143
G1 X116.06 Y110.97 E534.25
G1 X113.83 Y110.95 E534.361
G1 X111.75 Y110.97 E534.465
G1 X109.63 Y111.07 E534.571
G1 X108.34 Y111.18 E534.635
G1 X107.25 Y111.35 E534.69
G1 X104.65 Y111.93 E534.823
G1 X103.79 Y112.15 E534.867
G1 X102.91 Y112.44 E534.914
G1 X102.06 Y112.82 E534.96
G1 X101.2 Y113.29 E535.009
G1 X100.17 Y113.98 E535.071
G1 X100.43 Y114.83 E535.115
G1 X104.17 E535.302
G1 X107.9 E535.488
G1 Y118.08 E535.65
G1 Y121.32 E535.812
G1 X102.94 E536.06
G1 X102.9
G1 X103.58 Y121.72 F9000
; TYPE:WALL-OUTER
G1 X105.88 Y125.77 E536.292 F600
G1 X109.94 E536.494
G1 X113.99 E536.697
G1 X118.05 E536.899
G1 X122.1 E537.101
G1 X124.4 Y121.93 E537.325
G1 X124.29 Y121.72 E537.336
G1 X119.7 E537.565
G1 Y118.08 E537.747
G1 Y114.43 E537.929
G1 X123.49 E538.118
G1 X127.27 E538.307
G1 X127.36 Y114.15 E538.322
G1 X126.75 Y113.73 E538.359
G1 X126.03 Y113.31 E538.4
G1 X125.22 Y112.93 E538.445
G1 X124.4 Y112.62 E538.489
G1 X123.66 Y112.41 E538.527
G1 X122.82 Y112.23 E538.57
G1 X121.67 Y111.96 E538.629
G1 X120.51 Y111.72 E538.688
G1 X119.52 Y111.57 E538.738
G1 X118.16 Y111.46 E538.806
G1 X116.05 Y111.37 E538.911
G1 X113.83 Y111.35 E539.022
G1 X111.76 Y111.37 E539.125
G1 X109.65 Y111.47 E539.231
G1 X108.39 Y111.58 E539.294
G1 X107.33 Y111.75 E539.348
G1 X104.74 Y112.32 E539.48
G1 X103.9 Y112.53 E539.523
G1 X103.05 Y112.82 E539.568
G1 X102.24 Y113.18 E539.612
G1 X101.41 Y113.63 E539.659
G1 X100.64 Y114.15 E539.705
G1 X100.72 Y114.43 E539.72
G1 X104.51 E539.909
G1 X108.3 E540.098
G1 Y118.08 E540.28
G1 Y121.72 E540.462
G1 X103.62 E540.695
G1 X103.58
G1 X105.06 Y124.33
G1 X102.9 Y121.32 F9000
G1 X102.57 Y121.44
; TYPE:FILL
G1 X99.4 Y124.61 E540.919 F3600
G1 X96.23 Y127.79 E541.143
G1 X93.05 Y130.96 E541.367
G1 X89.88 Y134.13 E541.591
G1 Y133.56 F9000
G1 X92.95 Y130.5 E541.807 F3600
G1 X96.02 Y127.43 E542.024
G1 X99.08 Y124.37 E542.24
G1 X102.15 Y121.3 E542.456
G1 X101.58 F9000
G1 X98.66 Y124.23 E542.663 F3600
G1 X95.73 Y127.15 E542.869
G1 X92.81 Y130.08 E543.076
G1 X89.88 Y133 E543.282
G1 Y132.43 F9000
G1 X92.67 Y129.65 E543.479 F3600
G1 X95.45 Y126.87 E543.675
G1 X98.24 Y124.08 E543.872
G1 X101.02 Y121.3 E544.068
G1 X100.56 Y121.19 F9000
G1 X97.89 Y123.86 E544.256 F3600
G1 X95.22 Y126.53 E544.445
G1 X92.55 Y129.2 E544.633
G1 X89.88 Y131.87 E544.821
G1 Y131.3 F9000
G1 X93.37 Y127.81 E545.067 F3600
G1 X96.86 Y124.32 E545.314
G1 X100.35 Y120.83 E545.56
G1 X100.15 Y120.47 F9000
G1 X96.73 Y123.89 E545.801 F3600
G1 X93.3 Y127.32 E546.043
G1 X89.88 Y130.74 E546.284
G1 Y130.17 F9000
G1 X93.24 Y126.82 E546.521 F3600
G1 X96.59 Y123.46 E546.757
G1 X99.95 Y120.11 E546.994
G1 X99.74 Y119.74 F9000
G1 X96.45 Y123.03 E547.226 F3600
G1 X93.17 Y126.31 E547.458
G1 X89.88 Y129.6 E547.69
G1 Y129.04 F9000
G1 X93.35 Y125.57 E547.935 F3600
G1 X96.82 Y122.11 E548.18
G1 X100.28 Y118.64 E548.424
G1 X103.75 Y115.17 E548.669
G1 X103.19 F9000
G1 X99.86 Y118.5 E548.904 F3600
G1 X96.54 Y121.82 E549.138
G1 X93.21 Y125.15 E549.373
G1 X89.88 Y128.47 E549.607
G1 Y127.91 F9000
G1 X93.07 Y124.73 E549.832 F3600
G1 X96.25 Y121.54 E550.057
G1 X99.44 Y118.36 E550.281
G1 X102.62 Y115.17 E550.506
G1 X102.05 F9000
G1 X99.01 Y118.21 E550.721 F3600
G1 X95.97 Y121.26 E550.936
G1 X92.92 Y124.3 E551.15
G1 X89.88 Y127.34 E551.365
G1 Y126.78 F9000
G1 X92.78 Y123.88 E551.57 F3600
G1 X95.69 Y120.98 E551.775
G1 X98.59 Y118.07 E551.979
G1 X101.49 Y115.17 E552.184
G1 X100.92 F9000
G1 X98.16 Y117.93 E552.379 F3600
G1 X95.4 Y120.69 E552.574
G1 X92.64 Y123.45 E552.768
G1 X89.88 Y126.21 E552.963
G1 Y125.64 F9000
G1 X93.37 Y122.15 E553.209 F3600
G1 X96.87 Y118.66 E553.456
G1 X100.36 Y115.17 E553.702
G1 X100.09 Y114.88 F9000
G1 X96.69 Y118.28 E553.942 F3600
G1 X93.28 Y121.68 E554.182
G1 X89.88 Y125.08 E554.422
G1 Y124.51 F9000
G1 X93.24 Y121.15 E554.659 F3600
G1 X96.59 Y117.8 E554.895
G1 X99.95 Y114.44 E555.132
G1 X99.82 Y114.01 F9000
G1 X96.51 Y117.32 E555.366 F3600
G1 X93.19 Y120.64 E555.6
G1 X89.88 Y123.95 E555.834
G1 Y123.38 F9000
G1 X93.09 Y120.17 E556.061 F3600
G1 X96.31 Y116.96 E556.287
G1 X99.52 Y113.75 E556.514
G1 X102.73 Y110.53 E556.741
G1 X105.95 Y107.32 E556.967
G1 X109.16 Y104.11 E557.194
G1 X108.57 Y104.13 F9000
G1 X105.46 Y107.25 E557.414 F3600
G1 X102.34 Y110.36 E557.633
G1 X99.23 Y113.48 E557.853
G1 X96.11 Y116.59 E558.073
G1 X93 Y119.71 E558.292
G1 X89.88 Y122.82 E558.512
G1 Y122.25 F9000
G1 X92.9 Y119.24 E558.725 F3600
G1 X95.91 Y116.22 E558.938
G1 X98.93 Y113.21 E559.151
G1 X101.95 Y110.19 E559.363
G1 X104.96 Y107.18 E559.576
G1 X107.98 Y104.16 E559.789
G1 X107.36 Y104.2 F9000
G1 X103.86 Y107.7 E560.036 F3600
G1 X100.37 Y111.19 E560.282
G1 X96.87 Y114.69 E560.529
G1 X93.38 Y118.18 E560.775
G1 X89.88 Y121.68 E561.022
G1 Y121.12 F9000
G1 X93.25 Y117.75 E561.26 F3600
G1 X96.62 Y114.38 E561.498
G1 X99.99 Y111.01 E561.735
G1 X103.36 Y107.64 E561.973
G1 X106.73 Y104.27 E562.211
G1 X106.08 Y104.35 F9000
G1 X102.75 Y107.68 E562.446 F3600
G1 X99.43 Y111 E562.68
G1 X96.1 Y114.33 E562.915
G1 X92.78 Y117.65 E563.149
G1 X89.45 Y120.98 E563.384
G1 X88.89 F9000
G1 X92.2 Y117.67 E563.617 F3600
G1 X95.5 Y114.37 E563.851
G1 X98.81 Y111.06 E564.084
G1 X102.11 Y107.76 E564.318
G1 X105.42 Y104.45 E564.551
G1 X104.73 Y104.57 F9000
G1 X101.45 Y107.85 E564.782 F3600
G1 X98.17 Y111.13 E565.014
G1 X94.88 Y114.42 E565.245
G1 X91.6 Y117.7 E565.477
G1 X88.32 Y120.98 E565.708
G1 X87.75 F9000
G1 X91.01 Y117.72 E565.938 F3600
G1 X94.27 Y114.46 E566.168
G1 X97.52 Y111.21 E566.398
G1 X100.78 Y107.95 E566.628
G1 X104.04 Y104.69 E566.858
G1 X103.36 Y104.81 F9000
G1 X100.13 Y108.04 E567.086 F3600
G1 X96.89 Y111.28 E567.314
G1 X93.66 Y114.51 E567.543
G1 X90.42 Y117.75 E567.771
G1 X87.19 Y120.98 E567.999
G1 X86.62 F9000
G1 X89.82 Y117.78 E568.225 F3600
G1 X93.03 Y114.57 E568.451
G1 X96.23 Y111.37 E568.677
G1 X99.44 Y108.16 E568.903
G1 X102.64 Y104.96 E569.129
G1 X101.92 Y105.12 F9000
G1 X98.85 Y108.19 E569.346 F3600
G1 X95.77 Y111.27 E569.563
G1 X92.7 Y114.34 E569.779
G1 X89.62 Y117.42 E569.996
G1 X86.55 Y120.49 E570.213
G1 Y119.92 F9000
G1 X89.47 Y117 E570.419 F3600
G1 X92.4 Y114.08 E570.625
G1 X95.32 Y111.15 E570.832
G1 X98.25 Y108.23 E571.038
G1 X101.17 Y105.31 E571.244
G1 X100.41 Y105.5 F9000
G1 X96.95 Y108.97 E571.489 F3600
G1 X93.48 Y112.43 E571.733
G1 X90.02 Y115.9 E571.978
G1 X86.55 Y119.36 E572.222
G1 Y118.79 F9000
G1 X89.82 Y115.53 E572.453 F3600
G1 X93.08 Y112.26 E572.683
G1 X96.35 Y109 E572.914
G1 X99.61 Y105.73 E573.144
G1 X98.79 Y105.98 F9000
G1 X95.91 Y108.87 E573.347 F3600
G1 X93.02 Y111.75 E573.551
G1 X90.14 Y114.64 E573.754
G1 X90.16 Y114.06 F9000
G1 X92.74 Y111.47 E573.936 F3600
G1 X95.33 Y108.89 E574.119
G1 X97.91 Y106.3 E574.301
G1 X96.95 Y106.7 F9000
G1 X93.63 Y110.02 E574.535 F3600
G1 X90.31 Y113.33 E574.769
G1 X90.7 Y112.38 F9000
G1 X93.26 Y109.83 E574.95 F3600
G1 X95.82 Y107.27 E575.13
G1 X94.18 Y108.34 F9000
G1 X91.53 Y110.99 E575.317 F3600
G1 X89.61 Y115.17 F9000
G1 X86.55 Y118.23 E575.533 F3600
G1 Y117.66 F9000
G1 X89.04 Y115.17 E575.709 F3600
G1 X88.48 F9000
G1 X86.55 Y117.09 E575.844 F3600
G1 Y116.53 F9000
G1 X87.91 Y115.17 E575.94 F3600
G1 X87.35 F9000
G1 X86.55 Y115.96 E575.997 F3600
G1 Y115.4 F9000
G1 X86.78 Y115.17 E576.013 F3600
G1 X100.45 Y113.38 F9000
G1 X103.55 Y110.28 E576.232 F3600
G1 X106.65 Y107.18 E576.45
G1 X109.75 Y104.08 E576.669
G1 X110.34 Y104.06 F9000
G1 X107.51 Y106.89 E576.869 F3600
G1 X104.68 Y109.71 E577.068
G1 X101.85 Y112.54 E577.268
G1 X102.86 Y112.1 F9000
G1 X105.55 Y109.41 E577.458 F3600
G1 X108.24 Y106.72 E577.647
G1 X110.93 Y104.03 E577.837
G1 X111.52 Y104.01 F9000
G1 X108.92 Y106.61 E578.021 F3600
G1 X106.31 Y109.22 E578.204
G1 X103.71 Y111.82 E578.388
G1 X104.47 Y111.63 F9000
G1 X107.02 Y109.08 E578.568 F3600
G1 X109.56 Y106.53 E578.747
G1 X112.11 Y103.98 E578.927
G1 X112.7 Y103.96 F9000
G1 X110.2 Y106.46 E579.103 F3600
G1 X107.7 Y108.96 E579.28
G1 X105.2 Y111.46 E579.456
G1 X105.92 Y111.3 F9000
G1 X108.38 Y108.84 E579.629 F3600
G1 X110.83 Y106.39 E579.803
G1 X113.29 Y103.93 E579.976
G1 X113.86 Y103.93 F9000
G1 X111.46 Y106.33 E580.146 F3600
G1 X109.05 Y108.74 E580.315
G1 X106.65 Y111.14 E580.485
G1 X107.36 Y110.99 F9000
G1 X110.9 Y107.46 E580.734 F3600
G1 X114.43 Y103.93 E580.983
G1 X114.97 Y103.95 F9000
G1 X111.5 Y107.42 E581.228 F3600
G1 X108.03 Y110.89 E581.472
G1 X108.67 Y110.81 F9000
G1 X112.09 Y107.39 E581.714 F3600
G1 X115.51 Y103.97 E581.955
G1 X116.06 Y103.99 F9000
G1 X112.68 Y107.37 E582.194 F3600
G1 X109.3 Y110.75 E582.432
G1 X109.9 Y110.71 F9000
G1 X113.25 Y107.36 E582.669 F3600
G1 X116.6 Y104.01 E582.905
G1 X117.15 Y104.04 F9000
G1 X113.83 Y107.37 E583.14 F3600
G1 X110.5 Y110.69 E583.374
G1 X111.09 Y110.66 F9000
G1 X114.39 Y107.36 E583.607 F3600
G1 X117.69 Y104.06 E583.84
G1 X118.24 Y104.08 F9000
G1 X114.96 Y107.36 E584.072 F3600
G1 X111.68 Y110.64 E584.303
G1 X112.25 Y110.63 F9000
G1 X115.52 Y107.37 E584.533 F3600
G1 X118.78 Y104.1 E584.763
G1 X119.32 Y104.12 F9000
G1 X116.07 Y107.37 E584.993 F3600
G1 X112.82 Y110.62 E585.222
G1 X113.4 Y110.62 F9000
G1 X116.63 Y107.39 E585.45 F3600
G1 X119.86 Y104.15 E585.678
G1 X120.39 Y104.19 F9000
G1 X117.18 Y107.4 E585.905 F3600
G1 X113.96 Y110.61 E586.131
G1 X114.53 Y110.62 F9000
G1 X117.73 Y107.43 E586.357 F3600
G1 X120.92 Y104.23 E586.582
G1 X121.42 Y104.29 F9000
G1 X118.26 Y107.46 E586.806 F3600
G1 X115.09 Y110.62 E587.029
G1 X115.65 Y110.62 F9000
G1 X118.79 Y107.49 E587.251 F3600
G1 X121.93 Y104.35 E587.472
G1 X122.41 Y104.43 F9000
G1 X119.31 Y107.53 E587.691 F3600
G1 X116.21 Y110.63 E587.91
G1 X116.75 Y110.66 F9000
G1 X119.83 Y107.59 E588.127 F3600
G1 X122.9 Y104.51 E588.344
G1 X123.38 Y104.59 F9000
G1 X120.34 Y107.64 E588.559 F3600
G1 X117.29 Y110.68 E588.773
G1 X117.84 Y110.7 F9000
G1 X120.86 Y107.69 E588.986 F3600
G1 X123.87 Y104.67 E589.199
G1 X124.35 Y104.76 F9000
G1 X121.36 Y107.75 E589.41 F3600
G1 X118.37 Y110.73 E589.62
G1 X118.89 Y110.77 F9000
G1 X121.85 Y107.81 E589.829 F3600
G1 X124.81 Y104.85 E590.038
G1 X125.28 Y104.95 F9000
G1 X122.35 Y107.89 E590.245 F3600
G1 X119.42 Y110.82 E590.452
G1 X119.92 Y110.88 F9000
G1 X122.84 Y107.97 E590.658 F3600
G1 X125.75 Y105.05 E590.864
G1 X126.21 Y105.15 F9000
G1 X123.31 Y108.05 E591.069 F3600
G1 X120.41 Y110.95 E591.273
G1 X120.89 Y111.04 F9000
G1 X123.78 Y108.16 E591.477 F3600
G1 X126.66 Y105.27 E591.68
G1 X127.12 Y105.38 F9000
G1 X124.24 Y108.26 E591.884 F3600
G1 X121.36 Y111.14 E592.087
G1 X121.83 Y111.24 F9000
G1 X124.7 Y108.37 E592.29 F3600
G1 X127.57 Y105.49 E592.492
G1 X128.01 Y105.62 F9000
G1 X125.15 Y108.48 E592.694 F3600
G1 X122.28 Y111.34 E592.896
G1 X122.74 Y111.45 F9000
G1 X125.59 Y108.6 E593.097 F3600
G1 X128.44 Y105.75 E593.298
G1 X128.88 Y105.88 F9000
G1 X126.04 Y108.72 E593.499 F3600
G1 X123.2 Y111.56 E593.699
G1 X123.67 Y111.66 F9000
G1 X126.49 Y108.84 E593.898 F3600
G1 X129.3 Y106.02 E594.097
G1 X129.73 Y106.17 F9000
G1 X126.93 Y108.97 E594.295 F3600
G1 X124.12 Y111.77 E594.492
G1 X124.56 Y111.9 F9000
G1 X127.35 Y109.11 E594.689 F3600
G1 X130.13 Y106.32 E594.885
G1 X130.54 Y106.48 F9000
G1 X127.76 Y109.27 E595.082 F3600
G1 X124.98 Y112.05 E595.278
G1 X125.39 Y112.2 F9000
G1 X128.17 Y109.43 E595.474 F3600
G1 X130.94 Y106.65 E595.669
G1 X131.33 Y106.83 F9000
G1 X128.56 Y109.6 E595.865 F3600
G1 X125.78 Y112.37 E596.061
G1 X126.16 Y112.56 F9000
G1 X128.94 Y109.79 E596.257 F3600
G1 X131.71 Y107.01 E596.452
G1 X132.08 Y107.21 F9000
G1 X129.31 Y109.98 E596.648 F3600
G1 X126.54 Y112.75 E596.843
G1 X126.89 Y112.96 F9000
G1 X129.67 Y110.19 E597.039 F3600
G1 X132.44 Y107.41 E597.234
G1 X132.79 Y107.63 F9000
G1 X130.02 Y110.4 E597.43 F3600
G1 X127.25 Y113.17 E597.625
G1 X127.58 Y113.4 F9000
G1 X130.36 Y110.63 E597.821 F3600
G1 X133.14 Y107.85 E598.017
G1 X133.46 Y108.08 F9000
G1 X130.69 Y110.86 E598.213 F3600
G1 X127.92 Y113.63 E598.408
G1 X128.21 Y113.9 F9000
G1 X131 Y111.11 E598.605 F3600
G1 X133.79 Y108.32 E598.802
G1 X134.11 Y108.57 F9000
G1 X131.04 Y111.65 E599.019 F3600
G1 X127.96 Y114.72 E599.236
G1 X127.51 Y115.17 F9000
G1 X124.61 Y118.08 E599.442 F3600
G1 X121.7 Y120.98 E599.647
G1 X121.13 F9000
G1 X124.04 Y118.08 E599.852 F3600
G1 X126.94 Y115.17 E600.057
G1 X126.38 F9000
G1 X123.47 Y118.08 E600.262 F3600
G1 X120.56 Y120.98 E600.467
G1 X120.44 Y120.54 F9000
G1 X123.13 Y117.86 E600.657 F3600
G1 X125.81 Y115.17 E600.846
G1 X125.25 F9000
G1 X122.85 Y117.58 E601.016 F3600
G1 X120.44 Y119.98 E601.185
G1 Y119.41 F9000
G1 X124.68 Y115.17 E601.484 F3600
G1 X124.11 F9000
G1 X120.44 Y118.85 E601.744 F3600
G1 Y118.28 F9000
G1 X123.55 Y115.17 E601.963 F3600
G1 X122.98 F9000
G1 X120.44 Y117.72 E602.143 F3600
G1 Y117.15 F9000
G1 X122.42 Y115.17 E602.283 F3600
G1 X121.85 F9000
G1 X120.44 Y116.58 E602.382 F3600
G1 Y116.02 F9000
G1 X121.29 Y115.17 E602.442 F3600
G1 X120.72 F9000
G1 X120.44 Y115.45 E602.462 F3600
G1 X122.26 Y120.98 F9000
G1 X125.3 Y117.94 E602.677 F3600
G1 X128.34 Y114.9 E602.891
G1 X131.38 Y111.86 E603.106
G1 X134.42 Y108.82 E603.32
G1 X134.73 Y109.08 F9000
G1 X131.76 Y112.06 E603.53 F3600
G1 X128.78 Y115.03 E603.74
G1 X125.81 Y118.01 E603.95
G1 X122.83 Y120.98 E604.16
G1 X123.39 F9000
G1 X126.3 Y118.07 E604.365 F3600
G1 X129.21 Y115.17 E604.571
G1 X132.11 Y112.26 E604.776
G1 X135.02 Y109.35 E604.981
G1 X135.31 Y109.63 F9000
G1 X132.47 Y112.47 E605.181 F3600
G1 X129.64 Y115.31 E605.382
G1 X126.8 Y118.14 E605.582
G1 X123.96 Y120.98 E605.782
G1 X124.52 F9000
G1 X127.29 Y118.22 E605.977 F3600
G1 X130.06 Y115.45 E606.173
G1 X132.82 Y112.69 E606.368
G1 X135.59 Y109.92 E606.563
G1 X135.86 Y110.21 F9000
G1 X133.11 Y112.96 E606.757 F3600
G1 X130.36 Y115.72 E606.952
G1 X127.6 Y118.47 E607.146
G1 X124.85 Y121.22 E607.34
G1 X125.06 Y121.58 F9000
G1 X127.82 Y118.82 E607.535 F3600
G1 X130.59 Y116.05 E607.73
G1 X133.35 Y113.29 E607.925
G1 X136.11 Y110.52 E608.12
G1 X136.36 Y110.84 F9000
G1 X133.58 Y113.62 E608.316 F3600
G1 X130.81 Y116.4 E608.512
G1 X128.03 Y119.18 E608.708
G1 X125.25 Y121.96 E608.904
G1 X124.4 Y123.37 F9000
G1 X127.45 Y120.32 E609.119 F3600
G1 X130.5 Y117.27 E609.335
G1 X133.55 Y114.22 E609.55
G1 X136.6 Y111.17 E609.765
G1 X136.82 Y111.52 F9000
G1 X133.51 Y114.84 E609.999 F3600
G1 X130.19 Y118.15 E610.233
G1 X126.88 Y121.47 E610.467
G1 X123.56 Y124.78 E610.701
G1 X122.71 Y126.19 F9000
G1 X125.57 Y123.33 E610.903 F3600
G1 X128.44 Y120.46 E611.105
G1 X131.3 Y117.6 E611.307
G1 X134.17 Y114.73 E611.509
G1 X137.03 Y111.87 E611.711
G1 X137.22 Y112.24 F9000
G1 X133.86 Y115.6 E611.948 F3600
G1 X130.5 Y118.96 E612.185
G1 X127.14 Y122.33 E612.423
G1 X123.77 Y125.69 E612.66
G1 X120.41 Y129.05 E612.897
G1 X117.05 Y132.41 E613.134
G1 X116.49 F9000
G1 X119.44 Y129.46 E613.343 F3600
G1 X122.39 Y126.51 E613.551
G1 X121.83 F9000
G1 X118.88 Y129.46 E613.759 F3600
G1 X115.92 Y132.41 E613.967
G1 X115.36 F9000
G1 X118.31 Y129.46 E614.176 F3600
G1 X121.26 Y126.51 E614.384
G1 X120.7 F9000
G1 X117.75 Y129.46 E614.593 F3600
G1 X114.79 Y132.41 E614.801
G1 X114.22 F9000
G1 X117.18 Y129.46 E615.01 F3600
G1 X120.13 Y126.51 E615.218
G1 X119.57 F9000
G1 X116.62 Y129.46 E615.427 F3600
G1 X113.66 Y132.41 E615.635
G1 X113.09 F9000
G1 X116.05 Y129.46 E615.843 F3600
G1 X119 Y126.51 E616.051
G1 X118.43 F9000
G1 X115.48 Y129.46 E616.26 F3600
G1 X112.53 Y132.41 E616.468
G1 X111.96 F9000
G1 X114.92 Y129.46 E616.677 F3600
G1 X117.87 Y126.51 E616.885
G1 X117.3 F9000
G1 X114.35 Y129.46 E617.094 F3600
G1 X111.4 Y132.41 E617.302
G1 X110.83 F9000
G1 X113.79 Y129.46 E617.51 F3600
G1 X116.74 Y126.51 E617.718
G1 X116.17 F9000
G1 X113.22 Y129.46 E617.927 F3600
G1 X110.26 Y132.41 E618.135
G1 X109.51 Y133.17 F9000
G1 X106.85 Y135.83 E618.323 F3600
G1 X104.19 Y138.5 E618.511
G1 X101.52 Y141.16 E618.699
G1 X98.86 Y143.82 E618.887
G1 X98.3 F9000
G1 X101.76 Y140.36 E619.131 F3600
G1 X105.22 Y136.9 E619.375
G1 X108.69 Y133.43 E619.62
G1 X112.15 Y129.97 E619.864
G1 X115.61 Y126.51 E620.108
G1 X115.04 F9000
G1 X111.58 Y129.97 E620.352 F3600
G1 X108.12 Y133.43 E620.596
G1 X104.65 Y136.9 E620.841
G1 X101.19 Y140.36 E621.085
G1 X97.73 Y143.82 E621.329
G1 X97.17 F9000
G1 X100.63 Y140.36 E621.573 F3600
G1 X104.09 Y136.9 E621.817
G1 X107.55 Y133.43 E622.062
G1 X111.01 Y129.97 E622.306
G1 X114.47 Y126.51 E622.55
G1 X113.91 Y126.51 F9000
G1 X110.45 Y129.97 E622.794 F3600
G1 X106.99 Y133.43 E623.038
G1 X103.52 Y136.9 E623.283
G1 X100.06 Y140.36 E623.527
G1 X96.6 Y143.82 E623.771
G1 X96.03 F9000
G1 X99.49 Y140.36 E624.015 F3600
G1 X102.95 Y136.9 E624.26
G1 X106.42 Y133.43 E624.504
G1 X109.88 Y129.97 E624.749
G1 X113.34 Y126.51 E624.993
G1 X112.78 F9000
G1 X109.32 Y129.97 E625.237 F3600
G1 X105.86 Y133.43 E625.481
G1 X102.39 Y136.9 E625.726
G1 X98.93 Y140.36 E625.97
G1 X95.47 Y143.82 E626.214
G1 X94.9 F9000
G1 X97.82 Y140.9 E626.42 F3600
G1 X100.74 Y137.98 E626.626
G1 X100.18 F9000
G1 X97.26 Y140.9 E626.832 F3600
G1 X94.34 Y143.82 E627.038
G1 X93.77 F9000
G1 X96.69 Y140.9 E627.244 F3600
G1 X99.61 Y137.98 E627.45
G1 X99.05 F9000
G1 X96.13 Y140.9 E627.656 F3600
G1 X93.21 Y143.82 E627.862
G1 X92.64 F9000
G1 X95.56 Y140.9 E628.068 F3600
G1 X98.48 Y137.98 E628.274
G1 X98.02 Y137.87 F9000
G1 X95.05 Y140.85 E628.484 F3600
G1 X92.07 Y143.82 E628.693
G1 X91.51 F9000
G1 X94.77 Y140.57 E628.923 F3600
G1 X98.02 Y137.31 E629.153
G1 Y136.74 F9000
G1 X95.66 Y139.1 E629.319 F3600
G1 X93.3 Y141.46 E629.486
G1 X90.94 Y143.82 E629.652
G1 X90.38 F9000
G1 X92.93 Y141.27 E629.832 F3600
G1 X95.47 Y138.73 E630.011
G1 X98.02 Y136.18 E630.191
G1 Y135.61 F9000
G1 X95.28 Y138.35 E630.384 F3600
G1 X92.55 Y141.08 E630.577
G1 X89.81 Y143.82 E630.77
G1 X89.25 F9000
G1 X92.17 Y140.89 E630.976 F3600
G1 X95.1 Y137.97 E631.183
G1 X98.02 Y135.04 E631.389
G1 Y134.48 F9000
G1 X94.91 Y137.59 E631.608 F3600
G1 X91.79 Y140.71 E631.828
G1 X88.68 Y143.82 E632.047
G1 X88.11 F9000
G1 X91.41 Y140.52 E632.28 F3600
G1 X94.72 Y137.21 E632.513
G1 X98.02 Y133.91 E632.746
G1 X98.15 Y133.78 F9000
G1 X100.58 Y131.35 E632.917 F3600
G1 X103.01 Y128.93 E633.089
G1 X105.44 Y126.5 E633.26
G1 X105.23 Y126.13 F9000
G1 X102.28 Y129.08 E633.468 F3600
G1 X99.34 Y132.03 E633.676
G1 X96.39 Y134.98 E633.884
G1 X93.44 Y137.92 E634.091
G1 X90.5 Y140.87 E634.299
G1 X87.55 Y143.82 E634.507
G1 X86.98 F9000
G1 X89.99 Y140.81 E634.719 F3600
G1 X93 Y137.8 E634.931
G1 X96.01 Y134.8 E635.144
G1 X99.01 Y131.79 E635.356
G1 X102.02 Y128.78 E635.568
G1 X105.03 Y125.77 E635.78
G1 X104.82 Y125.41 F9000
G1 X101.75 Y128.48 E635.997 F3600
G1 X98.69 Y131.55 E636.213
G1 X95.62 Y134.62 E636.43
G1 X92.55 Y137.68 E636.646
G1 X89.49 Y140.75 E636.863
G1 X86.42 Y143.82 E637.079
G1 X86.34 Y143.33 F9000
G1 X89.39 Y140.28 E637.294 F3600
G1 X92.43 Y137.24 E637.509
G1 X95.48 Y134.19 E637.724
G1 X98.53 Y131.14 E637.939
G1 X101.57 Y128.1 E638.154
G1 X104.62 Y125.05 E638.369
G1 X104.41 Y124.69 F9000
G1 X101.4 Y127.7 E638.582 F3600
G1 X98.39 Y130.72 E638.794
G1 X95.38 Y133.73 E639.007
G1 X92.36 Y136.74 E639.219
G1 X89.35 Y139.76 E639.432
G1 X86.34 Y142.77 E639.644
G1 Y142.2 F9000
G1 X89.32 Y139.22 E639.854 F3600
G1 X92.3 Y136.24 E640.064
G1 X95.28 Y133.27 E640.275
G1 X98.25 Y130.29 E640.485
G1 X101.23 Y127.31 E640.695
G1 X104.21 Y124.33 E640.905
G1 X104 Y123.97 F9000
G1 X100.47 Y127.5 E641.154 F3600
G1 X96.94 Y131.04 E641.404
G1 X93.4 Y134.57 E641.653
G1 X89.87 Y138.11 E641.903
G1 X86.34 Y141.64 E642.152
G1 Y141.07 F9000
G1 X89.43 Y137.98 E642.37 F3600
G1 X88.86 F9000
G1 X86.34 Y140.5 E642.549 F3600
G1 Y139.94 F9000
G1 X88.3 Y137.98 E642.687 F3600
G1 X87.73 F9000
G1 X86.34 Y139.37 E642.785 F3600
G1 Y138.81 F9000
G1 X87.17 Y137.98 E642.844 F3600
G1 X86.6 F9000
G1 X86.34 Y138.24 E642.863 F3600
G1 X89.88 Y137.52 F9000
G1 X93.36 Y134.04 E643.109 F3600
G1 X96.84 Y130.57 E643.354
G1 X100.32 Y127.09 E643.6
G1 X103.8 Y123.61 E643.845
G1 X103.59 Y123.25 F9000
G1 X100.16 Y126.68 E644.087 F3600
G1 X96.74 Y130.11 E644.329
G1 X93.31 Y133.53 E644.57
G1 X89.88 Y136.96 E644.812
G1 Y136.39 F9000
G1 X93.26 Y133.01 E645.05 F3600
G1 X96.64 Y129.64 E645.289
G1 X100.01 Y126.26 E645.527
G1 X103.39 Y122.88 E645.765
G1 X103.19 Y122.52 F9000
