; generated by Slic3r 1.3.0 on 2020-06-30 at 10:42:55

; external perimeters extrusion width = 0.44mm (3.38mm^3/s)
; perimeters extrusion width = 0.48mm (7.54mm^3/s)
; infill extrusion width = 0.48mm (10.05mm^3/s)
; solid infill extrusion width = 0.48mm (2.51mm^3/s)
; top infill extrusion width = 0.48mm (1.88mm^3/s)

M107
M190 S35 ; set bed temperature and wait for it to be reached
M109 S210 ; set temperature and wait for it to be reached
G28 ; home all axes
G1 Z5 F5000 ; lift nozzle

; Filament gcode

M109 S210 ; set temperature and wait for it to be reached
G21 ; set units to millimeters
G90 ; use absolute coordinates
M82 ; use absolute distances for extrusion
G92 E0
G1 Z0.350 F7800.000
G1 E-2.00000 F2400.00000
G92 E0
G1 X4.485 Y29.763 F7800.000
G1 E2.00000 F2400.00000
G1 F1800
G1 X33.463 Y5.581 E3.16779
G1 X35.262 Y4.130 E3.23929
G1 X37.233 Y2.647 E3.31562
G1 X39.294 Y1.210 E3.39336
G1 X41.358 Y-0.120 E3.46933
G1 X43.474 Y-1.006 E3.54030
G1 X45.764 Y-1.117 E3.61126
G1 X47.201 Y-0.769 E3.65700
G1 X221.409 Y62.637 E9.39314
G1 X223.396 Y63.783 E9.46411
G1 X224.873 Y65.537 E9.53507
G1 X225.570 Y67.254 E9.59240
G1 X239.530 Y123.031 E11.37145
G1 X239.729 Y124.639 E11.42160
G1 X239.729 Y155.032 E12.36199
G1 X239.332 Y157.291 E12.43295
G1 X238.188 Y159.279 E12.50392
G1 X236.435 Y160.758 E12.57488
G1 X234.838 Y161.426 E12.62846
G1 X143.877 Y186.092 E15.54455
G1 X142.143 Y186.323 E15.59867
G1 X98.839 Y186.323 E16.93856
G1 X97.105 Y186.092 E16.99268
G1 X6.144 Y161.426 E19.90877
G1 X4.068 Y160.452 E19.97973
G1 X2.449 Y158.828 E20.05069
G1 X1.480 Y156.749 E20.12165
G1 X1.253 Y155.032 E20.17524
G1 X1.253 Y124.639 E21.11564
G1 X2.106 Y34.786 E23.89593
G1 X2.524 Y32.531 E23.96689
G1 X4.451 Y29.812 E24.07002
G1 E22.07002 F2400.00000
G92 E0
G1 X103.903 Y108.546 F7800.000
G1 E2.00000 F2400.00000
G1 F1800
G1 X137.401 Y108.546 E3.03648
G1 X120.520 Y137.320 E4.06868
G1 X103.933 Y108.598 E5.09492
G1 X104.986 Y109.171 F7800.000
G1 F1800
G1 X136.310 Y109.171 E6.06415
G1 X120.524 Y136.078 E7.02937
G1 X105.016 Y109.223 E7.98890
G1 X106.068 Y109.796 F7800.000
G1 F1800
G1 X135.219 Y109.796 E8.89087
G1 X120.529 Y134.836 E9.78912
G1 X106.098 Y109.848 E10.68194
G1 X105.868 Y109.450 F7800.000
G1 E8.68194 F2400.00000
G92 E0
G1 X70.199 Y126.239 F7800.000
G1 E2.00000 F2400.00000
G1 F1800
G1 X59.672 Y126.239 E2.32571
G1 X59.672 Y113.688 E2.71406
G1 X62.074 Y113.009 E2.79130
G1 X70.167 Y126.188 E3.26982
G1 X69.082 Y125.614 F7800.000
G1 F1800
G1 X60.297 Y125.614 E3.54164
G1 X60.297 Y114.161 E3.89602
G1 X61.789 Y113.739 E3.94401
G1 X69.050 Y125.563 E4.37333
G1 X67.965 Y124.989 F7800.000
G1 F1800
G1 X60.922 Y124.989 E4.59125
G1 X60.922 Y114.634 E4.91167
G1 X61.504 Y114.469 E4.93040
G1 X67.933 Y124.938 E5.31053
G1 X68.044 Y125.381 F7800.000
G1 E3.31053 F2400.00000
G92 E0
G1 X170.783 Y126.239 F7800.000
G1 E2.00000 F2400.00000
G1 F1800
G1 X178.908 Y113.009 E2.48038
G1 X181.310 Y113.688 E2.55762
G1 X181.310 Y126.239 E2.94596
G1 X170.843 Y126.239 E3.26982
G1 X171.900 Y125.614 F7800.000
G1 F1800
G1 X179.193 Y113.739 E3.70101
G1 X180.685 Y114.161 E3.74899
G1 X180.685 Y125.614 E4.10337
G1 X171.960 Y125.614 E4.37333
G1 X173.017 Y124.989 F7800.000
G1 F1800
G1 X179.478 Y114.469 E4.75532
G1 X180.060 Y114.634 E4.77405
G1 X180.060 Y124.989 E5.09447
G1 X173.077 Y124.989 E5.31053
G1 X172.618 Y124.972 F7800.000
G1 E3.31053 F2400.00000
G92 E0
G1 X165.460 Y141.184 F7800.000
G1 E2.00000 F2400.00000
G1 F1800
G1 X163.020 Y140.530 E2.07816
G1 X141.222 Y178.099 E3.42207
G1 X99.760 Y178.099 E4.70495
G1 X77.962 Y140.530 E6.04886
G1 X75.522 Y141.184 E6.12702
G1 X75.497 Y153.432 E6.50599
G1 X9.478 Y153.432 E8.54870
G1 X9.478 Y126.239 E9.39009
G1 X23.439 Y126.239 E9.82205
G1 X23.439 Y63.540 E11.76206
G1 X10.330 Y63.540 E12.16766
G1 X10.330 Y36.449 E13.00588
G1 X24.525 Y36.449 E13.44510
G1 X24.484 Y34.187 E13.51512
G1 X24.531 Y33.688 E13.53062
G1 X24.724 Y32.630 E13.56387
G1 X24.947 Y31.591 E13.59677
G1 X25.228 Y30.582 E13.62917
G1 X25.571 Y29.570 E13.66225
G1 X25.976 Y28.545 E13.69634
G1 X26.441 Y27.500 E13.73173
G1 X26.964 Y26.427 E13.76867
G1 X27.545 Y25.320 E13.80735
G1 X28.172 Y24.185 E13.84746
G1 X29.139 Y22.575 E13.90558
G1 X30.173 Y21.032 E13.96304
G1 X31.268 Y19.551 E14.02004
G1 X32.410 Y18.136 E14.07629
G1 X33.583 Y16.794 E14.13145
G1 X34.774 Y15.531 E14.18516
G1 X35.966 Y14.353 E14.23703
G1 X37.145 Y13.264 E14.28668
G1 X38.732 Y11.896 E14.35150
G1 X40.399 Y10.553 E14.41774
G1 X42.144 Y9.245 E14.48522
G1 X43.964 Y7.980 E14.55380
G1 X45.133 Y7.230 E14.59676
G1 X92.209 Y24.365 E16.14686
G1 X92.191 Y24.645 E16.15555
G1 X90.106 Y25.112 E16.22167
G1 X85.707 Y26.162 E16.36161
G1 X83.893 Y26.531 E16.41890
G1 X82.266 Y26.908 E16.47055
G1 X80.739 Y27.310 E16.51943
G1 X79.307 Y27.740 E16.56567
G1 X78.196 Y28.114 E16.60196
G1 X77.094 Y28.525 E16.63835
G1 X75.998 Y28.971 E16.67495
G1 X74.909 Y29.452 E16.71180
G1 X73.826 Y29.968 E16.74892
G1 X72.748 Y30.518 E16.78635
G1 X71.676 Y31.102 E16.82412
G1 X70.599 Y31.726 E16.86263
G1 X69.149 Y32.645 E16.91575
G1 X67.015 Y34.155 E16.99666
G1 X67.762 Y36.449 E17.07130
G1 X97.239 Y36.449 E17.98336
G1 X97.239 Y63.540 E18.82158
G1 X78.086 Y63.540 E19.41422
G1 X88.033 Y81.089 E20.03839
G1 X152.850 Y81.089 E22.04390
G1 X163.360 Y63.540 E22.67685
G1 X143.743 Y63.540 E23.28383
G1 X143.743 Y43.121 E23.91560
G1 X217.543 Y69.983 E26.34563
G1 X217.543 Y126.239 E28.08628
G1 X231.504 Y126.239 E28.51824
G1 X231.504 Y153.432 E29.35964
G1 X165.485 Y153.432 E31.40234
G1 X165.460 Y141.244 E31.77946
G1 X164.836 Y141.664 F7800.000
G1 F1800
G1 X163.320 Y141.258 E31.82801
G1 X141.582 Y178.724 E33.16826
G1 X99.400 Y178.724 E34.47340
G1 X77.662 Y141.258 E35.81364
G1 X76.146 Y141.664 E35.86220
G1 X76.120 Y154.057 E36.24566
G1 X8.853 Y154.057 E38.32700
G1 X8.853 Y125.614 E39.20706
G1 X22.814 Y125.614 E39.63902
G1 X22.814 Y64.164 E41.54036
G1 X9.705 Y64.164 E41.94596
G1 X9.705 Y35.824 E42.82285
G1 X23.889 Y35.824 E43.26171
G1 X23.858 Y34.163 E43.31313
G1 X23.912 Y33.602 E43.33055
G1 X24.111 Y32.509 E43.36493
G1 X24.340 Y31.441 E43.39872
G1 X24.631 Y30.398 E43.43223
G1 X24.984 Y29.354 E43.46632
G1 X25.400 Y28.303 E43.50130
G1 X25.874 Y27.236 E43.53745
G1 X26.407 Y26.145 E43.57500
G1 X26.995 Y25.024 E43.61417
G1 X27.631 Y23.873 E43.65485
G1 X28.611 Y22.240 E43.71379
G1 X29.662 Y20.672 E43.77218
G1 X30.773 Y19.169 E43.83004
G1 X31.931 Y17.734 E43.88708
G1 X33.121 Y16.374 E43.94298
G1 X34.327 Y15.094 E43.99739
G1 X35.535 Y13.901 E44.04994
G1 X36.729 Y12.798 E44.10024
G1 X38.332 Y11.416 E44.16572
G1 X40.016 Y10.060 E44.23261
G1 X41.778 Y8.739 E44.30077
G1 X43.617 Y7.460 E44.37007
G1 X45.056 Y6.537 E44.42295
G1 X94.524 Y24.542 E46.05181
G1 X94.498 Y24.829 E46.06073
G1 X92.223 Y25.278 E46.13249
G1 X90.247 Y25.721 E46.19515
G1 X85.842 Y26.772 E46.33528
G1 X84.025 Y27.141 E46.39263
G1 X82.417 Y27.514 E46.44372
G1 X80.908 Y27.912 E46.49199
G1 X79.497 Y28.335 E46.53758
G1 X78.405 Y28.703 E46.57324
G1 X77.321 Y29.107 E46.60904
G1 X76.242 Y29.546 E46.64507
G1 X75.169 Y30.020 E46.68135
G1 X74.102 Y30.528 E46.71793
G1 X73.040 Y31.071 E46.75483
G1 X71.983 Y31.647 E46.79209
G1 X70.923 Y32.260 E46.82997
G1 X69.497 Y33.164 E46.88221
G1 X67.752 Y34.399 E46.94838
G1 X68.216 Y35.824 E46.99474
G1 X97.864 Y35.824 E47.91210
G1 X97.864 Y64.164 E48.78899
G1 X79.158 Y64.164 E49.36778
G1 X88.397 Y80.464 E49.94750
G1 X152.496 Y80.464 E51.93079
G1 X162.257 Y64.164 E52.51866
G1 X143.118 Y64.164 E53.11086
G1 X143.118 Y42.229 E53.78957
G1 X218.168 Y69.545 E56.26076
G1 X218.168 Y125.614 E57.99561
G1 X232.129 Y125.614 E58.42757
G1 X232.129 Y154.057 E59.30764
G1 X164.862 Y154.057 E61.38897
G1 X164.836 Y141.724 E61.77058
G1 X164.212 Y142.144 F7800.000
G1 F1800
G1 X163.620 Y141.985 E61.78953
G1 X141.941 Y179.349 E63.12610
G1 X99.041 Y179.349 E64.45352
G1 X77.362 Y141.985 E65.79009
G1 X76.770 Y142.144 E65.80904
G1 X76.744 Y154.682 E66.19699
G1 X8.228 Y154.682 E68.31696
G1 X8.228 Y124.989 E69.23569
G1 X22.189 Y124.989 E69.66765
G1 X22.189 Y64.789 E71.53032
G1 X9.080 Y64.789 E71.93593
G1 X9.080 Y35.199 E72.85148
G1 X23.252 Y35.199 E73.28999
G1 X23.233 Y34.138 E73.32281
G1 X23.292 Y33.516 E73.34215
G1 X23.498 Y32.387 E73.37766
G1 X23.733 Y31.292 E73.41233
G1 X24.033 Y30.214 E73.44696
G1 X24.397 Y29.139 E73.48206
G1 X24.823 Y28.061 E73.51792
G1 X25.308 Y26.971 E73.55483
G1 X25.849 Y25.863 E73.59300
G1 X26.444 Y24.727 E73.63266
G1 X27.089 Y23.561 E73.67390
G1 X28.083 Y21.905 E73.73366
G1 X29.151 Y20.313 E73.79298
G1 X30.279 Y18.786 E73.85170
G1 X31.453 Y17.332 E73.90954
G1 X32.658 Y15.954 E73.96618
G1 X33.880 Y14.658 E74.02129
G1 X35.103 Y13.449 E74.07451
G1 X36.313 Y12.332 E74.12547
G1 X37.932 Y10.936 E74.19160
G1 X39.632 Y9.567 E74.25915
G1 X41.412 Y8.232 E74.32799
G1 X43.270 Y6.940 E74.39799
G1 X44.979 Y5.844 E74.46081
G1 X96.973 Y24.769 E76.17283
G1 X96.943 Y25.059 E76.18186
G1 X94.300 Y25.498 E76.26478
G1 X92.353 Y25.890 E76.32622
G1 X90.388 Y26.329 E76.38854
G1 X85.977 Y27.383 E76.52886
G1 X84.158 Y27.752 E76.58627
G1 X82.567 Y28.121 E76.63681
G1 X81.078 Y28.513 E76.68446
G1 X79.687 Y28.931 E76.72940
G1 X78.614 Y29.292 E76.76443
G1 X77.547 Y29.689 E76.79964
G1 X76.486 Y30.121 E76.83509
G1 X75.430 Y30.588 E76.87081
G1 X74.379 Y31.088 E76.90684
G1 X73.332 Y31.623 E76.94322
G1 X72.289 Y32.192 E76.97997
G1 X71.247 Y32.795 E77.01722
G1 X69.845 Y33.683 E77.06858
G1 X68.488 Y34.644 E77.12001
G1 X68.669 Y35.199 E77.13809
G1 X98.489 Y35.199 E78.06075
G1 X98.489 Y64.789 E78.97631
G1 X80.231 Y64.789 E79.54125
G1 X88.761 Y79.839 E80.07651
G1 X152.141 Y79.839 E82.03759
G1 X161.155 Y64.789 E82.58038
G1 X142.493 Y64.789 E83.15780
G1 X142.493 Y41.337 E83.88346
G1 X218.793 Y69.107 E86.39580
G1 X218.793 Y124.989 E88.12486
G1 X232.754 Y124.989 E88.55681
G1 X232.754 Y154.682 E89.47555
G1 X164.238 Y154.682 E91.59551
G1 X164.212 Y142.204 E91.98161
G1 X164.098 Y141.760 F7800.000
G1 E89.98161 F2400.00000
G92 E0
G1 X97.264 Y25.364 F7800.000
G1 E2.00000 F2400.00000
G1 F1800
G1 X97.881 Y24.726 E2.00612
G1 E0.00612 F2400.00000
G92 E0
G1 X90.158 Y24.804 F7800.000
G1 E2.00000 F2400.00000
G1 F1800
G1 X90.158 Y23.939 E2.02677
G1 X89.532 Y23.712 E2.04738
G1 X89.532 Y24.950 E2.08573
G1 X88.907 Y25.099 E2.10564
G1 X88.907 Y23.484 E2.15566
G1 X88.282 Y23.256 E2.17627
G1 X88.282 Y25.249 E2.23797
G1 X87.656 Y25.398 E2.25788
G1 X87.656 Y23.029 E2.33126
G1 X87.031 Y22.801 E2.35187
G1 X87.031 Y25.547 E2.43691
G1 X86.405 Y25.697 E2.45683
G1 X86.405 Y22.573 E2.55355
G1 X85.780 Y22.346 E2.57416
G1 X85.780 Y25.846 E2.68255
G1 X85.154 Y25.980 E2.70236
G1 X85.154 Y22.118 E2.82197
G1 X84.529 Y21.891 E2.84258
G1 X84.529 Y26.107 E2.97316
G1 X83.904 Y26.234 E2.99293
G1 X83.904 Y21.663 E3.13449
G1 X83.278 Y21.435 E3.15511
G1 X83.278 Y26.375 E3.30809
G1 X82.653 Y26.520 E3.32797
G1 X82.653 Y21.208 E3.49249
G1 X82.027 Y20.980 E3.51310
G1 X82.027 Y26.668 E3.68925
G1 X81.402 Y26.833 E3.70928
G1 X81.402 Y20.752 E3.89758
G1 X80.776 Y20.525 E3.91819
G1 X80.776 Y26.998 E4.11866
G1 X80.151 Y27.178 E4.13881
G1 X80.151 Y20.297 E4.35190
G1 X79.526 Y20.069 E4.37251
G1 X79.526 Y27.366 E4.59845
G1 X78.900 Y27.561 E4.61875
G1 X78.900 Y19.842 E4.85780
G1 X78.275 Y19.614 E4.87841
G1 X78.275 Y27.772 E5.13105
G1 X77.649 Y27.995 E5.15161
G1 X77.649 Y19.387 E5.41819
G1 X77.024 Y19.159 E5.43880
G1 X77.024 Y28.228 E5.71964
G1 X76.398 Y28.477 E5.74048
G1 X76.398 Y18.931 E6.03608
G1 X75.773 Y18.704 E6.05669
G1 X75.773 Y28.731 E6.36722
G1 X75.148 Y29.007 E6.38839
G1 X75.148 Y18.476 E6.71450
G1 X74.522 Y18.248 E6.73512
G1 X74.522 Y29.287 E7.07697
G1 X73.897 Y29.585 E7.09842
G1 X73.897 Y18.021 E7.45655
G1 X73.271 Y17.793 E7.47716
G1 X73.271 Y29.893 E7.85187
G1 X72.646 Y30.212 E7.87361
G1 X72.646 Y17.565 E8.26526
G1 X72.020 Y17.338 E8.28587
G1 X72.020 Y30.547 E8.69492
G1 X71.395 Y30.888 E8.71698
G1 X71.395 Y17.110 E9.14364
G1 X70.770 Y16.883 E9.16425
G1 X70.770 Y31.249 E9.60915
G1 X70.144 Y31.618 E9.63164
G1 X70.144 Y16.655 E10.09503
G1 X69.519 Y16.427 E10.11564
G1 X69.519 Y32.015 E10.59834
G1 X68.893 Y32.411 E10.62127
G1 X68.893 Y16.200 E11.12329
G1 X68.268 Y15.972 E11.14390
G1 X68.268 Y32.847 E11.66647
G1 X67.642 Y33.289 E11.69020
G1 X67.642 Y15.744 E12.23353
G1 X67.017 Y15.517 E12.25414
G1 X67.017 Y33.732 E12.81822
G1 X66.392 Y34.174 E12.84195
G1 X66.392 Y15.289 E13.42679
G1 X65.766 Y15.061 E13.44740
G1 X65.766 Y118.171 E16.64049
G1 X65.141 Y117.152 E16.67750
G1 X65.141 Y14.834 E19.84609
G1 X64.515 Y14.606 E19.86670
G1 X64.515 Y116.134 E23.01081
G1 X63.890 Y115.116 E23.04782
G1 X63.890 Y14.379 E26.16743
G1 X63.264 Y14.151 E26.18804
G1 X63.264 Y114.097 E29.28317
G1 X62.639 Y113.079 E29.32018
G1 X62.639 Y13.923 E32.39082
G1 X62.014 Y13.696 E32.41143
G1 X62.014 Y112.721 E35.47803
G1 X61.388 Y112.897 E35.49816
G1 X61.388 Y13.468 E38.57728
G1 X60.763 Y13.240 E38.59789
G1 X60.763 Y113.074 E41.68954
G1 X60.137 Y113.251 E41.70966
G1 X60.137 Y13.013 E44.81383
G1 X59.512 Y12.785 E44.83444
G1 X59.512 Y113.428 E47.95113
G1 X59.047 Y113.559 E47.96609
G1 X59.047 Y127.208 E48.38877
G1 X59.512 Y127.208 E48.40316
G1 X59.512 Y153.151 E49.20658
G1 X58.886 Y153.151 E49.22595
G1 X58.886 Y12.557 E53.57985
G1 X58.261 Y12.330 E53.60046
G1 X58.261 Y153.151 E57.96141
G1 X57.636 Y153.151 E57.98077
G1 X57.636 Y12.102 E62.34877
G1 X57.010 Y11.875 E62.36938
G1 X57.010 Y153.151 E66.74443
G1 X56.385 Y153.151 E66.76380
G1 X56.385 Y11.647 E71.14590
G1 X55.759 Y11.419 E71.16651
G1 X55.759 Y153.151 E75.55565
G1 X55.134 Y153.151 E75.57502
G1 X55.134 Y11.192 E79.97122
G1 X54.508 Y10.964 E79.99183
G1 X54.508 Y153.151 E84.39507
G1 X53.883 Y153.151 E84.41444
G1 X53.883 Y10.736 E88.82474
G1 X53.258 Y10.509 E88.84535
G1 X53.258 Y153.151 E93.26269
G1 X52.632 Y153.151 E93.28206
G1 X52.632 Y10.281 E97.70645
G1 X52.007 Y10.053 E97.72706
G1 X52.007 Y153.151 E102.15851
G1 X51.381 Y153.151 E102.17788
G1 X51.381 Y9.826 E106.61637
G1 X50.756 Y9.598 E106.63698
G1 X50.756 Y153.151 E111.08252
G1 X50.130 Y153.151 E111.10189
G1 X50.130 Y9.371 E115.55448
G1 X49.505 Y9.143 E115.57509
G1 X49.505 Y153.151 E120.03473
G1 X48.880 Y153.151 E120.05410
G1 X48.880 Y8.915 E124.52079
G1 X48.254 Y8.688 E124.54140
G1 X48.254 Y153.151 E129.01514
G1 X47.629 Y153.151 E129.03451
G1 X47.629 Y8.460 E133.51530
G1 X47.003 Y8.232 E133.53591
G1 X47.003 Y153.151 E138.02375
G1 X46.378 Y153.151 E138.04312
G1 X46.378 Y8.005 E142.53800
G1 X45.752 Y7.777 E142.55861
G1 X45.752 Y153.151 E147.06055
G1 X45.127 Y153.151 E147.07992
G1 X45.127 Y7.632 E151.58634
G1 X44.502 Y8.034 E151.60935
G1 X44.502 Y153.151 E156.10334
G1 X43.876 Y153.151 E156.12271
G1 X43.876 Y8.458 E160.60355
G1 X43.251 Y8.893 E160.62714
G1 X43.251 Y153.151 E165.09452
G1 X42.625 Y153.151 E165.11389
G1 X42.625 Y9.328 E169.56780
G1 X42.000 Y9.791 E169.59189
G1 X42.000 Y153.151 E174.03147
G1 X41.374 Y153.151 E174.05084
G1 X41.375 Y10.260 E178.47590
G1 X40.749 Y10.730 E178.50014
G1 X40.749 Y153.151 E182.91062
G1 X40.124 Y153.151 E182.92999
G1 X40.124 Y11.234 E187.32487
G1 X39.498 Y11.738 E187.34974
G1 X39.498 Y153.151 E191.72903
G1 X38.873 Y153.151 E191.74839
G1 X38.873 Y12.256 E196.11162
G1 X38.247 Y12.796 E196.13720
G1 X38.247 Y153.151 E200.48372
G1 X37.622 Y153.151 E200.50309
G1 X37.622 Y13.335 E204.83291
G1 X36.997 Y13.908 E204.85919
G1 X36.997 Y153.151 E209.17125
G1 X36.371 Y153.151 E209.19062
G1 X36.371 Y14.487 E213.48475
G1 X35.746 Y15.105 E213.51198
G1 X35.746 Y153.151 E217.78697
G1 X35.120 Y153.151 E217.80634
G1 X35.120 Y15.731 E222.06197
G1 X34.495 Y16.394 E222.09020
G1 X34.495 Y153.151 E226.32528
G1 X33.869 Y153.151 E226.34465
G1 X33.869 Y17.072 E230.55873
G1 X33.244 Y17.788 E230.58815
G1 X33.244 Y153.151 E234.78008
G1 X32.619 Y153.151 E234.79945
G1 X32.619 Y18.528 E238.96844
G1 X31.993 Y19.303 E238.99928
G1 X31.993 Y153.151 E243.14427
G1 X31.368 Y153.151 E243.16363
G1 X31.368 Y20.123 E247.28323
G1 X30.742 Y20.969 E247.31582
G1 X30.742 Y153.151 E251.40921
G1 X30.117 Y153.151 E251.42858
G1 X30.117 Y21.894 E255.49334
G1 X29.491 Y22.858 E255.52891
G1 X29.491 Y153.151 E259.56383
G1 X28.866 Y153.151 E259.58320
G1 X28.866 Y23.900 E263.58584
G1 X28.241 Y25.010 E263.62528
G1 X28.241 Y153.151 E267.59357
G1 X27.615 Y153.151 E267.61294
G1 X27.615 Y26.188 E271.54472
