; Generated with MatterSlice 2.19.7
; filamentDiameter = 1.75
; extrusionWidth = 0.4
; firstLayerExtrusionWidth = 0.4
; layerThickness = 0.3
; firstLayerThickness = 0.3
; automatic settings before start_gcode
G21 ; set units to millimeters
M107 ; fan off
M140 S66 ; start heating the bed
M104 T0 S230 ; start heating T0
M190 S66 ; wait for bed temperature to be reached
T0 ; set the active extruder to 0
; settings from start_gcode
G28 X0 Y0 Z0 ; home all axes
G1 Z5 F5000
M109 S230 ; set the extruder temp and wait
G28 X0 Y0 Z0 ; Home Z again in case there was filament on nozzle
G29 ; probe the bed
; automatic settings after start_gcode
T0 ; set the active extruder to 0
G90 ; use absolute coordinates
G92 E0 ; reset the expected extruder position
M82 ; use absolute distance for extrusion
; Layer count: 59
; Layer Change GCode
; LAYER:0
; LAYER_HEIGHT:0.3
; TYPE:FILL
M400
M106 S127
G1 X0 Y0 Z0.8 F9000
G1 X45.01 Y75.91
G1 X48.3 Y76.99
G1 X61.44 Y83.11
; TYPE:SKIRT
G1 Z-0.1
G1 F1800
G1 X62.56 Y82.33 E0.068 F1080
G1 X63.73 Y81.57 E0.138
G1 X64.95 Y80.85 E0.208
G1 X66.22 Y80.17 E0.28
G1 X67.54 Y79.54 E0.353
G1 X69.19 Y78.82 E0.443
G1 X70.84 Y78.18 E0.532
G1 X72.51 Y77.6 E0.62
G1 X74.18 Y77.08 E0.707
G1 X75.83 Y76.61 E0.793
G1 X77.48 Y76.18 E0.877
G1 X79.14 Y75.78 E0.963
G1 X81.97 Y75.16 E1.107
G1 X84.38 Y74.72 E1.23
G1 X86.79 Y74.31 E1.351
G1 X88.67 Y74.02 E1.446
G1 X90.48 Y73.81 E1.537
G1 X92.64 Y73.64 E1.646
G1 X94.58 Y73.55 E1.742
G1 X102.52 Y73.22 E2.138
G1 X105.1 Y73.15 E2.268
G1 X106.85 Y73.19 E2.355
G1 X117.57 Y73.64 E2.89
G1 X119.74 Y73.81 E2.999
G1 X120.97 Y73.94 E3.061
G1 X122.82 Y74.2 E3.154
G1 X125.83 Y74.71 E3.306
G1 X128.24 Y75.15 E3.428
G1 X131.09 Y75.77 E3.573
G1 X132.72 Y76.17 E3.657
G1 X134.36 Y76.59 E3.742
G1 X136.02 Y77.06 E3.828
G1 X137.68 Y77.58 E3.915
G1 X139.35 Y78.16 E4.003
G1 X141.02 Y78.8 E4.092
G1 X142.68 Y79.52 E4.182
G1 X143.99 Y80.15 E4.255
G1 X145.26 Y80.83 E4.327
G1 X146.48 Y81.55 E4.398
G1 X147.65 Y82.3 E4.467
G1 X148.78 Y83.08 E4.535
G1 X149.85 Y83.88 E4.602
G1 X150.84 Y84.68 E4.665
G1 X167.67 Y98.73 E5.759
G1 X168.13 Y147.05 E8.17
G1 Y166.95 E9.163
G1 X116.9 Y180.84 E11.812
G1 X93.35 E12.986
G1 X42.12 Y166.95 E15.635
G1 Y147.05 E16.628
G1 X42.58 Y98.73 E19.039
G1 X59.38 Y84.7 E20.13
G1 X60.37 Y83.91 E20.194
G1 X61.44 Y83.11 E20.26
G1 X61.67 Y83.43 F9000
G1 X62.78 Y82.66 E20.328 F1080
G1 X63.94 Y81.91 E20.397
G1 X65.15 Y81.2 E20.467
G1 X66.4 Y80.53 E20.537
G1 X67.7 Y79.9 E20.61
G1 X69.35 Y79.19 E20.699
G1 X70.98 Y78.56 E20.786
G1 X72.64 Y77.98 E20.874
G1 X74.29 Y77.46 E20.96
G1 X75.94 Y76.99 E21.046
G1 X77.57 Y76.57 E21.13
G1 X79.23 Y76.17 E21.215
G1 X82.05 Y75.55 E21.359
G1 X84.45 Y75.11 E21.481
G1 X86.85 Y74.7 E21.602
G1 X88.72 Y74.42 E21.697
G1 X90.52 Y74.21 E21.787
G1 X92.67 Y74.04 E21.895
G1 X94.6 Y73.95 E21.991
G1 X102.53 Y73.62 E22.387
G1 X105.1 Y73.55 E22.515
G1 X106.84 Y73.59 E22.602
G1 X117.54 Y74.04 E23.137
G1 X119.7 Y74.21 E23.245
G1 X120.92 Y74.34 E23.306
G1 X122.76 Y74.6 E23.398
G1 X125.76 Y75.11 E23.55
G1 X128.16 Y75.55 E23.672
G1 X131 Y76.16 E23.817
G1 X132.63 Y76.55 E23.9
G1 X134.26 Y76.98 E23.984
G1 X135.9 Y77.45 E24.07
G1 X137.56 Y77.96 E24.156
G1 X139.22 Y78.54 E24.244
G1 X140.87 Y79.17 E24.332
G1 X142.51 Y79.88 E24.422
G1 X143.81 Y80.51 E24.493
G1 X145.07 Y81.18 E24.564
G1 X146.27 Y81.89 E24.634
G1 X147.43 Y82.63 E24.703
G1 X148.55 Y83.4 E24.771
G1 X149.61 Y84.2 E24.837
G1 X150.59 Y84.99 E24.9
G1 X167.28 Y98.91 E25.984
G1 X167.73 Y147.05 E28.386
G1 Y166.65 E29.363
G1 X116.84 Y180.44 E31.994
G1 X93.41 E33.163
G1 X42.52 Y166.65 E35.794
G1 Y147.05 E36.771
G1 X42.98 Y98.91 E39.173
G1 X59.63 Y85.01 E40.255
G1 X60.61 Y84.23 E40.318
G1 X61.67 Y83.43 E40.384
G1 E37.384 F1800
G1 Z2200
G1 X65.29 Y88.26 F9000
G1 X63.15 Y90.37
G1 X55.75 Y101.66
; TYPE:WALL-OUTER
G1 Z0.3
G1 E40.384 F1800
G1 X55.74 Y101.1 E40.412 F1080
G1 X55.77 Y100.79 E40.428
G1 X55.99 Y99.67 E40.484
G1 X56.15 Y99.11 E40.514
G1 X56.33 Y98.57 E40.542
G1 X56.55 Y98.03 E40.571
G1 X56.79 Y97.47 E40.601
G1 X57.06 Y96.91 E40.632
G1 X57.69 Y95.75 E40.698
G1 X58.2 Y94.91 E40.747
G1 X58.73 Y94.11 E40.795
G1 X59.3 Y93.33 E40.843
G1 X59.9 Y92.59 E40.891
G1 X60.52 Y91.89 E40.937
G1 X61.13 Y91.23 E40.982
G1 X61.75 Y90.62 E41.026
G1 X62.37 Y90.05 E41.068
G1 X63.18 Y89.34 E41.121
G1 X64.05 Y88.65 E41.177
G1 X64.96 Y87.97 E41.233
G1 X65.89 Y87.31 E41.29
G1 X66.87 Y86.69 E41.348
G1 X67.9 Y86.08 E41.408
G1 X68.94 Y85.52 E41.467
G1 X70.03 Y84.99 E41.527
G1 X71.46 Y84.38 E41.605
G1 X72.91 Y83.82 E41.683
G1 X74.39 Y83.3 E41.761
G1 X75.9 Y82.83 E41.84
G1 X77.41 Y82.4 E41.918
G1 X78.94 Y82 E41.997
G1 X80.48 Y81.63 E42.076
G1 X83.15 Y81.05 E42.212
G1 X85.43 Y80.63 E42.328
G1 X86.52 Y80.46 E42.383
G1 X87.75 Y80.23 E42.445
G1 X89.46 Y79.97 E42.532
G1 X91.06 Y79.78 E42.612
G1 X93.01 Y79.63 E42.709
G1 X102.72 Y79.22 E43.195
G1 X105.11 Y79.16 E43.314
G1 X106.66 Y79.19 E43.391
G1 X117.21 Y79.63 E43.918
G1 X119.17 Y79.78 E44.016
G1 X120.23 Y79.9 E44.069
G1 X121.9 Y80.13 E44.153
G1 X123.7 Y80.45 E44.245
G1 X124.78 Y80.62 E44.299
G1 X127.07 Y81.04 E44.415
G1 X129.75 Y81.62 E44.552
G1 X131.26 Y81.98 E44.63
G1 X132.79 Y82.38 E44.708
G1 X134.3 Y82.81 E44.787
G1 X135.81 Y83.29 E44.866
G1 X137.29 Y83.8 E44.944
G1 X138.76 Y84.36 E45.022
G1 X140.19 Y84.98 E45.1
G1 X141.27 Y85.5 E45.16
G1 X142.32 Y86.06 E45.219
G1 X143.34 Y86.66 E45.278
G1 X144.32 Y87.29 E45.336
G1 X145.27 Y87.94 E45.394
G1 X146.17 Y88.62 E45.45
G1 X147.03 Y89.32 E45.505
G1 X147.86 Y90.03 E45.56
G1 X148.48 Y90.59 E45.602
G1 X149.1 Y91.21 E45.645
G1 X149.72 Y91.86 E45.69
G1 X150.33 Y92.56 E45.736
G1 X150.93 Y93.31 E45.784
G1 X151.5 Y94.07 E45.832
G1 X152.04 Y94.89 E45.881
G1 X152.54 Y95.72 E45.929
G1 X152.88 Y96.32 E45.963
G1 X153.45 Y97.46 E46.027
G1 X153.71 Y98.03 E46.058
G1 X153.92 Y98.57 E46.087
G1 X154.1 Y99.11 E46.116
G1 X154.26 Y99.67 E46.144
G1 X154.48 Y100.79 E46.202
G1 X154.51 Y101.1 E46.217
G1 X154.5 Y101.66 E46.245
G1 X161.7 E46.604
G1 Y116.65 E47.352
G1 X155.04 E47.684
G1 Y147.27 E49.212
G1 X162.13 E49.566
G1 Y162.31 E50.316
G1 X127.37 E52.051
G1 X127.36 Y155.87 E52.372
G1 X127.06 Y155.8 E52.387
G1 X116.01 Y174.84 E53.486
G1 X94.24 E54.572
G1 X83.19 Y155.8 E55.671
G1 X82.89 Y155.87 E55.686
G1 X82.88 Y162.31 E56.007
G1 X48.12 E57.742
G1 Y147.27 E58.492
G1 X55.21 E58.846
G1 Y116.65 E60.374
G1 X48.55 E60.706
G1 Y101.66 E61.454
G1 X55.71 E61.811
G1 X55.75
G1 X55.74 Y101.1
G1 X55.77 Y100.79
G1 X55.99 Y99.67
G1 X56.15 Y99.11
G1 X56.28 Y98.73
G1 X56.16 Y102.06 F9000
; TYPE:WALL-INNER
G1 X56.14 Y101.11 E61.858 F1080
G1 X56.17 Y100.85 E61.871
G1 X56.39 Y99.75 E61.927
G1 X56.53 Y99.23 E61.954
G1 X56.71 Y98.7 E61.982
G1 X56.92 Y98.18 E62.01
G1 X57.16 Y97.63 E62.04
G1 X57.42 Y97.09 E62.07
G1 X58.03 Y95.96 E62.134
G1 X58.54 Y95.11 E62.183
G1 X59.05 Y94.34 E62.23
G1 X59.62 Y93.57 E62.277
G1 X60.2 Y92.86 E62.323
G1 X60.82 Y92.15 E62.37
G1 X61.41 Y91.52 E62.413
G1 X62.04 Y90.9 E62.457
G1 X62.64 Y90.34 E62.498
G1 X63.44 Y89.66 E62.551
G1 X64.3 Y88.96 E62.606
G1 X65.2 Y88.29 E62.662
G1 X66.11 Y87.65 E62.717
G1 X67.07 Y87.03 E62.775
G1 X68.1 Y86.43 E62.834
G1 X69.12 Y85.88 E62.892
G1 X70.2 Y85.36 E62.952
G1 X71.62 Y84.75 E63.029
G1 X73.05 Y84.19 E63.105
G1 X74.53 Y83.68 E63.183
G1 X76.01 Y83.21 E63.261
G1 X77.52 Y82.78 E63.339
G1 X79.04 Y82.39 E63.418
G1 X80.58 Y82.01 E63.496
G1 X83.22 Y81.44 E63.632
G1 X85.49 Y81.02 E63.747
G1 X86.59 Y80.85 E63.802
G1 X87.82 Y80.63 E63.864
G1 X89.52 Y80.37 E63.95
G1 X91.1 Y80.18 E64.03
G1 X93.04 Y80.03 E64.127
G1 X102.73 Y79.62 E64.611
G1 X105.12 Y79.56 E64.73
G1 X106.65 Y79.59 E64.806
G1 X117.18 Y80.03 E65.332
G1 X119.15 Y80.18 E65.43
G1 X120.17 Y80.29 E65.482
G1 X121.83 Y80.53 E65.565
G1 X123.64 Y80.85 E65.657
G1 X124.73 Y81.02 E65.712
G1 X126.99 Y81.43 E65.827
G1 X129.66 Y82.01 E65.963
G1 X131.16 Y82.37 E66.04
G1 X132.69 Y82.77 E66.119
G1 X134.18 Y83.2 E66.196
G1 X135.69 Y83.67 E66.275
G1 X137.15 Y84.17 E66.352
G1 X138.61 Y84.74 E66.43
G1 X140.02 Y85.34 E66.507
G1 X141.09 Y85.86 E66.566
G1 X142.13 Y86.42 E66.625
G1 X143.14 Y87.01 E66.684
G1 X144.09 Y87.62 E66.74
G1 X145.04 Y88.28 E66.798
G1 X145.92 Y88.93 E66.852
G1 X146.79 Y89.63 E66.908
G1 X147.59 Y90.32 E66.96
G1 X148.21 Y90.89 E67.003
G1 X148.8 Y91.48 E67.044
G1 X149.41 Y92.13 E67.089
G1 X150.02 Y92.82 E67.135
G1 X150.6 Y93.54 E67.181
G1 X151.18 Y94.32 E67.229
G1 X151.71 Y95.11 E67.277
G1 X152.19 Y95.92 E67.324
G1 X152.53 Y96.52 E67.358
G1 X153.09 Y97.63 E67.42
G1 X153.34 Y98.18 E67.45
G1 X153.54 Y98.7 E67.478
G1 X153.72 Y99.23 E67.506
G1 X153.86 Y99.74 E67.532
G1 X154.09 Y100.85 E67.589
G1 X154.11 Y101.11 E67.602
G1 X154.09 Y102.06 E67.65
G1 X161.3 E68.009
G1 Y116.25 E68.717
G1 X154.64 E69.049
G1 Y147.67 E70.617
G1 X161.73 E70.971
G1 Y161.91 E71.681
G1 X127.77 E73.376
G1 X127.76 Y155.57 E73.692
G1 X126.87 Y155.33 E73.738
G1 X115.78 Y174.44 E74.841
G1 X94.47 E75.904
G1 X83.38 Y155.33 E77.006
G1 X82.49 Y155.57 E77.052
G1 X82.48 Y161.91 E77.369
G1 X48.52 E79.063
G1 Y147.67 E79.773
G1 X55.61 E80.127
G1 Y116.25 E81.695
G1 X48.95 E82.027
G1 Y102.06 E82.735
G1 X56.12 E83.093
G1 X56.16
G1 E80.093 F1800
G1 Z0.8
G1 X84.64 Y116.65 F9000
; TYPE:WALL-OUTER
G1 Z0.3
G1 E83.093 F1800
G1 X88.99 Y124.34 E83.534 F1080
G1 X121.22 E85.141
G1 X125.7 Y116.85 E85.577
G1 X125.59 Y116.65 E85.588
G1 X116.33 E86.05
G1 Y101.66 E86.798
G1 X131.53 E87.557
G1 X131.62 Y101.38 E87.571
G1 X130.55 Y100.64 E87.636
G1 X129.67 Y100.12 E87.687
G1 X128.61 Y99.55 E87.747
G1 X127.54 Y99.06 E87.806
G1 X126.41 Y98.62 E87.866
G1 X125.21 Y98.24 E87.929
G1 X124.46 Y98.04 E87.968
G1 X123.66 Y97.85 E88.009
G1 X122.81 Y97.67 E88.052
G1 X119.49 Y96.9 E88.222
G1 X118.5 Y96.7 E88.273
G1 X117.49 Y96.53 E88.324
G1 X116.37 Y96.37 E88.38
G1 X114.54 Y96.19 E88.472
G1 X112.75 Y96.07 E88.561
G1 X110.45 Y95.97 E88.676
G1 X108.12 Y95.91 E88.793
G1 X104.65 Y95.9 E88.966
G1 X102.17 Y95.91 E89.089
G1 X98.8 Y96.01 E89.257
G1 X96.52 Y96.13 E89.371
G1 X95.15 Y96.23 E89.44
G1 X93.4 Y96.43 E89.528
G1 X91.89 Y96.68 E89.604
G1 X90.89 Y96.87 E89.655
G1 X89.9 Y97.1 E89.706
G1 X87.69 Y97.62 E89.819
G1 X85.92 Y98.01 E89.909
G1 X85.16 Y98.2 E89.948
G1 X84.39 Y98.43 E89.989
G1 X83.35 Y98.8 E90.044
G1 X82.27 Y99.26 E90.102
G1 X81.2 Y99.78 E90.161
G1 X80.14 Y100.37 E90.222
G1 X79.41 Y100.83 E90.265
G1 X78.65 Y101.37 E90.312
G1 X78.74 Y101.65 E90.326
G1 X93.93 Y101.66 E91.084
G1 Y116.65 E91.832
G1 X84.67 E92.293
G1 X84.64
G1 X86.11 Y119.26
G1 X83.95 Y116.25 F9000
; TYPE:WALL-INNER
G1 X88.76 Y124.74 E92.78 F1080
G1 X121.44 E94.411
G1 X126.16 Y116.86 E94.869
G1 X125.82 Y116.25 E94.904
G1 X116.73 E95.358
G1 Y102.06 E96.066
G1 X131.82 E96.819
G1 X132.09 Y101.22 E96.863
G1 X130.77 Y100.31 E96.943
G1 X129.86 Y99.77 E96.995
G1 X128.78 Y99.2 E97.056
G1 X127.69 Y98.69 E97.116
G1 X126.54 Y98.24 E97.178
G1 X125.33 Y97.86 E97.242
G1 X124.56 Y97.65 E97.281
G1 X123.74 Y97.46 E97.323
G1 X122.88 Y97.28 E97.367
G1 X119.58 Y96.51 E97.536
G1 X118.58 Y96.31 E97.587
G1 X117.55 Y96.13 E97.639
G1 X116.42 Y95.97 E97.696
G1 X114.57 Y95.79 E97.789
G1 X112.78 Y95.67 E97.878
G1 X110.46 Y95.57 E97.994
G1 X108.12 Y95.51 E98.111
G1 X104.65 Y95.5 E98.284
G1 X102.16 Y95.51 E98.408
G1 X98.79 Y95.61 E98.576
G1 X96.5 Y95.73 E98.691
G1 X95.12 Y95.83 E98.76
G1 X93.35 Y96.03 E98.849
G1 X91.81 Y96.28 E98.926
G1 X90.81 Y96.48 E98.977
G1 X89.81 Y96.71 E99.029
G1 X87.61 Y97.23 E99.142
G1 X85.83 Y97.62 E99.232
G1 X85.05 Y97.82 E99.272
G1 X84.27 Y98.05 E99.313
G1 X83.2 Y98.43 E99.369
G1 X82.11 Y98.89 E99.429
G1 X81.02 Y99.42 E99.489
G1 X79.94 Y100.03 E99.551
G1 X79.19 Y100.5 E99.595
G1 X78.18 Y101.22 E99.657
G1 X78.44 Y102.05 E99.701
G1 X93.53 Y102.06 E100.453
G1 Y116.25 E101.161
G1 X83.99 E101.637
G1 X83.95
G1 X91.36 Y113.92 F9000
; TYPE:WALL-OUTER
G1 Y113.48 E101.659 F1080
G1 X79.32 Y113.48 E102.259
G1 X79.21 Y113.68 E102.271
G1 X79.35 Y113.92 E102.285
G1 X91.32 E102.882
G1 X91.36 Y113.92
G1 Y113.48
G1 X88.8
G1 X91.76 Y114.32 F9000
; TYPE:WALL-INNER
G1 Y113.08 E102.944 F1080
G1 X79.09 Y113.08 E103.576
G1 X78.74 Y113.69 E103.611
G1 X79.12 Y114.32 E103.647
G1 X91.72 E104.276
G1 X91.76 Y114.32
G1 E101.276 F1800
G1 Z0.8
G1 X87.24 Y115.85 F9000
G1 X85.54 Y115.89
G1 X84.08 Y116.85
G1 X88.66 Y124.59
G1 X90 Y125.7
G1 X97.72 Y139.26
G1 X97.27 Y139.78
G1 X104.55 Y152.08
G1 X105.15 Y152.3
; TYPE:WALL-OUTER
G1 Z0.3
G1 E104.276 F1800
G1 X112.53 Y139.71 E105.004 F1080
G1 X112.41 Y139.51 E105.016
G1 X97.99 E105.735
G1 X97.88 Y139.71 E105.747
G1 X105.13 Y152.26 E106.47
G1 X105.15 Y152.3
G1 X106.66 Y149.71
G1 X105.14 Y153.09 F9000
; TYPE:WALL-INNER
G1 X112.99 Y139.72 E107.244 F1080
G1 X112.65 Y139.11 E107.278
G1 X97.76 E108.021
G1 X97.41 Y139.71 E108.055
G1 X105.12 Y153.06 E108.824
G1 X105.14 Y153.09
G1 E105.824 F1800
G1 Z0.8
G1 X133.63 Y147.92 F9000
G1 X134.82 Y147.84
G1 X135.41 Y147.27
; TYPE:WALL-OUTER
G1 Z0.3
G1 E108.824 F1800
G1 Y141.9 E109.092 F1080
G1 X135.12 Y141.82 E109.107
G1 X131.9 Y147.07 E109.415
G1 X132.01 Y147.27 E109.426
G1 X135.37 E109.594
G1 X135.41
G1 Y144.27
G1 X135.81 Y147.67 F9000
; TYPE:WALL-INNER
G1 Y141.6 E109.897 F1080
G1 X134.94 Y141.35 E109.942
G1 X131.43 Y147.06 E110.276
G1 X131.78 Y147.67 E110.311
G1 X135.77 E110.511
G1 X135.81
G1 E107.511 F1800
G1 Z0.8
G1 X136.03 Y142.68 F9000
G1 X133.91 Y138.7
G1 X125.84 Y117.56
G1 X126.22 Y116.85
G1 X124.37 Y115.76
G1 X122.18 Y115.38
G1 X118.89 Y113.92
; TYPE:WALL-OUTER
G1 Z0.3
G1 E110.511 F1800
G1 X131.26 E111.128 F1080
G1 X131.39 Y113.69 E111.141
G1 X131.27 Y113.49 E111.152
G1 X118.89 Y113.52 E111.77
G1 Y113.88 E111.788
G1 Y113.92
G1 X121.89
G1 X118.49 Y114.32 F9000
; TYPE:WALL-INNER
G1 X131.49 E112.436 F1080
G1 X131.85 Y113.7 E112.472
G1 X131.5 Y113.09 E112.507
G1 X118.49 Y113.12 E113.156
G1 X118.49 Y114.28 E113.214
G1 X118.49 Y114.32
G1 E110.214 F1800
G1 Z0.8
G1 X123.14 Y115.85 F9000
G1 X124.89 Y115.89
G1 X126.22 Y116.85
G1 X121.55 Y124.59
G1 X117.92 Y125.84
G1 X78.81 Y146.94
G1 X76.81 Y147.9
G1 X75.5 Y147.98
G1 X74.84 Y147.27
; TYPE:WALL-OUTER
G1 Z0.3
G1 E113.214 F1800
G1 X78.24 E113.383 F1080
G1 X78.36 Y147.07 E113.395
G1 X75.13 Y141.82 E113.702
G1 X74.84 Y141.9 E113.717
G1 Y147.24 E113.983
G1 Y147.27
G1 X77.84
G1 X74.44 Y147.67 F9000
; TYPE:WALL-INNER
G1 X78.48 E114.185 F1080
G1 X78.82 Y147.06 E114.22
G1 X75.32 Y141.35 E114.554
G1 X74.44 Y141.6 E114.599
G1 Y147.64 E114.9
G1 Y147.67
G1 X74.1 Y147.65 F9000
; TYPE:FILL
G1 X60.18 Y161.57 E115.883 F1080
G1 X60.74 F9000
G1 X74.3 Y148.01 E116.839 F1080
G1 X74.87 F9000
G1 X61.31 Y161.57 E117.796 F1080
G1 X61.87 F9000
G1 X75.43 Y148.01 E118.753 F1080
G1 X76 F9000
G1 X62.44 Y161.57 E119.71 F1080
G1 X63 F9000
G1 X76.56 Y148.01 E120.666 F1080
G1 X77.13 F9000
G1 X63.57 Y161.57 E121.623 F1080
G1 X64.14 F9000
G1 X77.69 Y148.01 E122.58 F1080
G1 X78.26 F9000
G1 X64.7 Y161.57 E123.536 F1080
G1 X65.27 F9000
G1 X101.76 Y125.08 E126.111 F1080
G1 X102.33 F9000
G1 X65.83 Y161.57 E128.686 F1080
G1 X66.4 F9000
G1 X102.89 Y125.08 E131.261 F1080
G1 X103.46 F9000
G1 X66.96 Y161.57 E133.836 F1080
G1 X67.53 F9000
G1 X104.03 Y125.08 E136.411 F1080
G1 X104.59 F9000
G1 X68.1 Y161.57 E138.986 F1080
G1 X68.66 F9000
G1 X105.16 Y125.08 E141.561 F1080
G1 X105.72 F9000
G1 X69.23 Y161.57 E144.136 F1080
G1 X69.79 F9000
G1 X106.29 Y125.08 E146.711 F1080
G1 X106.85 F9000
G1 X70.36 Y161.57 E149.286 F1080
G1 X70.92 F9000
G1 X107.42 Y125.08 E151.861 F1080
G1 X107.99 F9000
G1 X71.49 Y161.57 E154.436 F1080
G1 X72.05 F9000
G1 X108.55 Y125.08 E157.011 F1080
G1 X109.12 F9000
G1 X72.62 Y161.57 E159.586 F1080
G1 X73.19 F9000
G1 X109.68 Y125.08 E162.161 F1080
G1 X110.25 F9000
G1 X73.75 Y161.57 E164.736 F1080
G1 X74.32 F9000
G1 X110.81 Y125.08 E167.311 F1080
G1 X111.38 F9000
G1 X97.69 Y138.77 E168.277 F1080
G1 X97.4 Y139.06 F9000
G1 X74.88 Y161.57 E169.866 F1080
G1 X75.45 F9000
G1 X97.13 Y139.89 E171.395 F1080
G1 X97.33 Y140.25 F9000
G1 X82.33 Y155.26 E172.454 F1080
G1 X82.16 Y155.43 F9000
G1 X76.01 Y161.57 E172.887 F1080
G1 X76.58 F9000
G1 X82.15 Y156 E173.281 F1080
G1 X82.15 Y156.57 F9000
G1 X77.15 Y161.57 E173.634 F1080
G1 X77.71 F9000
G1 X82.15 Y157.13 E173.947 F1080
G1 X82.15 Y157.7 F9000
G1 X78.28 Y161.57 E174.22 F1080
G1 X78.84 F9000
G1 X82.15 Y158.27 E174.454 F1080
G1 Y158.83 F9000
G1 X79.41 Y161.57 E174.647 F1080
G1 X79.97 F9000
G1 X82.15 Y159.4 E174.8 F1080
G1 Y159.97 F9000
G1 X80.54 Y161.57 E174.914 F1080
G1 X81.11 F9000
G1 X82.14 Y160.53 E174.987 F1080
G1 X82.14 Y161.1 F9000
G1 X81.67 Y161.57 E175.02 F1080
G1 X82.18 Y157.26 F9000
G1 X82.04 Y156.65
G1 X83.09 Y155.43
G1 X85.92 Y159.02
G1 X100.03 Y144.92 E176.016 F1080
G1 X100.23 Y145.27 F9000
G1 X86.12 Y159.38 E177.011 F1080
G1 X86.33 Y159.74 F9000
G1 X100.44 Y145.63 E178.006 F1080
G1 X100.65 Y145.99 F9000
G1 X86.54 Y160.1 E179.002 F1080
G1 X86.75 Y160.46 F9000
G1 X100.85 Y146.35 E179.997 F1080
G1 X101.06 Y146.71 F9000
G1 X86.96 Y160.81 E180.992 F1080
G1 X87.16 Y161.17 F9000
G1 X101.27 Y147.07 E181.988 F1080
G1 X101.48 Y147.43 F9000
G1 X87.37 Y161.53 E182.983 F1080
G1 X87.58 Y161.89 F9000
G1 X101.68 Y147.78 E183.978 F1080
G1 X101.89 Y148.14 F9000
G1 X87.79 Y162.25 E184.973 F1080
G1 X87.99 Y162.6 F9000
G1 X102.1 Y148.5 E185.968 F1080
G1 X102.3 Y148.86 F9000
G1 X88.2 Y162.96 E186.963 F1080
G1 X88.41 Y163.32 F9000
G1 X102.51 Y149.22 E187.958 F1080
G1 X102.72 Y149.58 F9000
G1 X88.62 Y163.68 E188.953 F1080
G1 X88.83 Y164.04 F9000
G1 X102.93 Y149.94 E189.948 F1080
G1 X103.13 Y150.29 F9000
G1 X89.03 Y164.39 E190.942 F1080
G1 X89.24 Y164.75 F9000
G1 X103.34 Y150.65 E191.937 F1080
G1 X103.55 Y151.01 F9000
G1 X89.45 Y165.11 E192.932 F1080
G1 X89.66 Y165.47 F9000
G1 X103.75 Y151.37 E193.926 F1080
G1 X103.96 Y151.73 F9000
G1 X89.86 Y165.83 E194.921 F1080
G1 X90.07 Y166.18 F9000
G1 X104.17 Y152.09 E195.916 F1080
G1 X104.38 Y152.45 F9000
G1 X90.28 Y166.54 E196.91 F1080
G1 X90.49 Y166.9 F9000
G1 X104.58 Y152.8 E197.905 F1080
G1 X104.79 Y153.16 F9000
G1 X90.69 Y167.26 E198.899 F1080
G1 X90.9 Y167.62 F9000
G1 X105 Y153.52 E199.894 F1080
G1 X105.69 Y152.83 F9000
G1 X156.12 Y102.4 E203.451 F1080
G1 X156.68 F9000
G1 X91.11 Y167.97 E208.078 F1080
G1 X91.32 Y168.33 F9000
G1 X157.25 Y102.4 E212.73 F1080
G1 X200.81 F9000
G1 X91.53 Y168.69 E217.406 F1080
G1 X91.73 Y169.05 F9000
G1 X158.38 Y102.4 E222.109 F1080
G1 X158.95 F9000
G1 X91.94 Y169.41 E226.836 F1080
G1 X92.15 Y169.76 F9000
G1 X159.51 Y102.4 E231.589 F1080
G1 X160.08 F9000
G1 X92.36 Y170.12 E236.367 F1080
G1 X92.56 Y170.48 F9000
G1 X160.64 Y102.4 E241.17 F1080
G1 X160.96 Y102.65 F9000
G1 X92.77 Y170.84 E245.981 F1080
G1 X92.98 Y171.19 F9000
G1 X160.96 Y103.22 E250.777 F1080
G1 Y103.78 F9000
G1 X93.19 Y171.55 E255.559 F1080
G1 X93.4 Y171.91 F9000
G1 X160.96 Y104.35 E260.326 F1080
G1 Y104.91 F9000
G1 X93.6 Y172.27 E265.078 F1080
G1 X93.81 Y172.63 F9000
G1 X160.96 Y105.48 E269.816 F1080
G1 Y106.04 F9000
G1 X94.02 Y172.98 E274.539 F1080
G1 X94.23 Y173.34 F9000
G1 X160.96 Y106.61 E279.247 F1080
G1 Y107.18 F9000
G1 X94.43 Y173.7 E283.941 F1080
G1 X94.64 Y174.06 F9000
G1 X160.96 Y107.74 E288.62 F1080
G1 Y108.31 F9000
G1 X95.16 Y174.1 E293.262 F1080
G1 X95.73 F9000
G1 X160.96 Y108.87 E297.865 F1080
G1 Y109.44 F9000
G1 X154.49 Y115.91 E298.321 F1080
G1 X154.3 Y116.1 F9000
G1 X96.29 Y174.1 E302.414 F1080
G1 X96.86 F9000
G1 X154.3 Y116.66 E306.466 F1080
G1 Y117.23 F9000
G1 X97.43 Y174.1 E310.479 F1080
G1 X97.99 F9000
G1 X154.3 Y117.79 E314.452 F1080
G1 Y118.36 F9000
G1 X98.56 Y174.1 E318.385 F1080
G1 X99.12 F9000
G1 X154.3 Y118.93 E322.278 F1080
G1 Y119.49 F9000
G1 X99.69 Y174.1 E326.131 F1080
G1 X100.25 F9000
G1 X154.3 Y120.06 E329.944 F1080
G1 Y120.62 F9000
G1 X100.82 Y174.1 E333.718 F1080
G1 X101.39 F9000
G1 X154.3 Y121.19 E337.451 F1080
G1 Y121.75 F9000
G1 X135.03 Y141.03 E338.811 F1080
G1 X135.47 Y141.15 F9000
G1 X154.3 Y122.32 E340.139 F1080
G1 Y122.89 F9000
G1 X135.91 Y141.28 E341.437 F1080
G1 X136.15 Y141.6 F9000
G1 X154.3 Y123.45 E342.718 F1080
G1 Y124.02 F9000
G1 X136.15 Y142.17 E343.998 F1080
G1 Y142.73 F9000
G1 X154.3 Y124.58 E345.279 F1080
G1 Y125.15 F9000
G1 X136.15 Y143.3 E346.559 F1080
G1 Y143.87 F9000
G1 X154.3 Y125.71 E347.84 F1080
G1 Y126.28 F9000
G1 X136.15 Y144.43 E349.121 F1080
G1 Y145 F9000
G1 X154.3 Y126.85 E350.401 F1080
G1 Y127.41 F9000
G1 X136.15 Y145.56 E351.682 F1080
G1 Y146.13 F9000
G1 X154.3 Y127.98 E352.962 F1080
G1 Y128.54 F9000
G1 X136.15 Y146.69 E354.243 F1080
G1 Y147.26 F9000
G1 X154.3 Y129.11 E355.524 F1080
G1 Y129.67 F9000
G1 X136.15 Y147.82 E356.804 F1080
G1 X135.96 Y148.01 F9000
G1 X128.1 Y155.88 E357.359 F1080
G1 X128.1 Y155.31 F9000
G1 X135.4 Y148.01 E357.874 F1080
G1 X134.83 F9000
G1 X127.66 Y155.19 E358.38 F1080
G1 X127.21 Y155.07 F9000
G1 X134.26 Y148.01 E358.878 F1080
G1 X133.7 F9000
G1 X126.76 Y154.95 E359.367 F1080
G1 X126.61 Y155.1 F9000
G1 X107.61 Y174.1 E360.708 F1080
G1 X108.17 F9000
G1 X125.83 Y156.45 E361.953 F1080
G1 X125.04 Y157.8 F9000
G1 X108.74 Y174.1 E363.104 F1080
G1 X109.31 F9000
G1 X124.26 Y159.15 E364.159 F1080
G1 X123.48 Y160.49 F9000
G1 X109.87 Y174.1 E365.119 F1080
G1 X110.44 F9000
G1 X122.7 Y161.84 E365.985 F1080
G1 X121.92 Y163.19 F9000
G1 X111 Y174.1 E366.755 F1080
G1 X111.57 F9000
G1 X121.13 Y164.54 E367.429 F1080
G1 X120.35 Y165.89 F9000
G1 X112.13 Y174.1 E368.009 F1080
G1 X112.7 F9000
G1 X119.57 Y167.23 E368.494 F1080
G1 X118.79 Y168.58 F9000
G1 X113.27 Y174.1 E368.884 F1080
G1 X113.83 F9000
G1 X118.01 Y169.93 E369.178 F1080
G1 X117.22 Y171.28 F9000
G1 X114.4 Y174.1 E369.378 F1080
G1 X114.96 F9000
G1 X116.44 Y172.62 E369.482 F1080
G1 X115.66 Y173.97 F9000
G1 X115.53 Y174.1 E369.491 F1080
G1 Y173.95 F9000
G1 X107.04 Y174.1
G1 X133.13 Y148.01 E371.332 F1080
G1 X132.57 F9000
G1 X106.48 Y174.1 E373.173 F1080
G1 X105.91 F9000
G1 X132 Y148.01 E375.014 F1080
G1 X131.52 Y147.92 F9000
G1 X105.35 Y174.1 E376.861 F1080
G1 X104.78 F9000
G1 X131.32 Y147.56 E378.733 F1080
G1 X131.12 Y147.2 F9000
G1 X104.21 Y174.1 E380.632 F1080
G1 X103.65 F9000
G1 X131.57 Y146.18 E382.602 F1080
G1 X132.47 Y144.71 F9000
G1 X103.08 Y174.1 E384.675 F1080
G1 X102.52 F9000
G1 X133.37 Y143.25 E386.852 F1080
G1 X134.27 Y141.78 F9000
G1 X101.95 Y174.1 E389.133 F1080
G1 E386.133 F1800
G1 Z0.8
G1 Y173.95 F9000
G1 X85.71 Y158.67
G1 Z0.3
G1 E389.133 F1800
G1 X99.82 Y144.56 E390.128 F1080
G1 X99.61 Y144.2 F9000
G1 X85.5 Y158.31 E391.124 F1080
G1 X85.29 Y157.95 F9000
G1 X99.41 Y143.84 E392.119 F1080
G1 X99.2 Y143.48 F9000
G1 X85.09 Y157.59 E393.115 F1080
G1 X84.88 Y157.23 F9000
G1 X98.99 Y143.12 E394.111 F1080
G1 X98.78 Y142.76 F9000
G1 X84.67 Y156.88 E395.106 F1080
G1 X84.46 Y156.52 F9000
G1 X98.58 Y142.4 E396.102 F1080
G1 X98.37 Y142.05 F9000
G1 X84.26 Y156.16 E397.098 F1080
G1 X84.05 Y155.8 F9000
G1 X98.16 Y141.69 E398.094 F1080
G1 X97.96 Y141.33 F9000
G1 X83.84 Y155.44 E399.09 F1080
G1 X83.63 Y155.09 F9000
G1 X97.75 Y140.97 E400.086 F1080
G1 X97.54 Y140.61 F9000
G1 X83.1 Y155.05 E401.105 F1080
G1 X79.2 Y147.07 F9000
G1 X101.2 Y125.08 E402.656 F1080
G1 X100.63 F9000
G1 X79 Y146.71 E404.183 F1080
G1 X78.79 Y146.36 F9000
G1 X100.07 Y125.08 E405.684 F1080
G1 X99.5 F9000
G1 X78.57 Y146 E407.16 F1080
G1 X78.36 Y145.65 F9000
G1 X98.93 Y125.08 E408.612 F1080
G1 X98.37 F9000
G1 X78.14 Y145.3 E410.039 F1080
G1 X77.93 Y144.95 F9000
G1 X97.8 Y125.08 E411.442 F1080
G1 X97.24 F9000
G1 X77.71 Y144.6 E412.819 F1080
G1 X77.5 Y144.25 F9000
G1 X96.67 Y125.08 E414.172 F1080
G1 X96.11 F9000
G1 X77.28 Y143.9 E415.5 F1080
G1 X77.07 Y143.55 F9000
G1 X95.54 Y125.08 E416.804 F1080
G1 X94.97 F9000
G1 X76.85 Y143.2 E418.083 F1080
G1 X76.64 Y142.85 F9000
G1 X94.41 Y125.08 E419.337 F1080
G1 X93.84 F9000
G1 X76.42 Y142.5 E420.566 F1080
G1 X76.2 Y142.15 F9000
G1 X93.28 Y125.08 E421.77 F1080
G1 X92.71 F9000
G1 X75.99 Y141.8 E422.95 F1080
G1 X75.77 Y141.45 F9000
G1 X92.15 Y125.08 E424.105 F1080
G1 X91.58 F9000
G1 X75.56 Y141.1 E425.236 F1080
G1 X75 Y141.09 F9000
G1 X91.01 Y125.08 E426.365 F1080
G1 X90.45 F9000
G1 X74.21 Y141.31 E427.511 F1080
G1 X74.1 Y141.42 F9000
G1 X53.95 Y161.57 E428.932 F1080
G1 X53.39 F9000
G1 X89.88 Y125.08 E431.507 F1080
G1 X89.32 F9000
G1 X52.82 Y161.57 E434.082 F1080
G1 X52.26 F9000
G1 X88.75 Y125.08 E436.657 F1080
G1 X88.43 Y124.84 F9000
G1 X51.69 Y161.57 E439.249 F1080
G1 X51.12 F9000
G1 X88.22 Y124.48 E441.867 F1080
G1 X88.02 Y124.11 F9000
G1 X50.56 Y161.57 E444.51 F1080
G1 X49.99 F9000
G1 X87.81 Y123.75 E447.178 F1080
G1 X87.61 Y123.39 F9000
G1 X49.43 Y161.57 E449.872 F1080
G1 X48.86 F9000
G1 X87.4 Y123.03 E452.591 F1080
G1 X87.2 Y122.67 F9000
G1 X48.86 Y161.01 E455.296 F1080
G1 Y160.45 F9000
G1 X86.99 Y122.31 E457.987 F1080
G1 X86.79 Y121.95 F9000
G1 X48.86 Y159.88 E460.663 F1080
G1 Y159.31 F9000
G1 X86.58 Y121.59 E463.325 F1080
G1 X86.38 Y121.23 F9000
G1 X48.86 Y158.75 E465.973 F1080
G1 Y158.18 F9000
G1 X86.18 Y120.87 E468.606 F1080
G1 X85.97 Y120.5 F9000
G1 X48.86 Y157.62 E471.224 F1080
G1 Y157.05 F9000
G1 X85.77 Y120.14 E473.828 F1080
G1 X85.56 Y119.78 F9000
G1 X48.86 Y156.49 E476.418 F1080
G1 Y155.92 F9000
G1 X85.36 Y119.42 E478.993 F1080
G1 X85.15 Y119.06 F9000
G1 X48.86 Y155.35 E481.554 F1080
G1 X48.86 Y154.79 F9000
G1 X55.63 Y148.01 E482.032 F1080
G1 X55.95 Y147.7 F9000
G1 X84.95 Y118.7 E484.078 F1080
G1 X84.74 Y118.34 F9000
G1 X55.95 Y147.13 E486.109 F1080
G1 Y146.57 F9000
G1 X84.54 Y117.98 E488.126 F1080
G1 X84.33 Y117.62 F9000
G1 X55.95 Y146 E490.129 F1080
G1 Y145.43 F9000
G1 X84.13 Y117.26 E492.117 F1080
G1 X83.92 Y116.89 F9000
G1 X55.95 Y144.87 E494.091 F1080
G1 Y144.3 F9000
G1 X83.72 Y116.53 E496.05 F1080
G1 X83.51 Y116.17 F9000
G1 X55.95 Y143.74 E497.995 F1080
G1 Y143.17 F9000
G1 X84.47 Y114.66 E500.007 F1080
G1 X85.03 F9000
G1 X83.78 Y115.91 E500.095 F1080
G1 X84.35 F9000
G1 X85.6 Y114.66 E500.184 F1080
G1 X86.16 F9000
G1 X84.91 Y115.91 E500.272 F1080
G1 X85.48 F9000
G1 X86.73 Y114.66 E500.36 F1080
G1 X87.29 F9000
G1 X86.04 Y115.91 E500.449 F1080
G1 X86.61 F9000
G1 X87.86 Y114.66 E500.537 F1080
G1 X88.43 F9000
G1 X87.17 Y115.91 E500.625 F1080
G1 X87.74 F9000
G1 X88.99 Y114.66 E500.714 F1080
G1 X89.56 F9000
G1 X88.31 Y115.91 E500.802 F1080
G1 X88.87 F9000
G1 X90.12 Y114.66 E500.89 F1080
G1 X90.69 F9000
G1 X89.44 Y115.91 E500.979 F1080
G1 X90 F9000
G1 X91.25 Y114.66 E501.067 F1080
G1 X91.82 F9000
G1 X90.57 Y115.91 E501.155 F1080
G1 X91.13 F9000
G1 X93.19 Y113.85 E501.3 F1080
G1 Y113.29 F9000
G1 X92.1 Y114.38 E501.377 F1080
G1 Y113.81 F9000
G1 X93.19 Y112.72 E501.453 F1080
G1 Y112.16 F9000
G1 X92.1 Y113.24 E501.53 F1080
G1 X92.04 Y112.74 F9000
G1 X93.19 Y111.59 E501.611 F1080
G1 Y111.03 F9000
G1 X91.47 Y112.74 E501.732 F1080
G1 X90.91 F9000
G1 X93.19 Y110.46 E501.892 F1080
G1 Y109.9 F9000
G1 X90.34 Y112.74 E502.093 F1080
G1 X89.78 F9000
G1 X93.19 Y109.33 E502.333 F1080
G1 Y108.76 F9000
G1 X89.21 Y112.74 E502.614 F1080
G1 X88.65 F9000
G1 X93.19 Y108.2 E502.934 F1080
G1 Y107.63 F9000
G1 X88.08 Y112.74 E503.295 F1080
G1 X87.51 F9000
G1 X93.19 Y107.07 E503.695 F1080
G1 Y106.5 F9000
G1 X86.95 Y112.74 E504.135 F1080
G1 X86.38 F9000
G1 X93.19 Y105.94 E504.615 F1080
G1 Y105.37 F9000
G1 X85.82 Y112.74 E505.135 F1080
G1 X85.25 F9000
G1 X93.19 Y104.8 E505.695 F1080
G1 Y104.24 F9000
G1 X84.69 Y112.74 E506.294 F1080
G1 X84.12 F9000
G1 X93.19 Y103.67 E506.934 F1080
G1 Y103.11 F9000
G1 X83.55 Y112.74 E507.614 F1080
G1 X82.99 F9000
G1 X93.19 Y102.54 E508.333 F1080
G1 X92.76 Y102.4 F9000
G1 X82.42 Y112.74 E509.063 F1080
G1 X81.86 F9000
G1 X92.2 Y102.4 E509.792 F1080
G1 X91.63 F9000
G1 X81.29 Y112.74 E510.522 F1080
G1 X80.73 F9000
G1 X91.07 Y102.4 E511.251 F1080
G1 X90.5 F9000
G1 X80.16 Y112.74 E511.981 F1080
G1 X79.59 F9000
G1 X89.94 Y102.4 E512.711 F1080
G1 X89.37 F9000
G1 X79.03 Y112.74 E513.44 F1080
G1 X78.71 Y113.06 F9000
G1 X55.95 Y135.82 E515.046 F1080
G1 Y136.38 F9000
G1 X78.46 Y113.87 E516.634 F1080
G1 X78.67 Y114.23 F9000
G1 X55.95 Y136.95 E518.237 F1080
G1 Y137.51 F9000
G1 X78.88 Y114.58 E519.855 F1080
G1 X79.37 Y114.66 F9000
G1 X55.95 Y138.08 E521.508 F1080
G1 Y138.65 F9000
G1 X79.94 Y114.66 E523.201 F1080
G1 X80.51 F9000
G1 X55.95 Y139.21 E524.933 F1080
G1 Y139.78 F9000
G1 X81.07 Y114.66 E526.706 F1080
G1 X81.64 F9000
G1 X55.95 Y140.34 E528.518 F1080
G1 Y140.91 F9000
G1 X82.2 Y114.66 E530.371 F1080
G1 X82.77 F9000
G1 X55.95 Y141.47 E532.263 F1080
G1 Y142.04 F9000
G1 X83.33 Y114.66 E534.195 F1080
G1 X83.9 F9000
G1 X55.95 Y142.61 E536.167 F1080
G1 X55.56 Y147.11 F9000
G1 X55.07 Y148.01
G1 X48.86 Y154.22 E536.605 F1080
G1 Y153.66 F9000
G1 X54.5 Y148.01 E537.003 F1080
G1 X53.94 F9000
G1 X48.86 Y153.09 E537.361 F1080
G1 Y152.53 F9000
G1 X53.37 Y148.01 E537.68 F1080
G1 X52.8 F9000
G1 X48.86 Y151.96 E537.958 F1080
G1 Y151.39 F9000
G1 X52.24 Y148.01 E538.197 F1080
G1 X51.67 F9000
G1 X48.86 Y150.83 E538.395 F1080
G1 Y150.26 F9000
G1 X51.11 Y148.01 E538.554 F1080
G1 X50.54 F9000
G1 X48.86 Y149.7 E538.673 F1080
G1 Y149.13 F9000
G1 X49.98 Y148.01 E538.752 F1080
G1 X49.41 F9000
G1 X48.86 Y148.57 E538.791 F1080
G1 X54.52 Y161.57 F9000
G1 X74.1 Y141.99 E540.173 F1080
G1 Y142.56 F9000
G1 X55.08 Y161.57 E541.514 F1080
G1 X55.65 F9000
G1 X74.1 Y143.12 E542.816 F1080
G1 Y143.69 F9000
G1 X56.22 Y161.57 E544.078 F1080
G1 X56.78 F9000
G1 X74.1 Y144.25 E545.3 F1080
G1 Y144.82 F9000
G1 X57.35 Y161.57 E546.482 F1080
G1 X57.91 F9000
G1 X74.1 Y145.38 E547.625 F1080
G1 Y145.95 F9000
G1 X58.48 Y161.57 E548.727 F1080
G1 X59.04 F9000
G1 X74.1 Y146.52 E549.789 F1080
G1 Y147.08 F9000
G1 X59.61 Y161.57 E550.812 F1080
G1 E547.812 F1800
G1 Z0.8
G1 X55.95 Y135.25 F9000
G1 Z0.3
G1 E550.812 F1800
G1 X88.8 Y102.4 E553.13 F1080
G1 X88.24 F9000
G1 X55.95 Y134.69 E555.408 F1080
G1 Y134.12 F9000
G1 X87.67 Y102.4 E557.646 F1080
G1 X87.11 F9000
G1 X55.95 Y133.55 E559.845 F1080
G1 Y132.99 F9000
G1 X86.54 Y102.4 E562.003 F1080
G1 X85.98 Y102.4 F9000
G1 X55.95 Y132.42 E564.122 F1080
G1 Y131.86 F9000
G1 X85.41 Y102.4 E566.201 F1080
G1 X84.85 Y102.39 F9000
G1 X55.95 Y131.29 E568.24 F1080
G1 Y130.73 F9000
G1 X84.28 Y102.39 E570.239 F1080
G1 X83.72 F9000
G1 X55.95 Y130.16 E572.198 F1080
G1 Y129.59 F9000
G1 X83.15 Y102.39 E574.117 F1080
G1 X82.59 F9000
G1 X55.95 Y129.03 E575.996 F1080
G1 Y128.46 F9000
G1 X82.02 Y102.39 E577.836 F1080
G1 X81.45 F9000
G1 X55.95 Y127.9 E579.635 F1080
G1 Y127.33 F9000
G1 X80.89 Y102.39 E581.395 F1080
G1 X80.32 F9000
G1 X55.95 Y126.77 E583.114 F1080
G1 Y126.2 F9000
G1 X79.76 Y102.39 E584.794 F1080
G1 X79.19 F9000
G1 X55.95 Y125.64 E586.434 F1080
G1 Y125.07 F9000
G1 X78.63 Y102.39 E588.034 F1080
G1 X78.16 Y102.29 F9000
G1 X55.95 Y124.5 E589.602 F1080
G1 Y123.94 F9000
G1 X78.03 Y101.86 E591.159 F1080
G1 X77.89 Y101.43 F9000
G1 X55.95 Y123.37 E592.707 F1080
G1 Y122.81 F9000
G1 X98.62 Y80.13 E595.718 F1080
G1 X99.21 Y80.11 F9000
G1 X79.29 Y100.04 E597.124 F1080
G1 X80.65 Y99.24 F9000
G1 X99.8 Y80.08 E598.476 F1080
G1 X100.4 Y80.06 F9000
G1 X81.78 Y98.67 E599.789 F1080
G1 X82.79 Y98.23 F9000
G1 X100.99 Y80.03 E601.073 F1080
G1 X101.58 Y80.01 F9000
G1 X83.69 Y97.89 E602.335 F1080
G1 X84.53 Y97.62 F9000
G1 X102.17 Y79.98 E603.579 F1080
G1 X102.76 Y79.96 F9000
G1 X85.32 Y97.4 E604.809 F1080
G1 X86.07 Y97.22 F9000
G1 X103.34 Y79.94 E606.028 F1080
G1 X103.92 Y79.93 F9000
G1 X86.79 Y97.06 E607.237 F1080
G1 X87.51 Y96.9 F9000
G1 X104.5 Y79.91 E608.435 F1080
G1 X105.08 Y79.9 F9000
G1 X88.25 Y96.73 E609.623 F1080
G1 X89 Y96.55 F9000
G1 X105.64 Y79.91 E610.797 F1080
G1 X106.19 Y79.92 F9000
G1 X89.74 Y96.37 E611.958 F1080
G1 X90.47 Y96.21 F9000
G1 X106.74 Y79.94 E613.106 F1080
G1 X107.28 Y79.96 F9000
G1 X91.18 Y96.06 E614.242 F1080
G1 X91.88 Y95.93 F9000
G1 X107.83 Y79.98 E615.367 F1080
G1 X108.37 Y80 F9000
G1 X92.56 Y95.82 E616.483 F1080
G1 X93.23 Y95.71 F9000
G1 X108.91 Y80.03 E617.589 F1080
G1 X109.46 Y80.05 F9000
G1 X93.87 Y95.63 E618.689 F1080
G1 X94.51 Y95.56 F9000
G1 X110 Y80.07 E619.782 F1080
G1 X110.54 Y80.09 F9000
G1 X95.14 Y95.49 E620.868 F1080
G1 X95.76 Y95.44 F9000
G1 X111.09 Y80.12 E621.95 F1080
G1 X111.63 Y80.14 F9000
G1 X96.37 Y95.4 E623.027 F1080
G1 X96.97 Y95.36 F9000
G1 X112.17 Y80.16 E624.099 F1080
G1 X112.72 Y80.18 F9000
G1 X97.57 Y95.33 E625.168 F1080
G1 X98.16 Y95.3 F9000
G1 X113.26 Y80.2 E626.234 F1080
G1 X113.8 Y80.23 F9000
G1 X98.76 Y95.27 E627.295 F1080
G1 X99.34 Y95.25 F9000
G1 X114.35 Y80.25 E628.353 F1080
G1 X114.89 Y80.27 F9000
G1 X99.93 Y95.24 E629.409 F1080
G1 X100.51 Y95.22 F9000
G1 X115.43 Y80.29 E630.462 F1080
G1 X115.98 Y80.32 F9000
G1 X101.09 Y95.2 E631.513 F1080
G1 X101.67 Y95.19 F9000
G1 X116.52 Y80.34 E632.56 F1080
G1 X117.06 Y80.36 F9000
G1 X102.25 Y95.17 E633.605 F1080
G1 X102.82 Y95.17 F9000
G1 X117.59 Y80.4 E634.647 F1080
G1 X118.12 Y80.44 F9000
G1 X103.39 Y95.17 E635.686 F1080
G1 X103.96 Y95.16 F9000
G1 X118.64 Y80.48 E636.722 F1080
G1 X119.16 Y80.52 F9000
G1 X104.52 Y95.16 E637.755 F1080
G1 X105.09 Y95.16 F9000
G1 X119.67 Y80.58 E638.784 F1080
G1 X120.18 Y80.64 F9000
G1 X105.65 Y95.17 E639.809 F1080
G1 X106.22 Y95.17 F9000
G1 X120.68 Y80.71 E640.829 F1080
G1 X121.17 Y80.78 F9000
G1 X106.78 Y95.17 E641.844 F1080
G1 X107.34 Y95.17 F9000
G1 X121.67 Y80.85 E642.855 F1080
G1 X122.15 Y80.93 F9000
G1 X107.91 Y95.17 E643.86 F1080
G1 X108.46 Y95.18 F9000
G1 X122.63 Y81.02 E644.86 F1080
G1 X123.11 Y81.1 F9000
G1 X109.02 Y95.2 E645.854 F1080
G1 X109.57 Y95.21 F9000
G1 X123.59 Y81.19 E646.843 F1080
G1 X124.08 Y81.26 F9000
G1 X110.12 Y95.22 E647.828 F1080
G1 X110.67 Y95.24 F9000
G1 X124.57 Y81.34 E648.809 F1080
G1 X125.05 Y81.42 F9000
G1 X111.21 Y95.26 E649.786 F1080
G1 X111.75 Y95.29 F9000
G1 X125.53 Y81.51 E650.758 F1080
G1 X126.01 Y81.6 F9000
G1 X112.3 Y95.31 E651.726 F1080
G1 X112.84 Y95.33 F9000
G1 X126.49 Y81.68 E652.689 F1080
G1 X126.97 Y81.77 F9000
G1 X113.37 Y95.37 E653.648 F1080
G1 X113.9 Y95.4 F9000
G1 X127.43 Y81.87 E654.603 F1080
G1 X127.89 Y81.97 F9000
G1 X114.43 Y95.44 E655.552 F1080
G1 X114.95 Y95.48 F9000
G1 X128.36 Y82.08 E656.498 F1080
G1 X128.82 Y82.18 F9000
G1 X115.47 Y95.53 E657.441 F1080
G1 X115.98 Y95.59 F9000
G1 X129.29 Y82.28 E658.38 F1080
G1 X129.75 Y82.38 F9000
G1 X116.5 Y95.64 E659.315 F1080
G1 X116.99 Y95.71 F9000
G1 X130.21 Y82.49 E660.247 F1080
G1 X130.66 Y82.6 F9000
G1 X117.49 Y95.78 E661.177 F1080
G1 X117.97 Y95.86 F9000
G1 X131.12 Y82.71 E662.104 F1080
G1 X131.57 Y82.83 F9000
G1 X118.45 Y95.94 E663.029 F1080
G1 X118.93 Y96.03 F9000
G1 X132.01 Y82.95 E663.953 F1080
G1 X132.46 Y83.06 F9000
G1 X119.4 Y96.13 E664.875 F1080
G1 X119.86 Y96.23 F9000
G1 X132.91 Y83.19 E665.795 F1080
G1 X133.35 Y83.31 F9000
G1 X120.32 Y96.34 E666.714 F1080
G1 X120.78 Y96.44 F9000
G1 X133.79 Y83.44 E667.631 F1080
G1 X134.22 Y83.57 F9000
G1 X121.24 Y96.55 E668.548 F1080
G1 X121.7 Y96.66 F9000
G1 X134.65 Y83.7 E669.462 F1080
G1 X135.09 Y83.83 F9000
G1 X122.16 Y96.76 E670.374 F1080
G1 X122.62 Y96.87 F9000
G1 X135.52 Y83.97 E671.284 F1080
G1 X135.94 Y84.11 F9000
G1 X123.08 Y96.97 E672.192 F1080
G1 X123.55 Y97.07 F9000
G1 X136.36 Y84.26 E673.096 F1080
G1 X136.78 Y84.4 F9000
G1 X124.01 Y97.17 E673.997 F1080
G1 X124.47 Y97.28 F9000
G1 X137.19 Y84.55 E674.895 F1080
G1 X137.6 Y84.71 F9000
G1 X124.92 Y97.39 E675.789 F1080
G1 X125.37 Y97.51 F9000
G1 X138.01 Y84.87 E676.682 F1080
G1 X138.42 Y85.03 F9000
G1 X125.8 Y97.65 E677.572 F1080
G1 X126.23 Y97.78 F9000
G1 X138.82 Y85.19 E678.46 F1080
G1 X139.21 Y85.36 F9000
G1 X126.66 Y97.92 E679.346 F1080
G1 X127.06 Y98.08 F9000
G1 X139.61 Y85.53 E680.232 F1080
G1 X140 Y85.71 F9000
G1 X127.47 Y98.24 E681.116 F1080
G1 X127.87 Y98.4 F9000
G1 X140.38 Y85.89 E681.998 F1080
G1 X140.76 Y86.08 F9000
G1 X128.26 Y98.58 E682.88 F1080
G1 X128.65 Y98.76 F9000
G1 X141.14 Y86.27 E683.761 F1080
G1 X141.5 Y86.47 F9000
G1 X129.03 Y98.94 E684.641 F1080
G1 X129.4 Y99.14 F9000
G1 X141.87 Y86.66 E685.522 F1080
G1 X142.23 Y86.87 F9000
G1 X129.77 Y99.33 E686.401 F1080
G1 X130.13 Y99.54 F9000
G1 X142.59 Y87.08 E687.28 F1080
G1 X142.95 Y87.29 F9000
G1 X130.49 Y99.75 E688.159 F1080
G1 X130.84 Y99.96 F9000
G1 X143.29 Y87.51 E689.037 F1080
G1 X143.64 Y87.73 F9000
G1 X131.18 Y100.18 E689.916 F1080
G1 X131.52 Y100.41 F9000
G1 X143.98 Y87.95 E690.795 F1080
G1 X144.31 Y88.18 F9000
G1 X131.85 Y100.64 E691.674 F1080
G1 X132.19 Y100.88 F9000
G1 X144.65 Y88.42 E692.553 F1080
G1 X144.98 Y88.65 F9000
G1 X132.46 Y101.17 E693.437 F1080
G1 X132.2 Y102 F9000
G1 X145.3 Y88.89 E694.361 F1080
G1 X145.62 Y89.14 F9000
G1 X121.99 Y112.77 E696.029 F1080
G1 X121.42 Y112.77 F9000
G1 X131.79 Y102.4 E696.76 F1080
G1 X131.23 F9000
G1 X120.85 Y112.77 E697.492 F1080
G1 X120.29 Y112.77 F9000
G1 X130.66 Y102.4 E698.224 F1080
G1 X130.1 F9000
G1 X119.72 Y112.78 E698.956 F1080
G1 X119.15 Y112.78 F9000
G1 X129.53 Y102.4 E699.688 F1080
G1 X128.96 F9000
G1 X118.59 Y112.78 E700.42 F1080
G1 X118.15 Y113.22 F9000
G1 X117.06 Y114.3 E700.497 F1080
G1 Y113.74 F9000
G1 X128.4 Y102.4 E701.296 F1080
G1 X127.83 F9000
G1 X117.06 Y113.17 E702.056 F1080
G1 Y112.6 F9000
G1 X127.27 Y102.4 E702.776 F1080
G1 X126.7 F9000
G1 X117.06 Y112.04 E703.456 F1080
G1 Y111.47 F9000
G1 X126.14 Y102.4 E704.096 F1080
G1 X125.57 F9000
G1 X117.06 Y110.91 E704.696 F1080
G1 Y110.34 F9000
G1 X125 Y102.4 E705.256 F1080
G1 X124.44 Y102.4 F9000
G1 X117.06 Y109.78 E705.777 F1080
G1 Y109.21 F9000
G1 X123.87 Y102.4 E706.257 F1080
G1 X123.31 F9000
G1 X117.06 Y108.64 E706.698 F1080
G1 Y108.08 F9000
G1 X122.74 Y102.4 E707.098 F1080
G1 X122.18 F9000
G1 X117.06 Y107.51 E707.459 F1080
G1 Y106.95 F9000
G1 X121.61 Y102.4 E707.78 F1080
G1 X121.05 F9000
G1 X117.06 Y106.38 E708.06 F1080
G1 Y105.82 F9000
G1 X120.48 Y102.4 E708.301 F1080
G1 X119.91 F9000
G1 X117.06 Y105.25 E708.502 F1080
G1 Y104.68 F9000
G1 X119.35 Y102.4 E708.664 F1080
G1 X118.78 F9000
G1 X117.06 Y104.12 E708.785 F1080
G1 Y103.55 F9000
G1 X118.22 Y102.4 E708.866 F1080
G1 X117.65 F9000
G1 X117.06 Y102.99 E708.908 F1080
G1 Y102.42 F9000
G1 X117.09 Y102.4 E708.909 F1080
G1 X118.15 Y113.78 F9000
G1 X117.06 Y114.87 E708.986 F1080
G1 Y115.43 F9000
G1 X118.15 Y114.34 E709.062 F1080
G1 X118.41 Y114.66 F9000
G1 X117.15 Y115.91 E709.151 F1080
G1 X117.72 F9000
G1 X118.97 Y114.66 E709.239 F1080
G1 X119.54 F9000
G1 X118.29 Y115.91 E709.327 F1080
G1 X118.85 F9000
G1 X120.1 Y114.66 E709.415 F1080
G1 X120.67 F9000
G1 X119.42 Y115.91 E709.504 F1080
G1 X119.98 F9000
G1 X121.23 Y114.66 E709.592 F1080
G1 X121.8 F9000
G1 X120.55 Y115.91 E709.68 F1080
G1 X121.11 F9000
G1 X122.37 Y114.66 E709.769 F1080
G1 X122.93 F9000
G1 X121.68 Y115.91 E709.857 F1080
G1 X122.25 F9000
G1 X123.5 Y114.66 E709.945 F1080
G1 X124.06 F9000
G1 X122.81 Y115.91 E710.033 F1080
G1 X123.38 F9000
G1 X124.63 Y114.66 E710.122 F1080
G1 X125.19 Y114.66 F9000
G1 X123.94 Y115.91 E710.21 F1080
G1 X124.51 F9000
G1 X125.76 Y114.66 E710.298 F1080
G1 X126.32 F9000
G1 X125.07 Y115.91 E710.386 F1080
G1 X125.64 F9000
G1 X126.89 Y114.66 E710.474 F1080
G1 X127.46 F9000
G1 X126.08 Y116.03 E710.571 F1080
G1 X126.29 Y116.39 F9000
G1 X128.02 Y114.66 E710.693 F1080
G1 X128.59 F9000
G1 X126.49 Y116.75 E710.841 F1080
G1 X125.97 Y117.84 F9000
G1 X129.15 Y114.66 E711.065 F1080
G1 X129.72 F9000
G1 X125.13 Y119.25 E711.389 F1080
G1 X124.28 Y120.66 F9000
G1 X130.28 Y114.66 E711.813 F1080
G1 X130.85 F9000
G1 X123.44 Y122.07 E712.336 F1080
G1 X122.59 Y123.48 F9000
G1 X131.42 Y114.66 E712.958 F1080
G1 X132.05 Y114.02 F9000
G1 X151.17 Y94.91 E714.307 F1080
G1 X150.94 Y94.57 F9000
G1 X132.08 Y113.42 E715.637 F1080
G1 X131.88 Y113.06 F9000
G1 X150.7 Y94.24 E716.965 F1080
G1 X150.46 Y93.92 F9000
G1 X131.62 Y112.75 E718.294 F1080
G1 X131.06 Y112.75 F9000
G1 X150.21 Y93.6 E719.646 F1080
G1 X149.96 Y93.28 F9000
G1 X130.49 Y112.75 E721.02 F1080
G1 X129.92 Y112.76 F9000
G1 X149.7 Y92.97 E722.415 F1080
G1 X149.44 Y92.67 F9000
G1 X129.36 Y112.76 E723.832 F1080
G1 X128.79 Y112.76 F9000
G1 X149.17 Y92.37 E725.271 F1080
G1 X148.9 Y92.08 F9000
G1 X128.22 Y112.76 E726.729 F1080
G1 X127.66 Y112.76 F9000
G1 X148.63 Y91.79 E728.209 F1080
G1 X148.35 Y91.51 F9000
G1 X127.09 Y112.76 E729.709 F1080
G1 X126.52 Y112.76 F9000
G1 X148.06 Y91.22 E731.228 F1080
G1 X147.77 Y90.95 F9000
G1 X125.96 Y112.76 E732.768 F1080
G1 X125.39 Y112.76 F9000
G1 X147.47 Y90.68 E734.326 F1080
G1 X147.17 Y90.41 F9000
G1 X124.82 Y112.77 E735.903 F1080
G1 X124.26 Y112.77 F9000
G1 X146.87 Y90.15 E737.498 F1080
G1 X146.57 Y89.89 F9000
G1 X123.69 Y112.77 E739.113 F1080
G1 X123.12 Y112.77 F9000
G1 X146.25 Y89.64 E740.745 F1080
G1 X145.94 Y89.39 F9000
G1 X122.56 Y112.77 E742.394 F1080
G1 X122.92 Y114.16 F9000
G1 X126.22 Y116.85
G1 X121.75 Y124.89
G1 X151.39 Y95.25 E744.486 F1080
G1 X151.61 Y95.6 F9000
G1 X108.43 Y138.77 E747.532 F1080
G1 X109 F9000
G1 X151.82 Y95.95 E750.553 F1080
G1 X152.02 Y96.31 F9000
G1 X109.57 Y138.77 E753.549 F1080
G1 X110.13 F9000
G1 X152.23 Y96.68 E756.519 F1080
G1 X152.42 Y97.05 F9000
G1 X110.7 Y138.77 E759.462 F1080
G1 X111.26 F9000
G1 X152.61 Y97.43 E762.379 F1080
G1 X152.8 Y97.8 F9000
G1 X111.83 Y138.77 E765.27 F1080
G1 X112.39 F9000
G1 X152.97 Y98.19 E768.133 F1080
G1 X153.13 Y98.6 F9000
G1 X112.88 Y138.85 E770.973 F1080
G1 X113.09 Y139.2 F9000
G1 X153.29 Y99.01 E773.809 F1080
G1 X153.43 Y99.44 F9000
G1 X113.3 Y139.56 E776.64 F1080
G1 X112.92 Y140.51 F9000
G1 X153.55 Y99.88 E779.506 F1080
G1 X153.64 Y100.35 F9000
G1 X112.12 Y141.88 E782.436 F1080
G1 X111.31 Y143.24 F9000
G1 X153.73 Y100.83 E785.429 F1080
G1 X153.76 Y101.36 F9000
G1 X110.51 Y144.61 E788.481 F1080
G1 X109.71 Y145.98 F9000
G1 X153.75 Y101.94 E791.588 F1080
G1 X153.85 Y102.4 F9000
G1 X108.9 Y147.35 E794.76 F1080
G1 X108.1 Y148.72 F9000
G1 X154.42 Y102.4 E798.028 F1080
G1 X154.99 F9000
G1 X107.3 Y150.09 E801.392 F1080
G1 X106.49 Y151.46 F9000
G1 X155.55 Y102.4 E804.854 F1080
G1 X160.96 Y110 F9000
G1 X155.06 Y115.91 E805.27 F1080
G1 X155.62 F9000
G1 X160.96 Y110.57 E805.647 F1080
G1 Y111.14 F9000
G1 X156.19 Y115.91 E805.984 F1080
G1 X156.75 F9000
G1 X160.96 Y111.7 E806.281 F1080
G1 Y112.27 F9000
G1 X157.32 Y115.91 E806.538 F1080
G1 X157.88 F9000
G1 X160.96 Y112.83 E806.755 F1080
G1 Y113.4 F9000
G1 X158.45 Y115.91 E806.932 F1080
G1 X159.01 F9000
G1 X160.96 Y113.96 E807.069 F1080
G1 Y114.53 F9000
G1 X159.58 Y115.91 E807.166 F1080
G1 X160.15 F9000
G1 X160.96 Y115.1 E807.224 F1080
G1 Y115.66 F9000
G1 X160.71 Y115.91 E807.241 F1080
G1 E804.241 F1800
G1 Z0.8
G1 Y115.76 F9000
G1 X155.85 Y115.84
G1 X154.64 Y116.25
G1 X154.17 Y123.54
G1 X154.3 Y130.24
G1 Z0.3
G1 E807.241 F1800
G1 X128.1 Y156.44 E809.09 F1080
G1 X128.1 Y157.01 F9000
G1 X154.3 Y130.81 E810.938 F1080
G1 Y131.37 F9000
G1 X128.1 Y157.57 E812.787 F1080
G1 X128.1 Y158.13 F9000
G1 X154.3 Y131.94 E814.635 F1080
G1 Y132.5 F9000
G1 X128.1 Y158.7 E816.483 F1080
G1 X128.11 Y159.26 F9000
G1 X154.3 Y133.07 E818.332 F1080
G1 Y133.63 F9000
G1 X128.11 Y159.83 E820.18 F1080
G1 X128.11 Y160.39 F9000
G1 X154.3 Y134.2 E822.028 F1080
G1 Y134.77 F9000
G1 X128.11 Y160.96 E823.876 F1080
G1 X128.11 Y161.52 F9000
G1 X154.3 Y135.33 E825.723 F1080
G1 Y135.9 F9000
G1 X128.62 Y161.57 E827.535 F1080
G1 X129.19 F9000
G1 X154.3 Y136.46 E829.307 F1080
G1 Y137.03 F9000
G1 X129.75 Y161.57 E831.038 F1080
G1 X130.32 F9000
G1 X154.3 Y137.59 E832.73 F1080
G1 Y138.16 F9000
G1 X130.89 Y161.57 E834.382 F1080
G1 X131.45 F9000
G1 X154.3 Y138.73 E835.994 F1080
G1 Y139.29 F9000
G1 X132.02 Y161.57 E837.567 F1080
G1 X132.58 F9000
G1 X154.3 Y139.86 E839.099 F1080
G1 Y140.42 F9000
G1 X133.15 Y161.57 E840.591 F1080
G1 X133.71 F9000
G1 X154.3 Y140.99 E842.043 F1080
G1 Y141.55 F9000
G1 X134.28 Y161.57 E843.456 F1080
G1 X134.85 F9000
G1 X154.3 Y142.12 E844.829 F1080
G1 Y142.68 F9000
G1 X135.41 Y161.57 E846.161 F1080
G1 X135.98 F9000
G1 X154.3 Y143.25 E847.454 F1080
G1 Y143.82 F9000
G1 X136.54 Y161.57 E848.707 F1080
G1 X137.11 F9000
G1 X154.3 Y144.38 E849.92 F1080
G1 Y144.95 F9000
G1 X137.67 Y161.57 E851.093 F1080
G1 X138.24 F9000
G1 X154.3 Y145.51 E852.226 F1080
G1 Y146.08 F9000
G1 X138.81 Y161.57 E853.319 F1080
G1 X139.37 F9000
G1 X154.3 Y146.64 E854.372 F1080
G1 Y147.21 F9000
G1 X139.94 Y161.57 E855.386 F1080
G1 X140.5 F9000
G1 X154.3 Y147.78 E856.359 F1080
G1 X154.63 Y148.01 F9000
G1 X141.07 Y161.57 E857.316 F1080
G1 X141.63 F9000
G1 X155.19 Y148.01 E858.272 F1080
G1 X155.76 F9000
G1 X142.2 Y161.57 E859.229 F1080
G1 X142.77 F9000
G1 X156.33 Y148.01 E860.186 F1080
G1 X156.89 F9000
G1 X143.33 Y161.57 E861.143 F1080
G1 X143.9 F9000
G1 X157.46 Y148.01 E862.099 F1080
G1 X158.02 F9000
G1 X144.46 Y161.57 E863.056 F1080
G1 X145.03 F9000
G1 X158.59 Y148.01 E864.013 F1080
G1 X159.15 F9000
G1 X145.59 Y161.57 E864.97 F1080
G1 X146.16 F9000
G1 X159.72 Y148.01 E865.926 F1080
G1 X160.28 F9000
G1 X146.73 Y161.57 E866.883 F1080
G1 X147.29 F9000
G1 X160.85 Y148.01 E867.84 F1080
G1 X161.39 Y148.04 F9000
G1 X147.86 Y161.57 E868.795 F1080
G1 X148.42 F9000
G1 X161.39 Y148.6 E869.71 F1080
G1 Y149.17 F9000
G1 X148.99 Y161.57 E870.585 F1080
G1 X149.55 F9000
G1 X161.39 Y149.73 E871.42 F1080
G1 Y150.3 F9000
G1 X150.12 Y161.57 E872.216 F1080
G1 X150.69 F9000
G1 X161.39 Y150.87 E872.971 F1080
G1 Y151.43 F9000
G1 X151.25 Y161.57 E873.687 F1080
G1 X151.82 F9000
G1 X161.39 Y152 E874.362 F1080
G1 Y152.56 F9000
G1 X152.38 Y161.57 E874.998 F1080
G1 X152.95 F9000
G1 X161.39 Y153.13 E875.594 F1080
G1 Y153.69 F9000
G1 X153.51 Y161.57 E876.15 F1080
G1 X154.08 F9000
G1 X161.39 Y154.26 E876.666 F1080
G1 Y154.83 F9000
G1 X154.64 Y161.57 E877.142 F1080
G1 X155.21 F9000
G1 X161.39 Y155.39 E877.578 F1080
G1 Y155.96 F9000
G1 X155.78 Y161.57 E877.974 F1080
G1 X156.34 F9000
G1 X161.39 Y156.52 E878.331 F1080
G1 Y157.09 F9000
G1 X156.91 Y161.57 E878.647 F1080
G1 X157.47 F9000
G1 X161.39 Y157.65 E878.924 F1080
G1 X161.39 Y158.22 F9000
G1 X158.04 Y161.57 E879.16 F1080
G1 X158.6 F9000
G1 X161.39 Y158.78 E879.357 F1080
G1 Y159.35 F9000
G1 X159.17 Y161.57 E879.514 F1080
G1 X159.74 F9000
G1 X161.39 Y159.92 E879.631 F1080
G1 Y160.48 F9000
G1 X160.3 Y161.57 E879.708 F1080
G1 X160.87 F9000
G1 X161.39 Y161.05 E879.745 F1080
G1 E876.745 F1800
G1 Z0.8
G1 X161.24 F9000
G1 X121.56 Y125.08
G1 Z0.3
G1 E879.745 F1800
G1 X107.87 Y138.77 E880.711 F1080
G1 X107.3 F9000
G1 X121 Y125.08 E881.677 F1080
G1 X120.43 F9000
G1 X106.74 Y138.77 E882.644 F1080
G1 X106.17 F9000
G1 X119.86 Y125.08 E883.61 F1080
G1 X119.3 F9000
G1 X105.61 Y138.77 E884.576 F1080
G1 X105.04 F9000
G1 X118.73 Y125.08 E885.542 F1080
G1 X118.17 F9000
G1 X104.47 Y138.77 E886.508 F1080
G1 X103.91 F9000
G1 X117.6 Y125.08 E887.474 F1080
G1 X117.04 F9000
G1 X103.34 Y138.77 E888.44 F1080
G1 X102.78 F9000
G1 X116.47 Y125.08 E889.406 F1080
G1 X115.9 F9000
G1 X102.21 Y138.77 E890.372 F1080
G1 X101.65 F9000
G1 X115.34 Y125.08 E891.339 F1080
G1 X114.77 F9000
G1 X101.08 Y138.77 E892.305 F1080
G1 X100.51 F9000
G1 X114.21 Y125.08 E893.271 F1080
G1 X113.64 F9000
G1 X99.95 Y138.77 E894.237 F1080
G1 X99.38 F9000
G1 X113.08 Y125.08 E895.203 F1080
G1 X112.51 F9000
G1 X98.82 Y138.77 E896.169 F1080
G1 X98.25 F9000
G1 X111.94 Y125.08 E897.135 F1080
G1 E894.135 F1800
G1 Z0.8
G1 X89.71 Y124.91 F9000
G1 X88.19 Y124.18
G1 X84.08 Y116.85
G1 X86.24 Y115.9
G1 X93.19 Y115.55
G1 Z0.3
G1 E897.135 F1800
G1 X92.83 Y115.91 E897.16 F1080
G1 X92.27 F9000
G1 X93.19 Y114.99 E897.225 F1080
G1 Y114.42 F9000
G1 X91.7 Y115.91 E897.33 F1080
G1 E894.33 F1800
G1 Z0.8
G1 X89.4 Y102.36 F9000
G1 X79.5 Y102.35
G1 X78.58 Y101.75
G1 X78.79 Y100.58
G1 X79.72 Y99.15
G1 X86.18 Y81.26
G1 Z0.3
G1 E897.33 F1800
G1 X51.54 Y115.91 E899.775 F1080
G1 X50.97 F9000
G1 X85.51 Y81.36 E902.212 F1080
G1 X84.82 Y81.49 F9000
G1 X50.4 Y115.91 E904.641 F1080
G1 X49.84 F9000
G1 X84.13 Y81.62 E907.06 F1080
G1 X83.44 Y81.74 F9000
G1 X49.29 Y115.89 E909.469 F1080
G1 Y115.32 F9000
G1 X82.72 Y81.9 E911.827 F1080
G1 X82 Y82.05 F9000
G1 X49.29 Y114.76 E914.135 F1080
G1 Y114.19 F9000
G1 X81.27 Y82.21 E916.392 F1080
G1 X80.55 Y82.37 F9000
G1 X49.29 Y113.63 E918.597 F1080
G1 Y113.06 F9000
G1 X79.8 Y82.55 E920.749 F1080
G1 X79.05 Y82.73 F9000
G1 X49.29 Y112.5 E922.849 F1080
G1 Y111.93 F9000
G1 X78.29 Y82.93 E924.895 F1080
G1 X77.52 Y83.13 F9000
G1 X49.29 Y111.36 E926.887 F1080
G1 Y110.8 F9000
G1 X76.73 Y83.36 E928.823 F1080
G1 X75.93 Y83.59 F9000
G1 X49.29 Y110.23 E930.702 F1080
G1 Y109.67 F9000
G1 X75.1 Y83.85 E932.524 F1080
G1 X74.26 Y84.13 F9000
G1 X56.5 Y101.9 E933.777 F1080
G1 X56.49 Y101.34 F9000
G1 X73.39 Y84.43 E934.97 F1080
G1 X72.49 Y84.77 F9000
G1 X56.54 Y100.72 E936.095 F1080
G1 X56.68 Y100.02 F9000
G1 X71.55 Y85.14 E937.145 F1080
G1 X70.56 Y85.57 F9000
G1 X56.88 Y99.25 E938.11 F1080
G1 X57.21 Y98.35 F9000
G1 X69.48 Y86.08 E938.976 F1080
G1 X68.29 Y86.71 F9000
G1 X57.7 Y97.3 E939.723 F1080
G1 X58.36 Y96.08 F9000
G1 X66.86 Y87.57 E940.323 F1080
G1 X65.04 Y88.83 F9000
G1 X59.34 Y94.53 E940.725 F1080
G1 X55.99 Y102.4 F9000
G1 X49.29 Y109.1 E941.198 F1080
G1 Y108.54 F9000
G1 X55.43 Y102.4 E941.631 F1080
G1 X54.86 F9000
G1 X49.29 Y107.97 E942.024 F1080
G1 Y107.4 F9000
G1 X54.29 Y102.4 E942.377 F1080
G1 X53.73 F9000
G1 X49.29 Y106.84 E942.69 F1080
G1 Y106.27 F9000
G1 X53.16 Y102.4 E942.963 F1080
G1 X52.6 F9000
G1 X49.29 Y105.71 E943.196 F1080
G1 Y105.14 F9000
G1 X52.03 Y102.4 E943.39 F1080
G1 X51.47 F9000
G1 X49.29 Y104.58 E943.543 F1080
G1 Y104.01 F9000
G1 X50.9 Y102.4 E943.657 F1080
G1 X50.33 F9000
G1 X49.29 Y103.44 E943.731 F1080
G1 Y102.88 F9000
G1 X49.77 Y102.4 E943.764 F1080
G1 X52.1 Y115.91 F9000
G1 X86.86 Y81.15 E946.217 F1080
G1 X87.55 Y81.02 F9000
G1 X52.67 Y115.91 E948.678 F1080
G1 X53.23 F9000
G1 X88.23 Y80.91 E951.148 F1080
G1 X88.9 Y80.8 F9000
G1 X53.8 Y115.91 E953.624 F1080
G1 X54.36 F9000
G1 X89.57 Y80.7 E956.108 F1080
G1 X90.21 Y80.63 F9000
G1 X54.93 Y115.91 E958.598 F1080
G1 X55.5 F9000
G1 X90.85 Y80.55 E961.092 F1080
G1 X91.48 Y80.49 F9000
G1 X55.95 Y116.02 E963.599 F1080
G1 Y116.58 F9000
G1 X92.09 Y80.44 E966.149 F1080
G1 X92.7 Y80.4 F9000
G1 X55.95 Y117.15 E968.742 F1080
G1 Y117.72 F9000
G1 X93.31 Y80.36 E971.378 F1080
G1 X93.9 Y80.33 F9000
G1 X55.95 Y118.28 E974.055 F1080
G1 Y118.85 F9000
G1 X94.49 Y80.31 E976.774 F1080
G1 X95.08 Y80.28 F9000
G1 X55.95 Y119.41 E979.535 F1080
G1 Y119.98 F9000
G1 X95.67 Y80.26 E982.337 F1080
G1 X96.26 Y80.23 F9000
G1 X55.95 Y120.54 E985.182 F1080
G1 Y121.11 F9000
G1 X96.85 Y80.21 E988.067 F1080
G1 X97.44 Y80.18 F9000
G1 X55.95 Y121.68 E990.995 F1080
G1 Y122.24 F9000
G1 X98.03 Y80.16 E993.964 F1080
; Layer Change GCode
; LAYER:1
; LAYER_HEIGHT:0.3
; TYPE:FILL
G1 E990.964 F1800
G1 Z0.8
G1 Z1.1 F9000
G1 X92.14 Y86.61
G1 X86.24 Y93.05
G1 X80.35 Y99.5
G1 X78.83 Y100.56
G1 X78.57 Y101.76
G1 X82.09 Y104.37
G1 X91.76 Y113.08
; TYPE:WALL-INNER
G1 Z0.6
G1 E993.964 F1800
G1 X87.54 E994.175 F3600
G1 X83.31 E994.385
G1 X79.09 E994.596
G1 X78.75 Y113.68 E994.631
G1 X79.12 Y114.32 E994.667
G1 X83.33 Y114.32 E994.877
G1 X87.55 Y114.31 E995.088
G1 X91.76 Y114.31 E995.298
G1 Y113.12 E995.358
G1 Y113.08
G1 X91.36 Y113.48 F9000
; TYPE:WALL-OUTER
G1 X87.35 E995.558 F600
G1 X83.33 E995.758
G1 X79.32 E995.958
G1 X79.21 Y113.68 E995.97
G1 X79.35 Y113.92 E995.984
G1 X83.35 E996.184
G1 X87.36 E996.383
G1 X91.36 E996.583
G1 Y113.52 E996.603
G1 Y113.48
G1 X88.36
G1 X91.76 Y113.08 F9000
G1 X83.95 Y116.25
; TYPE:WALL-INNER
G1 X86.36 Y120.5 E996.847 F3600
G1 X88.76 Y124.74 E997.09
G1 X93.43 E997.323
G1 X98.1 E997.556
G1 X102.77 E997.789
G1 X107.43 E998.021
G1 X112.1 E998.254
G1 X116.77 E998.487
G1 X121.44 E998.72
G1 X123.8 Y120.8 E998.95
G1 X126.16 Y116.86 E999.179
G1 X125.82 Y116.25 E999.213
G1 X121.28 E999.44
G1 X116.73 E999.667
G1 Y111.52 E999.903
G1 Y106.79 E1000.139
G1 Y102.06 E1000.375
G1 X120.5 E1000.563
G1 X124.28 E1000.752
G1 X128.05 E1000.94
G1 X131.82 E1001.128
G1 X132.09 Y101.22 E1001.172
G1 X130.83 Y100.35 E1001.249
G1 X129.82 Y99.74 E1001.307
G1 X128.74 Y99.17 E1001.368
G1 X127.65 Y98.67 E1001.428
G1 X126.54 Y98.24 E1001.487
G1 X125.45 Y97.89 E1001.545
G1 X124.49 Y97.63 E1001.594
G1 X123.03 Y97.31 E1001.668
G1 X120.51 Y96.72 E1001.798
G1 X118.71 Y96.34 E1001.889
G1 X117.69 Y96.15 E1001.941
G1 X116.38 Y95.97 E1002.007
G1 X114.66 Y95.79 E1002.094
G1 X112.93 Y95.68 E1002.18
G1 X110.62 Y95.58 E1002.295
G1 X107.69 Y95.51 E1002.441
G1 X102.24 Y95.51 E1002.714
G1 X98.94 Y95.6 E1002.878
G1 X96.65 Y95.72 E1002.993
G1 X95.07 Y95.84 E1003.071
G1 X93.43 Y96.02 E1003.154
G1 X91.95 Y96.26 E1003.229
G1 X90.74 Y96.5 E1003.29
G1 X87.49 Y97.26 E1003.457
G1 X85.97 Y97.58 E1003.534
G1 X85.18 Y97.78 E1003.575
G1 X84.27 Y98.05 E1003.622
G1 X83.3 Y98.39 E1003.674
G1 X82.2 Y98.85 E1003.733
G1 X81.11 Y99.38 E1003.793
G1 X80.03 Y99.97 E1003.855
G1 X79.25 Y100.46 E1003.901
G1 X78.17 Y101.22 E1003.967
G1 X78.43 Y102.06 E1004.011
G1 X82.21 E1004.199
G1 X85.98 E1004.388
G1 X89.76 E1004.576
G1 X93.53 E1004.764
G1 Y106.79 E1005
G1 Y111.52 E1005.236
G1 Y116.25 E1005.472
G1 X88.76 E1005.71
G1 X83.99 E1005.948
G1 X83.95
G1 X84.64 Y116.65 F9000
; TYPE:WALL-OUTER
G1 X86.82 Y120.5 E1006.169 F600
G1 X88.99 Y124.34 E1006.389
G1 X93.59 E1006.619
G1 X98.2 E1006.848
G1 X102.8 E1007.078
G1 X107.41 E1007.307
G1 X112.01 E1007.537
G1 X116.62 E1007.766
G1 X121.22 E1007.996
G1 X123.46 Y120.6 E1008.214
G1 X125.7 Y116.85 E1008.432
G1 X125.59 Y116.65 E1008.443
G1 X120.96 E1008.674
G1 X116.33 E1008.905
G1 Y111.65 E1009.154
G1 Y106.66 E1009.404
G1 Y101.66 E1009.653
G1 X120.13 E1009.843
G1 X123.93 E1010.032
G1 X127.73 E1010.222
G1 X131.53 E1010.411
G1 X131.62 Y101.38 E1010.426
G1 X130.61 Y100.68 E1010.487
G1 X129.62 Y100.09 E1010.545
G1 X128.56 Y99.53 E1010.605
G1 X127.49 Y99.04 E1010.663
G1 X126.41 Y98.62 E1010.721
G1 X125.33 Y98.27 E1010.778
G1 X124.4 Y98.02 E1010.826
G1 X122.95 Y97.7 E1010.9
G1 X120.42 Y97.11 E1011.029
G1 X118.64 Y96.73 E1011.121
G1 X117.62 Y96.55 E1011.172
G1 X116.33 Y96.36 E1011.237
G1 X114.63 Y96.19 E1011.322
G1 X112.91 Y96.08 E1011.408
G1 X110.6 Y95.98 E1011.523
G1 X107.69 Y95.91 E1011.669
G1 X105.04 Y95.91 E1011.801
G1 X102.24 Y95.91 E1011.941
G1 X98.96 Y96 E1012.104
G1 X96.67 Y96.12 E1012.219
G1 X95.11 Y96.24 E1012.297
G1 X93.48 Y96.42 E1012.379
G1 X92.02 Y96.65 E1012.452
G1 X90.83 Y96.89 E1012.513
G1 X87.57 Y97.65 E1012.68
G1 X86.06 Y97.97 E1012.757
G1 X85.29 Y98.17 E1012.797
G1 X84.39 Y98.43 E1012.843
G1 X83.44 Y98.77 E1012.894
G1 X82.36 Y99.22 E1012.952
G1 X81.29 Y99.73 E1013.011
G1 X80.23 Y100.32 E1013.072
G1 X79.47 Y100.79 E1013.116
G1 X78.64 Y101.38 E1013.167
G1 X78.72 Y101.66 E1013.182
G1 X82.52 E1013.372
G1 X86.33 E1013.562
G1 X90.13 E1013.751
G1 X93.93 E1013.941
G1 Y106.66 E1014.19
G1 Y111.65 E1014.439
G1 Y116.65 E1014.688
G1 X89.3 E1014.919
G1 X84.67 E1015.15
G1 X84.64
G1 X86.11 Y119.26
G1 X83.95 Y116.25 F9000
G1 E1012.15 F1800
G1 Z1.1
G1 X74.5 F9000
G1 X65.06
G1 X55.61
; TYPE:WALL-INNER
G1 Z0.6
G1 E1015.15 F1800
G1 X52.28 E1015.316 F3600
G1 X48.95 E1015.482
G1 Y111.52 E1015.718
G1 Y106.79 E1015.954
G1 Y102.06 E1016.19
G1 X52.56 E1016.37
G1 X56.16 E1016.549
G1 X56.14 Y101.14 E1016.596
G1 X56.17 Y100.86 E1016.609
G1 X56.38 Y99.78 E1016.665
G1 X56.52 Y99.26 E1016.691
G1 X56.7 Y98.72 E1016.72
G1 X56.9 Y98.21 E1016.747
G1 X57.15 Y97.65 E1016.777
G1 X57.4 Y97.13 E1016.806
G1 X58.04 Y95.95 E1016.873
G1 X58.52 Y95.15 E1016.92
G1 X59.04 Y94.36 E1016.967
G1 X59.6 Y93.61 E1017.014
G1 X60.2 Y92.86 E1017.061
G1 X60.78 Y92.19 E1017.106
G1 X61.41 Y91.52 E1017.151
G1 X62.02 Y90.92 E1017.194
G1 X62.61 Y90.37 E1017.234
G1 X63.42 Y89.67 E1017.288
G1 X64.27 Y88.98 E1017.343
G1 X65.15 Y88.32 E1017.397
G1 X66.08 Y87.67 E1017.454
G1 X67.06 Y87.04 E1017.512
G1 X68.06 Y86.45 E1017.57
G1 X69.08 Y85.9 E1017.628
G1 X70.16 Y85.37 E1017.688
G1 X71.59 Y84.76 E1017.766
G1 X73.01 Y84.21 E1017.842
G1 X74.47 Y83.7 E1017.919
G1 X75.96 Y83.23 E1017.997
G1 X77.48 Y82.79 E1018.075
G1 X78.98 Y82.4 E1018.153
G1 X80.5 Y82.03 E1018.231
G1 X81.99 Y81.7 E1018.307
G1 X83.24 Y81.43 E1018.371
G1 X85.45 Y81.03 E1018.483
G1 X86.55 Y80.86 E1018.539
G1 X87.8 Y80.63 E1018.602
G1 X89.49 Y80.37 E1018.687
G1 X91.1 Y80.18 E1018.768
G1 X93.01 Y80.03 E1018.864
G1 X97.86 Y79.83 E1019.106
G1 X102.7 Y79.62 E1019.348
G1 X105.09 Y79.56 E1019.467
G1 X106.63 Y79.59 E1019.544
G1 X110.15 Y79.74 E1019.72
G1 X113.67 Y79.88 E1019.895
G1 X117.19 Y80.03 E1020.071
G1 X119.11 Y80.18 E1020.167
G1 X120.13 Y80.29 E1020.218
G1 X121.81 Y80.52 E1020.303
G1 X123.62 Y80.85 E1020.394
G1 X124.75 Y81.02 E1020.451
G1 X127.01 Y81.43 E1020.566
G1 X129.6 Y82 E1020.699
G1 X131.12 Y82.36 E1020.777
G1 X132.63 Y82.76 E1020.855
G1 X134.13 Y83.18 E1020.932
G1 X135.64 Y83.65 E1021.011
G1 X137.11 Y84.16 E1021.088
G1 X138.54 Y84.71 E1021.165
G1 X140 Y85.33 E1021.244
G1 X141.05 Y85.84 E1021.302
G1 X142.1 Y86.4 E1021.362
G1 X143.09 Y86.98 E1021.419
G1 X144.08 Y87.61 E1021.478
G1 X145 Y88.24 E1021.533
G1 X145.89 Y88.91 E1021.589
G1 X146.76 Y89.61 E1021.645
G1 X147.56 Y90.3 E1021.697
G1 X148.17 Y90.86 E1021.739
G1 X148.78 Y91.46 E1021.781
G1 X149.41 Y92.12 E1021.827
G1 X150.01 Y92.81 E1021.872
G1 X150.58 Y93.51 E1021.918
G1 X151.16 Y94.28 E1021.966
G1 X151.68 Y95.07 E1022.013
G1 X152.19 Y95.91 E1022.061
G1 X152.51 Y96.48 E1022.094
G1 X153.09 Y97.62 E1022.158
G1 X153.33 Y98.16 E1022.188
G1 X153.53 Y98.67 E1022.215
G1 X153.71 Y99.2 E1022.243
G1 X153.87 Y99.75 E1022.272
G1 X154.08 Y100.84 E1022.327
G1 X154.11 Y101.1 E1022.34
G1 X154.1 Y102.06 E1022.388
G1 X157.7 E1022.568
G1 X161.3 E1022.747
G1 Y106.79 E1022.983
G1 Y111.52 E1023.219
G1 Y116.25 E1023.455
G1 X157.97 E1023.621
G1 X154.64 E1023.787
G1 Y120.74 E1024.011
G1 Y125.23 E1024.235
G1 Y129.72 E1024.459
G1 Y134.2 E1024.683
G1 Y138.69 E1024.907
G1 Y143.18 E1025.131
G1 Y147.67 E1025.355
G1 X158.19 E1025.532
G1 X161.73 E1025.709
G1 Y152.42 E1025.946
G1 Y157.16 E1026.182
G1 Y161.91 E1026.419
G1 X156.88 E1026.661
G1 X152.03 E1026.903
G1 X147.18 E1027.145
G1 X142.32 E1027.388
G1 X137.47 E1027.63
G1 X132.62 E1027.872
G1 X127.77 E1028.114
G1 X127.77 Y158.74 E1028.272
G1 X127.76 Y155.57 E1028.43
G1 X126.87 Y155.33 E1028.476
G1 X124.65 Y159.15 E1028.697
G1 X122.43 Y162.97 E1028.917
G1 X120.22 Y166.8 E1029.138
G1 X118 Y170.62 E1029.358
G1 X115.78 Y174.44 E1029.579
G1 X111.52 E1029.792
G1 X107.26 E1030.004
G1 X102.99 E1030.217
G1 X98.73 E1030.429
G1 X94.47 E1030.642
G1 X92.25 Y170.62 E1030.862
G1 X90.03 Y166.8 E1031.083
G1 X87.82 Y162.97 E1031.303
G1 X85.6 Y159.15 E1031.524
G1 X83.38 Y155.33 E1031.744
G1 X82.49 Y155.57 E1031.79
G1 X82.49 Y158.74 E1031.949
G1 X82.48 Y161.91 E1032.107
G1 X77.63 E1032.349
G1 X72.78 E1032.591
G1 X67.93 E1032.833
G1 X63.07 E1033.075
G1 X58.22 E1033.317
G1 X53.37 E1033.559
G1 X48.52 E1033.801
G1 Y157.16 E1034.038
G1 Y152.42 E1034.275
G1 Y147.67 E1034.512
G1 X52.07 E1034.689
G1 X55.61 E1034.865
G1 Y143.19 E1035.089
G1 Y138.7 E1035.312
G1 Y134.22 E1035.536
G1 Y129.74 E1035.76
G1 Y125.26 E1035.984
G1 Y120.77 E1036.207
G1 Y116.29 E1036.431
G1 Y116.25
G1 X55.21 Y116.65 F9000
; TYPE:WALL-OUTER
G1 X51.88 E1036.598 F600
G1 X48.55 E1036.764
G1 Y111.65 E1037.013
G1 Y106.66 E1037.262
G1 Y101.66 E1037.511
G1 X52.15 E1037.691
G1 X55.75 E1037.87
G1 X55.74 Y101.12 E1037.898
G1 X55.77 Y100.81 E1037.913
G1 X55.99 Y99.69 E1037.97
G1 X56.14 Y99.15 E1037.998
G1 X56.32 Y98.59 E1038.027
G1 X56.53 Y98.05 E1038.056
G1 X56.78 Y97.5 E1038.086
G1 X57.06 Y96.93 E1038.118
G1 X57.68 Y95.77 E1038.184
G1 X58.18 Y94.94 E1038.232
G1 X58.71 Y94.13 E1038.28
G1 X59.29 Y93.35 E1038.329
G1 X59.88 Y92.62 E1038.376
G1 X60.49 Y91.92 E1038.422
G1 X61.11 Y91.26 E1038.467
G1 X61.73 Y90.64 E1038.511
G1 X62.35 Y90.07 E1038.553
G1 X63.16 Y89.37 E1038.606
G1 X64.02 Y88.67 E1038.662
G1 X64.92 Y87.99 E1038.718
G1 X65.87 Y87.33 E1038.775
G1 X66.84 Y86.71 E1038.833
G1 X67.85 Y86.11 E1038.892
G1 X68.91 Y85.54 E1038.952
G1 X69.99 Y85.01 E1039.012
G1 X71.44 Y84.39 E1039.09
G1 X72.86 Y83.84 E1039.167
G1 X74.34 Y83.32 E1039.245
G1 X75.85 Y82.84 E1039.324
G1 X77.37 Y82.41 E1039.402
G1 X78.88 Y82.01 E1039.481
G1 X80.4 Y81.65 E1039.558
G1 X81.91 Y81.31 E1039.635
G1 X83.17 Y81.04 E1039.7
G1 X85.39 Y80.64 E1039.812
G1 X86.48 Y80.47 E1039.868
G1 X87.73 Y80.24 E1039.931
G1 X89.44 Y79.97 E1040.017
G1 X91.06 Y79.78 E1040.099
G1 X92.97 Y79.63 E1040.194
G1 X97.83 Y79.43 E1040.437
G1 X102.69 Y79.22 E1040.68
G1 X105.09 Y79.16 E1040.799
G1 X106.63 Y79.19 E1040.876
G1 X110.16 Y79.34 E1041.052
G1 X113.7 Y79.48 E1041.229
G1 X117.23 Y79.63 E1041.405
G1 X119.14 Y79.78 E1041.501
G1 X120.19 Y79.89 E1041.554
G1 X121.88 Y80.13 E1041.639
G1 X123.68 Y80.45 E1041.73
G1 X124.81 Y80.63 E1041.787
G1 X127.09 Y81.04 E1041.903
G1 X129.69 Y81.61 E1042.036
G1 X131.21 Y81.97 E1042.114
G1 X132.74 Y82.37 E1042.192
G1 X134.25 Y82.8 E1042.271
G1 X135.76 Y83.27 E1042.349
G1 X137.24 Y83.78 E1042.428
G1 X138.71 Y84.34 E1042.506
G1 X140.17 Y84.97 E1042.585
G1 X141.23 Y85.48 E1042.644
G1 X142.29 Y86.05 E1042.704
G1 X143.31 Y86.64 E1042.763
G1 X144.3 Y87.27 E1042.821
G1 X145.23 Y87.92 E1042.878
G1 X146.14 Y88.6 E1042.935
G1 X147.01 Y89.29 E1042.99
G1 X147.83 Y90.01 E1043.045
G1 X148.45 Y90.57 E1043.087
G1 X149.07 Y91.19 E1043.13
G1 X149.7 Y91.85 E1043.175
G1 X150.31 Y92.54 E1043.221
G1 X150.9 Y93.27 E1043.269
G1 X151.48 Y94.05 E1043.317
G1 X152.03 Y94.86 E1043.366
G1 X152.53 Y95.69 E1043.414
G1 X152.86 Y96.3 E1043.449
G1 X153.44 Y97.44 E1043.512
G1 X153.69 Y97.99 E1043.543
G1 X153.91 Y98.55 E1043.572
G1 X154.09 Y99.08 E1043.601
G1 X154.26 Y99.67 E1043.631
G1 X154.48 Y100.77 E1043.687
G1 X154.51 Y101.08 E1043.703
G1 X154.5 Y101.66 E1043.732
G1 X158.1 E1043.912
G1 X161.7 E1044.091
G1 Y106.66 E1044.34
G1 Y111.65 E1044.59
G1 Y116.65 E1044.839
G1 X158.37 E1045.005
G1 X155.04 E1045.171
G1 Y121.02 E1045.389
G1 Y125.4 E1045.608
G1 Y129.77 E1045.826
G1 Y134.15 E1046.044
G1 Y138.52 E1046.262
G1 Y142.9 E1046.481
G1 Y147.27 E1046.699
G1 X158.59 E1046.876
G1 X162.13 E1047.053
G1 Y151.03 E1047.241
G1 Y154.79 E1047.428
G1 Y158.55 E1047.616
G1 Y162.31 E1047.803
G1 X157.16 E1048.051
G1 X152.2 E1048.298
G1 X147.23 E1048.546
G1 X142.27 E1048.794
G1 X137.3 E1049.042
G1 X132.34 E1049.289
G1 X127.37 E1049.537
G1 X127.37 Y159.09 E1049.698
G1 X127.36 Y155.87 E1049.858
G1 X127.06 Y155.8 E1049.874
G1 X124.85 Y159.61 E1050.094
G1 X122.64 Y163.42 E1050.313
G1 X120.43 Y167.22 E1050.533
G1 X118.22 Y171.03 E1050.752
G1 X116.01 Y174.84 E1050.972
G1 X111.66 E1051.189
G1 X107.3 E1051.406
G1 X102.95 E1051.624
G1 X98.59 E1051.841
G1 X94.24 E1052.058
G1 X92.03 Y171.03 E1052.278
G1 X89.82 Y167.22 E1052.498
G1 X87.61 Y163.42 E1052.717
G1 X85.4 Y159.61 E1052.937
G1 X83.19 Y155.8 E1053.157
G1 X82.89 Y155.87 E1053.172
G1 X82.89 Y159.09 E1053.333
G1 X82.88 Y162.31 E1053.494
G1 X77.91 E1053.742
G1 X72.95 E1053.989
G1 X67.98 E1054.237
G1 X63.02 E1054.485
G1 X58.05 E1054.733
G1 X53.09 E1054.98
G1 X48.12 E1055.228
G1 Y158.55 E1055.416
G1 Y154.79 E1055.603
G1 Y151.03 E1055.791
G1 Y147.27 E1055.978
G1 X51.67 E1056.155
G1 X55.21 E1056.332
G1 Y142.9 E1056.55
G1 Y138.53 E1056.768
G1 Y134.16 E1056.986
G1 Y129.8 E1057.204
G1 Y125.43 E1057.422
G1 Y121.06 E1057.64
G1 Y116.69 E1057.858
G1 Y116.65
G1 X52.21
G1 X55.61 Y116.25 F9000
G1 E1054.858 F1800
G1 Z1.1
G1 X60.32 Y124.11 F9000
G1 X65.03 Y131.96
G1 X69.73 Y139.82
G1 X74.44 Y147.67
; TYPE:WALL-INNER
G1 Z0.6
G1 E1057.858 F1800
G1 X78.48 E1058.059 F3600
G1 X78.82 Y147.06 E1058.095
G1 X77.07 Y144.21 E1058.262
G1 X75.32 Y141.35 E1058.429
G1 X74.44 Y141.6 E1058.474
G1 Y144.62 E1058.625
G1 Y147.64 E1058.775
G1 Y147.67
G1 X74.84 Y147.27 F9000
; TYPE:WALL-OUTER
G1 X78.24 E1058.945 F600
G1 X78.36 Y147.07 E1058.956
G1 X76.75 Y144.45 E1059.11
G1 X75.13 Y141.82 E1059.264
G1 X74.84 Y141.9 E1059.279
G1 Y144.57 E1059.412
G1 Y147.24 E1059.545
G1 Y147.27
G1 X77.84
G1 X74.44 Y147.67 F9000
G1 E1056.545 F1800
G1 Z1.1
G1 X82.12 Y149.03 F9000
G1 X89.79 Y150.38
G1 X97.47 Y151.74
G1 X105.14 Y153.09
; TYPE:WALL-INNER
G1 Z0.6
G1 E1059.545 F1800
G1 X107.1 Y149.75 E1059.738 F3600
G1 X109.07 Y146.41 E1059.932
G1 X111.03 Y143.06 E1060.125
G1 X112.99 Y139.72 E1060.318
G1 X112.65 Y139.11 E1060.353
G1 X107.69 E1060.601
G1 X102.72 E1060.848
G1 X97.76 E1061.096
G1 X97.41 Y139.71 E1061.13
G1 X99.34 Y143.05 E1061.322
G1 X101.27 Y146.39 E1061.515
G1 X103.19 Y149.72 E1061.707
G1 X105.12 Y153.06 E1061.899
G1 X105.14 Y153.09
G1 X105.15 Y152.3 F9000
; TYPE:WALL-OUTER
G1 X107.61 Y148.1 E1062.142 F600
G1 X110.07 Y143.91 E1062.384
G1 X112.53 Y139.71 E1062.627
G1 X112.41 Y139.51 E1062.639
G1 X107.6 E1062.879
G1 X102.8 E1063.118
G1 X97.99 E1063.358
G1 X97.88 Y139.71 E1063.37
G1 X100.3 Y143.89 E1063.611
G1 X102.71 Y148.08 E1063.852
G1 X105.13 Y152.26 E1064.093
G1 X105.15 Y152.3
G1 X106.66 Y149.71
G1 X105.14 Y153.09 F9000
G1 E1061.093 F1800
G1 Z1.1
G1 X112.81 Y151.74 F9000
G1 X120.48 Y150.38
G1 X128.14 Y149.03
G1 X135.81 Y147.67
; TYPE:WALL-INNER
G1 Z0.6
G1 E1064.093 F1800
G1 Y144.64 E1064.245 F3600
G1 Y141.6 E1064.396
G1 X134.94 Y141.35 E1064.441
G1 X133.19 Y144.21 E1064.608
G1 X131.43 Y147.06 E1064.775
G1 X131.78 Y147.67 E1064.81
G1 X135.77 E1065.01
G1 X135.81
G1 X135.41 Y147.27 F9000
; TYPE:WALL-OUTER
G1 Y144.59 E1065.144 F600
G1 Y141.9 E1065.278
G1 X135.12 Y141.82 E1065.293
G1 X133.51 Y144.45 E1065.447
G1 X131.9 Y147.07 E1065.6
G1 X132.01 Y147.27 E1065.612
G1 X135.37 E1065.779
G1 X135.41
G1 Y144.27
G1 X135.81 Y147.67 F9000
G1 E1062.779 F1800
G1 Z1.1
G1 X136.03 Y142.68 F9000
G1 X133.91 Y138.7
G1 X131.22 Y131.65
G1 X128.53 Y124.61
G1 X125.84 Y117.56
G1 X126.22 Y116.85
G1 X124.31 Y115.83
G1 X120.82 Y115.16
G1 X118.49 Y114.32
; TYPE:WALL-INNER
G1 Z0.6
G1 E1065.779 F1800
G1 X122.82 E1065.995 F3600
G1 X127.16 E1066.212
G1 X131.49 E1066.428
G1 X131.85 Y113.7 E1066.464
G1 X131.5 Y113.09 E1066.498
G1 X127.16 Y113.1 E1066.714
G1 X122.83 Y113.11 E1066.931
G1 X118.49 Y113.12 E1067.147
G1 X118.49 Y114.28 E1067.205
G1 X118.49 Y114.32
G1 X118.89 Y113.92 F9000
; TYPE:WALL-OUTER
G1 X123.01 E1067.411 F600
G1 X127.14 E1067.616
G1 X131.26 E1067.822
G1 X131.39 Y113.69 E1067.835
G1 X131.27 Y113.49 E1067.847
G1 X127.14 Y113.5 E1068.053
G1 X123.02 Y113.51 E1068.258
G1 X118.89 Y113.52 E1068.464
G1 Y113.88 E1068.482
G1 Y113.92
G1 X121.89
G1 X118.49 Y114.32 F9000
G1 X118.62 Y114.66
; TYPE:FILL
G1 X119.87 Y115.91 E1068.571 F3600
G1 X120.43 F9000
G1 X119.18 Y114.66 E1068.659 F3600
G1 X119.75 F9000
G1 X121 Y115.91 E1068.747 F3600
G1 X121.56 F9000
G1 X120.31 Y114.66 E1068.835 F3600
G1 X120.88 F9000
G1 X122.13 Y115.91 E1068.924 F3600
G1 X122.7 F9000
G1 X121.44 Y114.66 E1069.012 F3600
G1 X122.01 F9000
G1 X123.26 Y115.91 E1069.1 F3600
G1 X123.83 F9000
G1 X122.58 Y114.66 E1069.188 F3600
G1 X123.14 F9000
G1 X124.39 Y115.91 E1069.277 F3600
G1 X124.96 F9000
G1 X123.71 Y114.66 E1069.365 F3600
G1 X124.27 F9000
G1 X125.52 Y115.91 E1069.453 F3600
G1 X125.41 Y114.66 F9000
G1 X128.62 Y117.87 E1069.68 F3600
G1 X131.83 Y121.08 E1069.906
G1 X135.04 Y124.29 E1070.133
G1 X138.25 Y127.5 E1070.359
G1 X141.46 Y130.71 E1070.586
G1 X144.67 Y133.92 E1070.812
G1 X147.88 Y137.13 E1071.039
G1 X151.09 Y140.34 E1071.265
G1 X154.3 Y143.55 E1071.492
G1 Y142.99 F9000
G1 X151.15 Y139.84 E1071.714 F3600
G1 X148 Y136.69 E1071.936
G1 X144.86 Y133.55 E1072.158
G1 X141.71 Y130.4 E1072.38
G1 X138.56 Y127.25 E1072.603
G1 X135.41 Y124.1 E1072.825
G1 X132.27 Y120.96 E1073.047
G1 X129.12 Y117.81 E1073.269
G1 X125.97 Y114.66 E1073.491
G1 X126.54 F9000
G1 X130.01 Y118.13 E1073.736 F3600
G1 X133.48 Y121.6 E1073.981
G1 X136.95 Y125.07 E1074.225
G1 X140.42 Y128.54 E1074.47
G1 X143.89 Y132.01 E1074.715
G1 X147.36 Y135.48 E1074.96
G1 X150.83 Y138.95 E1075.204
G1 X154.3 Y142.42 E1075.449
G1 Y141.85 F9000
G1 X150.9 Y138.45 E1075.689 F3600
G1 X147.5 Y135.05 E1075.929
G1 X144.1 Y131.65 E1076.169
G1 X140.7 Y128.26 E1076.409
G1 X137.3 Y124.86 E1076.648
G1 X133.9 Y121.46 E1076.888
G1 X130.5 Y118.06 E1077.128
G1 X127.1 Y114.66 E1077.368
G1 X127.67 F9000
G1 X131 Y117.99 E1077.603 F3600
G1 X134.33 Y121.32 E1077.838
G1 X137.66 Y124.65 E1078.073
G1 X140.99 Y127.98 E1078.308
G1 X144.31 Y131.3 E1078.542
G1 X147.64 Y134.63 E1078.777
G1 X150.97 Y137.96 E1079.012
G1 X154.3 Y141.29 E1079.247
G1 Y140.72 F9000
G1 X151.04 Y137.46 E1079.477 F3600
G1 X147.78 Y134.21 E1079.707
G1 X144.52 Y130.95 E1079.937
G1 X141.27 Y127.69 E1080.167
G1 X138.01 Y124.43 E1080.396
G1 X134.75 Y121.18 E1080.626
G1 X131.49 Y117.92 E1080.856
G1 X128.23 Y114.66 E1081.086
G1 X128.8 F9000
G1 X131.99 Y117.85 E1081.311 F3600
G1 X135.18 Y121.04 E1081.536
G1 X138.36 Y124.22 E1081.761
G1 X141.55 Y127.41 E1081.986
G1 X144.74 Y130.6 E1082.211
G1 X147.93 Y133.79 E1082.436
G1 X151.11 Y136.97 E1082.661
G1 X154.3 Y140.16 E1082.886
G1 Y139.59 F9000
G1 X151.18 Y136.47 E1083.106 F3600
G1 X148.07 Y133.36 E1083.326
G1 X144.95 Y130.24 E1083.546
G1 X141.84 Y127.13 E1083.766
G1 X138.72 Y124.01 E1083.985
G1 X135.6 Y120.89 E1084.205
G1 X132.49 Y117.78 E1084.425
G1 X129.37 Y114.66 E1084.645
G1 X129.93 F9000
G1 X133.41 Y118.14 E1084.891 F3600
G1 X136.89 Y121.62 E1085.136
G1 X140.37 Y125.1 E1085.382
G1 X143.86 Y128.59 E1085.627
G1 X147.34 Y132.07 E1085.873
G1 X150.82 Y135.55 E1086.118
G1 X154.3 Y139.03 E1086.364
G1 Y138.46 F9000
G1 X150.9 Y135.06 E1086.604 F3600
G1 X147.5 Y131.66 E1086.844
G1 X144.1 Y128.26 E1087.084
G1 X140.7 Y124.86 E1087.324
G1 X137.3 Y121.46 E1087.564
G1 X133.9 Y118.06 E1087.804
G1 X130.5 Y114.66 E1088.044
G1 X131.06 F9000
G1 X134.38 Y117.98 E1088.278 F3600
G1 X137.7 Y121.3 E1088.512
G1 X141.02 Y124.62 E1088.746
G1 X144.34 Y127.94 E1088.981
G1 X147.66 Y131.26 E1089.215
G1 X150.98 Y134.58 E1089.449
G1 X154.3 Y137.9 E1089.683
G1 Y137.33 F9000
G1 X151.06 Y134.09 E1089.912 F3600
G1 X147.82 Y130.85 E1090.14
G1 X144.58 Y127.61 E1090.369
G1 X141.35 Y124.38 E1090.597
G1 X138.11 Y121.14 E1090.826
G1 X134.87 Y117.9 E1091.054
G1 X131.63 Y114.66 E1091.283
G1 X131.87 Y114.33 F9000
G1 X135.07 Y117.53 E1091.509 F3600
G1 X138.28 Y120.74 E1091.735
G1 X141.48 Y123.94 E1091.961
G1 X144.69 Y127.15 E1092.187
G1 X147.89 Y130.35 E1092.413
G1 X151.1 Y133.56 E1092.639
G1 X154.3 Y136.76 E1092.865
G1 Y136.2 F9000
G1 X151.13 Y133.03 E1093.089 F3600
G1 X147.95 Y129.85 E1093.313
G1 X144.78 Y126.68 E1093.537
G1 X141.6 Y123.5 E1093.761
G1 X138.43 Y120.33 E1093.985
G1 X135.25 Y117.15 E1094.209
G1 X132.08 Y113.98 E1094.433
G1 X132.07 Y113.41 F9000
G1 X135.25 Y116.58 E1094.657 F3600
G1 X138.42 Y119.76 E1094.881
G1 X141.6 Y122.93 E1095.105
G1 X144.77 Y126.11 E1095.329
G1 X147.95 Y129.28 E1095.553
G1 X151.12 Y132.46 E1095.777
G1 X154.3 Y135.63 E1096.001
G1 Y135.07 F9000
G1 X151.03 Y131.8 E1096.232 F3600
G1 X147.77 Y128.54 E1096.462
G1 X144.5 Y125.27 E1096.693
G1 X141.23 Y122 E1096.923
G1 X137.97 Y118.74 E1097.154
G1 X134.7 Y115.47 E1097.384
G1 X131.43 Y112.2 E1097.615
G1 X128.16 Y108.93 E1097.845
G1 X124.9 Y105.67 E1098.076
G1 X121.63 Y102.4 E1098.306
G1 X121.07 F9000
G1 X124.52 Y105.85 E1098.55 F3600
G1 X127.97 Y109.3 E1098.793
G1 X131.42 Y112.75 E1099.037
G1 X130.86 F9000
G1 X127.41 Y109.3 E1099.28 F3600
G1 X123.95 Y105.85 E1099.524
G1 X120.5 Y102.4 E1099.767
G1 X119.94 F9000
G1 X123.39 Y105.85 E1100.011 F3600
G1 X126.84 Y109.31 E1100.254
G1 X130.29 Y112.76 E1100.498
G1 X129.73 F9000
G1 X126.28 Y109.31 E1100.741 F3600
G1 X122.82 Y105.85 E1100.985
G1 X119.37 Y102.4 E1101.228
G1 X118.81 F9000
G1 X122.26 Y105.85 E1101.472 F3600
G1 X125.71 Y109.31 E1101.715
G1 X129.16 Y112.76 E1101.959
G1 X128.6 Y112.76 F9000
G1 X125.15 Y109.31 E1102.203 F3600
G1 X121.69 Y105.85 E1102.446
G1 X118.24 Y102.4 E1102.69
G1 X117.67 F9000
G1 X121.12 Y105.85 E1102.934 F3600
G1 X124.58 Y109.31 E1103.177
G1 X128.03 Y112.76 E1103.421
G1 X127.47 Y112.76 F9000
G1 X124.02 Y109.31 E1103.665 F3600
G1 X120.56 Y105.85 E1103.908
G1 X117.11 Y102.4 E1104.152
G1 X117.06 Y102.92 F9000
G1 X120.34 Y106.2 E1104.383 F3600
G1 X123.62 Y109.48 E1104.615
G1 X126.9 Y112.76 E1104.846
G1 X126.34 Y112.76 F9000
G1 X123.25 Y109.67 E1105.064 F3600
G1 X120.15 Y106.58 E1105.282
G1 X117.06 Y103.49 E1105.5
G1 Y104.05 F9000
G1 X119.96 Y106.95 E1105.705 F3600
G1 X122.87 Y109.86 E1105.91
G1 X125.77 Y112.76 E1106.115
G1 X125.21 Y112.77 F9000
G1 X122.49 Y110.05 E1106.307 F3600
G1 X119.78 Y107.34 E1106.498
G1 X117.06 Y104.62 E1106.69
G1 Y105.18 F9000
G1 X119.59 Y107.71 E1106.868 F3600
G1 X122.12 Y110.24 E1107.047
G1 X124.65 Y112.77 E1107.225
G1 X124.08 Y112.77 F9000
G1 X120.57 Y109.26 E1107.473 F3600
G1 X117.06 Y105.75 E1107.72
G1 Y106.32 F9000
G1 X120.29 Y109.55 E1107.948 F3600
G1 X123.52 Y112.77 E1108.175
G1 X122.95 Y112.77 F9000
G1 X120.01 Y109.83 E1108.383 F3600
G1 X117.06 Y106.88 E1108.59
G1 Y107.45 F9000
G1 X119.73 Y110.11 E1108.778 F3600
G1 X122.39 Y112.77 E1108.966
G1 X121.82 Y112.77 F9000
G1 X119.44 Y110.39 E1109.134 F3600
G1 X117.06 Y108.01 E1109.301
G1 Y108.58 F9000
G1 X121.26 Y112.77 E1109.597 F3600
G1 X120.69 Y112.77 F9000
G1 X117.06 Y109.14 E1109.853 F3600
G1 Y109.71 F9000
G1 X120.13 Y112.78 E1110.069 F3600
G1 X119.56 F9000
G1 X117.06 Y110.28 E1110.246 F3600
G1 Y110.84 F9000
G1 X119 Y112.78 E1110.382 F3600
G1 X118.43 F9000
G1 X117.06 Y111.41 E1110.479 F3600
G1 Y111.97 F9000
G1 X118.15 Y113.06 E1110.555 F3600
G1 X118.15 Y113.62 F9000
G1 X117.06 Y112.54 E1110.632 F3600
G1 Y113.1 F9000
G1 X118.15 Y114.19 E1110.709 F3600
G1 X117.06 Y114.24 F9000
G1 X118.74 Y115.91 E1110.827 F3600
G1 X118.17 F9000
G1 X117.06 Y114.8 E1110.905 F3600
G1 Y115.37 F9000
G1 X117.6 Y115.91 E1110.943 F3600
G1 X119.3 F9000
G1 X117.06 Y113.67 E1111.101 F3600
G1 X124.84 Y114.66 F9000
G1 X128.11 Y117.93 E1111.332 F3600
G1 X131.39 Y121.21 E1111.563
G1 X134.66 Y124.48 E1111.794
G1 X137.93 Y127.75 E1112.025
G1 X141.21 Y131.03 E1112.255
G1 X144.48 Y134.3 E1112.486
G1 X147.75 Y137.57 E1112.717
G1 X151.03 Y140.85 E1112.948
G1 X154.3 Y144.12 E1113.179
G1 Y144.68 F9000
G1 X150.83 Y141.21 E1113.424 F3600
G1 X147.36 Y137.74 E1113.669
G1 X143.89 Y134.27 E1113.914
G1 X140.42 Y130.8 E1114.159
G1 X136.94 Y127.32 E1114.404
G1 X133.47 Y123.85 E1114.649
G1 X130 Y120.38 E1114.894
G1 X126.53 Y116.91 E1115.139
G1 X126.32 Y117.26 F9000
G1 X129.82 Y120.76 E1115.386 F3600
G1 X133.32 Y124.26 E1115.633
G1 X136.81 Y127.76 E1115.879
G1 X140.31 Y131.26 E1116.126
G1 X143.81 Y134.75 E1116.373
G1 X147.31 Y138.25 E1116.62
G1 X150.8 Y141.75 E1116.866
G1 X154.3 Y145.25 E1117.113
G1 Y145.81 F9000
G1 X150.78 Y142.29 E1117.362 F3600
G1 X147.25 Y138.76 E1117.611
G1 X143.73 Y135.24 E1117.859
G1 X140.2 Y131.72 E1118.108
G1 X136.68 Y128.19 E1118.357
G1 X133.15 Y124.67 E1118.606
G1 X129.63 Y121.14 E1118.854
G1 X126.1 Y117.62 E1119.103
G1 X125.89 Y117.97 F9000
G1 X129.05 Y121.13 E1119.326 F3600
G1 X132.2 Y124.28 E1119.548
G1 X135.36 Y127.44 E1119.771
G1 X138.52 Y130.6 E1119.994
G1 X141.67 Y133.75 E1120.216
G1 X144.83 Y136.91 E1120.439
G1 X147.99 Y140.07 E1120.662
G1 X151.14 Y143.22 E1120.884
G1 X154.3 Y146.38 E1121.107
G1 Y146.95 F9000
G1 X151.12 Y143.77 E1121.331 F3600
G1 X147.94 Y140.59 E1121.556
G1 X144.76 Y137.41 E1121.78
G1 X141.58 Y134.23 E1122.004
G1 X138.4 Y131.05 E1122.229
G1 X135.22 Y127.87 E1122.453
G1 X132.04 Y124.69 E1122.677
G1 X128.86 Y121.51 E1122.902
G1 X125.68 Y118.33 E1123.126
G1 X125.47 Y118.68 F9000
G1 X128.67 Y121.88 E1123.352 F3600
G1 X131.88 Y125.09 E1123.578
G1 X135.08 Y128.29 E1123.804
G1 X138.28 Y131.49 E1124.03
G1 X141.49 Y134.7 E1124.256
G1 X144.69 Y137.9 E1124.482
G1 X147.89 Y141.1 E1124.708
G1 X151.1 Y144.31 E1124.934
G1 X154.3 Y147.51 E1125.16
G1 X154.8 Y148.01 F9000
G1 X158.1 Y151.31 E1125.393 F3600
G1 X161.39 Y154.6 E1125.626
G1 Y154.04 F9000
G1 X158.38 Y151.03 E1125.839 F3600
G1 X155.37 Y148.01 E1126.051
G1 X155.93 F9000
G1 X158.66 Y150.74 E1126.244 F3600
G1 X161.39 Y153.47 E1126.436
G1 Y152.91 F9000
G1 X158.95 Y150.46 E1126.609 F3600
G1 X156.5 Y148.01 E1126.781
G1 X157.06 F9000
G1 X159.23 Y150.18 E1126.934 F3600
G1 X161.39 Y152.34 E1127.086
G1 Y151.78 F9000
G1 X157.63 Y148.01 E1127.352 F3600
G1 X158.2 F9000
G1 X161.39 Y151.21 E1127.577 F3600
G1 Y150.64 F9000
G1 X158.76 Y148.01 E1127.763 F3600
G1 X159.33 F9000
G1 X161.39 Y150.08 E1127.909 F3600
G1 Y149.51 F9000
G1 X159.89 Y148.01 E1128.015 F3600
G1 X160.46 F9000
G1 X161.39 Y148.95 E1128.08 F3600
G1 Y148.38 F9000
G1 X161.02 Y148.01 E1128.106 F3600
G1 X161.39 Y155.17 F9000
G1 X158.11 Y151.88 E1128.338 F3600
G1 X154.82 Y148.6 E1128.57
G1 X151.54 Y145.31 E1128.801
G1 X148.25 Y142.03 E1129.033
G1 X144.97 Y138.74 E1129.265
G1 X141.68 Y135.46 E1129.497
G1 X138.4 Y132.17 E1129.729
G1 X135.11 Y128.89 E1129.961
G1 X131.83 Y125.6 E1130.192
G1 X128.54 Y122.32 E1130.424
G1 X125.26 Y119.03 E1130.656
G1 X125.04 Y119.39 F9000
G1 X128.34 Y122.69 E1130.889 F3600
G1 X131.65 Y126 E1131.122
G1 X134.95 Y129.3 E1131.356
G1 X138.26 Y132.61 E1131.589
G1 X141.56 Y135.91 E1131.822
G1 X144.87 Y139.22 E1132.055
G1 X148.17 Y142.52 E1132.288
G1 X151.48 Y145.83 E1132.521
G1 X154.78 Y149.13 E1132.755
G1 X158.09 Y152.44 E1132.988
G1 X161.39 Y155.74 E1133.221
G1 Y156.3 F9000
G1 X158.07 Y152.98 E1133.455 F3600
G1 X154.74 Y149.65 E1133.69
G1 X151.42 Y146.33 E1133.924
G1 X148.1 Y143.01 E1134.159
G1 X144.77 Y139.68 E1134.393
G1 X141.45 Y136.36 E1134.628
G1 X138.12 Y133.03 E1134.862
G1 X134.8 Y129.71 E1135.097
G1 X131.48 Y126.39 E1135.331
G1 X128.15 Y123.06 E1135.566
G1 X124.83 Y119.74 E1135.8
G1 X124.62 Y120.1 F9000
G1 X127.96 Y123.44 E1136.036 F3600
G1 X131.31 Y126.79 E1136.272
G1 X134.65 Y130.13 E1136.508
G1 X137.99 Y133.47 E1136.744
G1 X141.33 Y136.81 E1136.98
G1 X144.68 Y140.16 E1137.215
G1 X148.02 Y143.5 E1137.451
G1 X151.36 Y146.84 E1137.687
G1 X154.7 Y150.18 E1137.923
G1 X158.05 Y153.53 E1138.159
G1 X161.39 Y156.87 E1138.395
G1 Y157.43 F9000
G1 X158.03 Y154.07 E1138.632 F3600
G1 X154.67 Y150.71 E1138.869
G1 X151.3 Y147.34 E1139.107
G1 X147.94 Y143.98 E1139.344
G1 X144.58 Y140.62 E1139.581
G1 X141.22 Y137.26 E1139.818
G1 X137.86 Y133.9 E1140.055
G1 X134.5 Y130.54 E1140.292
G1 X131.13 Y127.17 E1140.53
G1 X127.77 Y123.81 E1140.767
G1 X124.41 Y120.45 E1141.004
G1 X124.2 Y120.8 F9000
G1 X127.58 Y124.18 E1141.243 F3600
G1 X130.96 Y127.56 E1141.481
G1 X134.34 Y130.95 E1141.72
G1 X137.72 Y134.33 E1141.958
G1 X141.1 Y137.71 E1142.197
G1 X144.49 Y141.09 E1142.435
G1 X147.87 Y144.47 E1142.674
G1 X151.25 Y147.85 E1142.912
G1 X154.63 Y151.24 E1143.151
G1 X158.01 Y154.62 E1143.389
G1 X161.39 Y158 E1143.628
G1 X161.39 Y158.57 F9000
G1 X157.99 Y155.17 E1143.868 F3600
G1 X154.59 Y151.77 E1144.108
G1 X151.19 Y148.37 E1144.348
G1 X147.79 Y144.97 E1144.588
G1 X144.39 Y141.57 E1144.828
G1 X140.98 Y138.16 E1145.068
G1 X137.58 Y134.76 E1145.308
G1 X134.18 Y131.36 E1145.548
G1 X130.78 Y127.96 E1145.788
G1 X127.38 Y124.56 E1146.028
G1 X123.98 Y121.16 E1146.268
G1 X123.77 Y121.51 F9000
G1 X127.19 Y124.93 E1146.509 F3600
G1 X130.61 Y128.35 E1146.751
G1 X134.03 Y131.77 E1146.992
G1 X137.45 Y135.19 E1147.233
G1 X140.87 Y138.61 E1147.474
G1 X144.29 Y142.03 E1147.716
G1 X147.71 Y145.45 E1147.957
G1 X151.13 Y148.87 E1148.198
G1 X154.55 Y152.29 E1148.439
G1 X157.97 Y155.71 E1148.681
G1 X161.39 Y159.13 E1148.922
G1 Y159.7 F9000
G1 X157.95 Y156.26 E1149.165 F3600
G1 X154.51 Y152.82 E1149.407
G1 X151.07 Y149.38 E1149.65
G1 X147.63 Y145.94 E1149.893
G1 X144.19 Y142.5 E1150.135
G1 X140.76 Y139.06 E1150.378
G1 X137.32 Y135.62 E1150.62
G1 X133.88 Y132.18 E1150.863
G1 X130.44 Y128.74 E1151.106
G1 X127 Y125.3 E1151.348
G1 X123.56 Y121.86 E1151.591
G1 X123.35 Y122.22 F9000
G1 X126.81 Y125.68 E1151.835 F3600
G1 X130.27 Y129.14 E1152.079
G1 X133.72 Y132.59 E1152.323
G1 X137.18 Y136.05 E1152.567
G1 X140.64 Y139.51 E1152.811
G1 X144.1 Y142.97 E1153.056
G1 X147.56 Y146.43 E1153.3
G1 X151.02 Y149.89 E1153.544
G1 X154.47 Y153.34 E1153.788
G1 X157.93 Y156.8 E1154.032
G1 X161.39 Y160.26 E1154.276
G1 Y160.83 F9000
G1 X157.91 Y157.35 E1154.521 F3600
G1 X154.44 Y153.87 E1154.767
G1 X150.96 Y150.4 E1155.012
G1 X147.48 Y146.92 E1155.257
G1 X144 Y143.44 E1155.503
G1 X140.53 Y139.96 E1155.748
G1 X137.05 Y136.48 E1155.994
G1 X133.57 Y133 E1156.239
G1 X130.09 Y129.53 E1156.484
G1 X126.62 Y126.05 E1156.73
G1 X123.14 Y122.57 E1156.975
G1 X122.93 Y122.93 F9000
G1 X126.43 Y126.43 E1157.222 F3600
G1 X129.92 Y129.92 E1157.468
G1 X133.42 Y133.42 E1157.715
G1 X136.92 Y136.92 E1157.962
G1 X140.41 Y140.41 E1158.209
G1 X143.91 Y143.91 E1158.455
G1 X147.4 Y147.4 E1158.702
G1 X150.9 Y150.9 E1158.949
G1 X154.4 Y154.4 E1159.196
G1 X157.89 Y157.89 E1159.442
G1 X161.39 Y161.39 E1159.689
G1 X161.01 Y161.57 F9000
G1 X157.53 Y158.09 E1159.935 F3600
G1 X154.05 Y154.61 E1160.18
G1 X150.56 Y151.13 E1160.426
G1 X147.08 Y147.65 E1160.672
G1 X143.6 Y144.17 E1160.917
G1 X140.12 Y140.68 E1161.163
G1 X136.64 Y137.2 E1161.408
G1 X133.16 Y133.72 E1161.654
G1 X129.67 Y130.24 E1161.9
G1 X126.19 Y126.76 E1162.145
G1 X122.71 Y123.28 E1162.391
G1 X122.5 Y123.63 F9000
G1 X125.95 Y127.08 E1162.634 F3600
G1 X129.4 Y130.53 E1162.878
G1 X132.85 Y133.98 E1163.121
G1 X136.3 Y137.43 E1163.364
G1 X139.75 Y140.88 E1163.608
G1 X143.19 Y144.32 E1163.851
G1 X146.64 Y147.77 E1164.095
G1 X150.09 Y151.22 E1164.338
G1 X153.54 Y154.67 E1164.581
G1 X156.99 Y158.12 E1164.825
G1 X160.44 Y161.57 E1165.068
G1 X159.88 F9000
G1 X156.46 Y158.15 E1165.309 F3600
G1 X153.05 Y154.74 E1165.55
G1 X149.63 Y151.32 E1165.791
G1 X146.21 Y147.9 E1166.032
G1 X142.79 Y144.49 E1166.273
G1 X139.38 Y141.07 E1166.515
G1 X135.96 Y137.66 E1166.756
G1 X132.54 Y134.24 E1166.997
G1 X129.12 Y130.82 E1167.238
G1 X125.71 Y127.41 E1167.479
G1 X122.29 Y123.99 E1167.72
G1 X122.08 Y124.34 F9000
G1 X125.46 Y127.72 E1167.959 F3600
G1 X128.85 Y131.11 E1168.198
G1 X132.23 Y134.49 E1168.436
G1 X135.62 Y137.88 E1168.675
G1 X139 Y141.26 E1168.914
G1 X142.39 Y144.65 E1169.153
G1 X145.77 Y148.03 E1169.392
G1 X149.16 Y151.42 E1169.631
G1 X152.54 Y154.8 E1169.869
G1 X155.93 Y158.19 E1170.108
G1 X159.31 Y161.57 E1170.347
G1 X158.74 F9000
G1 X155.39 Y158.22 E1170.584 F3600
G1 X152.04 Y154.86 E1170.82
G1 X148.68 Y151.51 E1171.057
G1 X145.33 Y148.16 E1171.293
G1 X141.98 Y144.81 E1171.53
G1 X138.63 Y141.45 E1171.766
G1 X135.28 Y138.1 E1172.003
G1 X131.93 Y134.75 E1172.239
G1 X128.57 Y131.4 E1172.476
G1 X125.22 Y128.04 E1172.712
G1 X121.87 Y124.69 E1172.949
G1 X121.65 Y125.05 F9000
G1 X124.97 Y128.37 E1173.183 F3600
G1 X128.29 Y131.69 E1173.418
G1 X131.61 Y135.01 E1173.652
G1 X134.93 Y138.33 E1173.886
G1 X138.25 Y141.65 E1174.12
G1 X141.58 Y144.97 E1174.355
G1 X144.9 Y148.29 E1174.589
G1 X148.22 Y151.61 E1174.823
G1 X151.54 Y154.93 E1175.057
G1 X154.86 Y158.25 E1175.292
G1 X158.18 Y161.57 E1175.526
G1 X157.61 F9000
G1 X154.29 Y158.25 E1175.76 F3600
G1 X150.98 Y154.94 E1175.994
G1 X147.66 Y151.62 E1176.228
G1 X144.34 Y148.3 E1176.462
G1 X141.02 Y144.98 E1176.696
G1 X137.71 Y141.67 E1176.931
G1 X134.39 Y138.35 E1177.165
G1 X131.07 Y135.03 E1177.399
G1 X127.75 Y131.71 E1177.633
G1 X124.44 Y128.4 E1177.867
G1 X121.12 Y125.08 E1178.101
G1 X120.55 F9000
G1 X123.87 Y128.4 E1178.335 F3600
G1 X127.19 Y131.71 E1178.569
G1 X130.5 Y135.03 E1178.803
G1 X133.82 Y138.35 E1179.037
G1 X137.14 Y141.67 E1179.271
G1 X140.46 Y144.98 E1179.506
G1 X143.78 Y148.3 E1179.74
G1 X147.1 Y151.62 E1179.974
G1 X150.41 Y154.94 E1180.208
G1 X153.73 Y158.25 E1180.442
G1 X157.05 Y161.57 E1180.676
G1 X156.48 F9000
G1 X153.16 Y158.25 E1180.91 F3600
G1 X149.85 Y154.94 E1181.144
G1 X146.53 Y151.62 E1181.378
G1 X143.21 Y148.3 E1181.612
G1 X139.89 Y144.98 E1181.846
G1 X136.58 Y141.67 E1182.081
G1 X133.26 Y138.35 E1182.315
G1 X129.94 Y135.03 E1182.549
G1 X126.62 Y131.71 E1182.783
G1 X123.31 Y128.4 E1183.017
G1 X119.99 Y125.08 E1183.251
G1 X119.42 F9000
G1 X122.64 Y128.3 E1183.478 F3600
G1 X125.85 Y131.51 E1183.705
G1 X129.07 Y134.73 E1183.932
G1 X132.28 Y137.94 E1184.159
G1 X135.5 Y141.16 E1184.386
G1 X134.76 Y140.98 F9000
G1 X131.58 Y137.8 E1184.61 F3600
G1 X128.4 Y134.62 E1184.835
G1 X125.21 Y131.44 E1185.059
G1 X122.03 Y128.26 E1185.284
G1 X118.85 Y125.08 E1185.508
G1 X118.29 F9000
G1 X121.54 Y128.33 E1185.737 F3600
G1 X124.79 Y131.58 E1185.967
G1 X128.05 Y134.83 E1186.196
G1 X131.3 Y138.08 E1186.426
G1 X134.55 Y141.33 E1186.655
G1 X134.33 Y141.69 F9000
G1 X131.01 Y138.37 E1186.889 F3600
G1 X127.69 Y135.05 E1187.124
G1 X124.36 Y131.72 E1187.358
G1 X121.04 Y128.4 E1187.593
G1 X117.72 Y125.08 E1187.827
G1 X117.16 F9000
G1 X120.55 Y128.47 E1188.066 F3600
G1 X123.94 Y131.86 E1188.305
G1 X127.34 Y135.26 E1188.545
G1 X130.73 Y138.65 E1188.784
G1 X134.12 Y142.04 E1189.023
G1 X133.9 Y142.39 F9000
G1 X130.44 Y138.93 E1189.267 F3600
G1 X126.98 Y135.47 E1189.511
G1 X123.51 Y132 E1189.756
G1 X120.05 Y128.54 E1190
G1 X116.59 Y125.08 E1190.244
G1 X116.03 F9000
G1 X119.56 Y128.61 E1190.493 F3600
G1 X123.09 Y132.14 E1190.742
G1 X126.63 Y135.68 E1190.992
G1 X130.16 Y139.21 E1191.241
G1 X133.69 Y142.74 E1191.49
G1 X133.47 Y143.09 F9000
G1 X130.47 Y140.09 E1191.702 F3600
G1 X127.47 Y137.09 E1191.914
G1 X124.47 Y134.09 E1192.126
G1 X121.46 Y131.08 E1192.337
G1 X118.46 Y128.08 E1192.549
G1 X115.46 Y125.08 E1192.761
G1 X114.89 F9000
G1 X117.95 Y128.14 E1192.977 F3600
G1 X121.01 Y131.2 E1193.193
G1 X124.07 Y134.26 E1193.409
G1 X127.13 Y137.32 E1193.624
G1 X130.19 Y140.38 E1193.84
G1 X133.25 Y143.44 E1194.056
G1 X133.04 Y143.79 F9000
G1 X129.92 Y140.67 E1194.276 F3600
G1 X126.8 Y137.55 E1194.496
G1 X123.69 Y134.44 E1194.717
G1 X120.57 Y131.32 E1194.937
G1 X117.45 Y128.2 E1195.157
G1 X114.33 Y125.08 E1195.377
G1 X113.76 F9000
G1 X116.94 Y128.26 E1195.601 F3600
G1 X120.12 Y131.43 E1195.825
G1 X123.3 Y134.61 E1196.049
G1 X126.47 Y137.79 E1196.273
G1 X129.65 Y140.96 E1196.497
G1 X132.83 Y144.14 E1196.721
G1 X132.61 Y144.49 F9000
G1 X129.38 Y141.26 E1196.949 F3600
G1 X126.14 Y138.02 E1197.178
G1 X122.91 Y134.79 E1197.406
G1 X119.67 Y131.55 E1197.634
G1 X116.44 Y128.32 E1197.863
G1 X113.2 Y125.08 E1198.091
G1 X112.63 F9000
G1 X115.92 Y128.37 E1198.323 F3600
G1 X119.22 Y131.67 E1198.556
G1 X122.51 Y134.96 E1198.788
G1 X125.8 Y138.25 E1199.02
G1 X129.1 Y141.55 E1199.253
G1 X132.39 Y144.84 E1199.485
G1 X132.18 Y145.19 F9000
G1 X128.83 Y141.84 E1199.722 F3600
G1 X125.48 Y138.49 E1199.958
G1 X122.13 Y135.14 E1200.195
G1 X118.77 Y131.78 E1200.432
G1 X115.42 Y128.43 E1200.668
G1 X112.07 Y125.08 E1200.905
G1 X111.5 F9000
G1 X114.91 Y128.49 E1201.146 F3600
G1 X118.32 Y131.9 E1201.386
G1 X121.73 Y135.31 E1201.627
G1 X125.14 Y138.72 E1201.867
G1 X128.55 Y142.13 E1202.108
G1 X131.96 Y145.54 E1202.348
G1 X131.75 Y145.89 F9000
G1 X128.28 Y142.42 E1202.593 F3600
G1 X124.81 Y138.95 E1202.838
G1 X121.35 Y135.49 E1203.083
G1 X117.88 Y132.02 E1203.327
G1 X114.41 Y128.55 E1203.572
G1 X110.94 Y125.08 E1203.817
G1 X110.37 F9000
G1 X113.9 Y128.61 E1204.066 F3600
G1 X117.42 Y132.13 E1204.315
G1 X120.95 Y135.66 E1204.564
G1 X124.48 Y139.19 E1204.812
G1 X128 Y142.71 E1205.061
G1 X131.53 Y146.24 E1205.31
G1 X131.32 Y146.59 F9000
G1 X128.25 Y143.52 E1205.527 F3600
G1 X125.17 Y140.44 E1205.744
G1 X122.1 Y137.37 E1205.961
G1 X119.02 Y134.3 E1206.177
G1 X115.95 Y131.23 E1206.394
G1 X112.87 Y128.15 E1206.611
G1 X109.8 Y125.08 E1206.828
G1 X109.24 F9000
G1 X112.36 Y128.2 E1207.048 F3600
G1 X115.49 Y131.33 E1207.269
G1 X118.61 Y134.45 E1207.489
G1 X121.73 Y137.57 E1207.71
G1 X124.85 Y140.69 E1207.93
G1 X127.98 Y143.82 E1208.151
G1 X131.1 Y146.94 E1208.371
G1 X131.53 Y147.94 F9000
G1 X128.26 Y144.67 E1208.601 F3600
G1 X125 Y141.41 E1208.832
G1 X121.73 Y138.14 E1209.062
G1 X118.47 Y134.88 E1209.293
G1 X115.2 Y131.61 E1209.523
G1 X111.94 Y128.35 E1209.754
G1 X108.67 Y125.08 E1209.984
G1 X108.11 F9000
G1 X111.43 Y128.4 E1210.218 F3600
G1 X114.74 Y131.71 E1210.452
G1 X118.06 Y135.03 E1210.686
G1 X121.38 Y138.35 E1210.92
G1 X124.7 Y141.67 E1211.154
G1 X128.01 Y144.98 E1211.389
G1 X131.33 Y148.3 E1211.623
G1 X134.65 Y151.62 E1211.857
G1 X137.97 Y154.94 E1212.091
G1 X141.28 Y158.25 E1212.325
G1 X144.6 Y161.57 E1212.559
G1 X145.17 F9000
G1 X141.78 Y158.18 E1212.798 F3600
G1 X138.39 Y154.79 E1213.037
G1 X135 Y151.4 E1213.276
G1 X131.61 Y148.01 E1213.515
G1 X132.17 F9000
G1 X135.56 Y151.4 E1213.754 F3600
G1 X138.95 Y154.79 E1213.994
G1 X142.34 Y158.18 E1214.233
G1 X145.73 Y161.57 E1214.472
G1 X146.3 F9000
G1 X142.91 Y158.18 E1214.711 F3600
G1 X139.52 Y154.79 E1214.951
G1 X136.13 Y151.4 E1215.19
G1 X132.74 Y148.01 E1215.429
G1 X133.31 F9000
G1 X136.7 Y151.4 E1215.668 F3600
G1 X140.09 Y154.79 E1215.907
G1 X143.48 Y158.18 E1216.146
G1 X146.87 Y161.57 E1216.385
G1 X147.43 F9000
G1 X144.04 Y158.18 E1216.624 F3600
G1 X140.65 Y154.79 E1216.864
G1 X137.26 Y151.4 E1217.103
G1 X133.87 Y148.01 E1217.342
G1 X134.44 F9000
G1 X137.83 Y151.4 E1217.581 F3600
G1 X141.22 Y154.79 E1217.821
G1 X144.61 Y158.18 E1218.06
G1 X148 Y161.57 E1218.299
G1 X148.56 F9000
G1 X145.17 Y158.18 E1218.538 F3600
G1 X141.78 Y154.79 E1218.778
G1 X138.39 Y151.4 E1219.017
G1 X135 Y148.01 E1219.256
G1 X135.57 F9000
G1 X138.96 Y151.4 E1219.495 F3600
G1 X142.35 Y154.79 E1219.734
G1 X145.74 Y158.18 E1219.973
G1 X149.13 Y161.57 E1220.212
G1 X149.69 F9000
G1 X146.3 Y158.18 E1220.451 F3600
G1 X142.91 Y154.79 E1220.691
G1 X139.52 Y151.4 E1220.93
G1 X136.13 Y148.01 E1221.169
G1 X136.15 Y147.46 F9000
G1 X139.68 Y150.99 E1221.418 F3600
G1 X143.21 Y154.52 E1221.667
G1 X146.73 Y158.04 E1221.916
G1 X150.26 Y161.57 E1222.165
G1 X150.83 F9000
G1 X147.89 Y158.64 E1222.372 F3600
G1 X144.96 Y155.7 E1222.579
G1 X142.02 Y152.77 E1222.786
G1 X139.09 Y149.83 E1222.993
G1 X136.15 Y146.9 E1223.2
G1 Y146.33 F9000
G1 X139.2 Y149.38 E1223.415 F3600
G1 X142.25 Y152.43 E1223.63
G1 X145.29 Y155.47 E1223.846
G1 X148.34 Y158.52 E1224.061
G1 X151.39 Y161.57 E1224.276
G1 X151.96 F9000
G1 X148.8 Y158.41 E1224.499 F3600
G1 X145.64 Y155.25 E1224.722
G1 X142.47 Y152.09 E1224.945
G1 X139.31 Y148.93 E1225.168
G1 X136.15 Y145.77 E1225.391
G1 Y145.2 F9000
G1 X139.42 Y148.47 E1225.622 F3600
G1 X142.7 Y151.75 E1225.853
G1 X145.97 Y155.02 E1226.084
G1 X149.25 Y158.3 E1226.315
G1 X152.52 Y161.57 E1226.546
G1 X153.09 F9000
G1 X149.7 Y158.18 E1226.785 F3600
G1 X146.31 Y154.79 E1227.024
G1 X142.93 Y151.41 E1227.263
G1 X139.54 Y148.02 E1227.502
G1 X136.15 Y144.63 E1227.741
G1 Y144.07 F9000
G1 X139.65 Y147.57 E1227.988 F3600
G1 X143.15 Y151.07 E1228.235
G1 X146.65 Y154.57 E1228.482
G1 X150.15 Y158.07 E1228.729
G1 X153.65 Y161.57 E1228.976
G1 X154.22 F9000
G1 X151.21 Y158.56 E1229.189 F3600
G1 X148.2 Y155.55 E1229.401
G1 X145.19 Y152.54 E1229.614
G1 X142.17 Y149.52 E1229.826
G1 X139.16 Y146.51 E1230.039
G1 X136.15 Y143.5 E1230.251
G1 Y142.94 F9000
G1 X139.26 Y146.05 E1230.47 F3600
G1 X142.36 Y149.15 E1230.689
G1 X145.47 Y152.26 E1230.909
G1 X148.57 Y155.36 E1231.128
G1 X151.68 Y158.47 E1231.347
G1 X154.78 Y161.57 E1231.566
G1 X155.35 F9000
G1 X152.15 Y158.37 E1231.792 F3600
G1 X148.95 Y155.17 E1232.018
G1 X145.75 Y151.97 E1232.244
G1 X142.55 Y148.77 E1232.469
G1 X139.35 Y145.57 E1232.695
G1 X136.15 Y142.37 E1232.921
G1 Y141.81 F9000
G1 X139.45 Y145.1 E1233.153 F3600
G1 X142.74 Y148.4 E1233.386
G1 X146.04 Y151.69 E1233.618
G1 X149.33 Y154.98 E1233.85
G1 X152.63 Y158.28 E1234.083
G1 X155.92 Y161.57 E1234.315
G1 X144.04 F9000
G1 X140.72 Y158.25 E1234.549 F3600
G1 X137.4 Y154.94 E1234.783
G1 X134.09 Y151.62 E1235.017
G1 X130.77 Y148.3 E1235.251
G1 X127.45 Y144.98 E1235.485
G1 X124.13 Y141.67 E1235.72
G1 X120.81 Y138.35 E1235.954
G1 X117.49 Y135.03 E1236.188
G1 X114.18 Y131.71 E1236.422
G1 X110.86 Y128.4 E1236.656
G1 X107.54 Y125.08 E1236.89
G1 X106.98 F9000
G1 X110.3 Y128.4 E1237.124 F3600
G1 X113.61 Y131.71 E1237.358
G1 X116.93 Y135.03 E1237.592
G1 X120.25 Y138.35 E1237.826
G1 X123.57 Y141.67 E1238.06
G1 X126.88 Y144.98 E1238.295
G1 X130.2 Y148.3 E1238.529
G1 X133.52 Y151.62 E1238.763
G1 X136.84 Y154.94 E1238.997
G1 X140.15 Y158.25 E1239.231
G1 X143.47 Y161.57 E1239.465
G1 X142.91 F9000
G1 X139.59 Y158.25 E1239.699 F3600
G1 X136.27 Y154.94 E1239.933
G1 X132.96 Y151.62 E1240.167
G1 X129.64 Y148.3 E1240.401
G1 X126.32 Y144.98 E1240.635
G1 X123 Y141.67 E1240.87
G1 X119.68 Y138.35 E1241.104
G1 X116.36 Y135.03 E1241.338
G1 X113.05 Y131.71 E1241.572
G1 X109.73 Y128.4 E1241.806
G1 X106.41 Y125.08 E1242.04
G1 X105.84 F9000
G1 X109.16 Y128.4 E1242.274 F3600
G1 X112.48 Y131.71 E1242.508
G1 X115.79 Y135.03 E1242.742
G1 X119.11 Y138.35 E1242.976
G1 X122.43 Y141.67 E1243.21
G1 X125.75 Y144.98 E1243.445
G1 X129.07 Y148.3 E1243.679
G1 X132.39 Y151.62 E1243.913
G1 X135.7 Y154.94 E1244.147
G1 X139.02 Y158.25 E1244.381
G1 X142.34 Y161.57 E1244.615
G1 X141.77 F9000
G1 X138.45 Y158.25 E1244.849 F3600
G1 X135.14 Y154.94 E1245.083
G1 X131.82 Y151.62 E1245.317
G1 X128.5 Y148.3 E1245.551
G1 X125.18 Y144.98 E1245.785
G1 X121.87 Y141.67 E1246.02
G1 X118.55 Y138.35 E1246.254
G1 X115.23 Y135.03 E1246.488
G1 X111.91 Y131.71 E1246.722
G1 X108.6 Y128.4 E1246.956
G1 X105.28 Y125.08 E1247.19
G1 X104.71 F9000
G1 X108.03 Y128.4 E1247.424 F3600
G1 X111.35 Y131.71 E1247.658
G1 X114.66 Y135.03 E1247.892
G1 X117.98 Y138.35 E1248.126
G1 X121.3 Y141.67 E1248.36
G1 X124.62 Y144.98 E1248.595
G1 X127.94 Y148.3 E1248.829
G1 X131.26 Y151.62 E1249.063
G1 X134.57 Y154.94 E1249.297
G1 X137.89 Y158.25 E1249.531
G1 X141.21 Y161.57 E1249.765
G1 X140.64 F9000
G1 X137.32 Y158.25 E1249.999 F3600
G1 X134.01 Y154.94 E1250.233
G1 X130.69 Y151.62 E1250.467
G1 X127.37 Y148.3 E1250.701
G1 X124.05 Y144.98 E1250.935
G1 X120.74 Y141.67 E1251.17
G1 X117.42 Y138.35 E1251.404
G1 X114.1 Y135.03 E1251.638
G1 X110.78 Y131.71 E1251.872
G1 X107.47 Y128.4 E1252.106
G1 X104.15 Y125.08 E1252.34
G1 X103.58 F9000
G1 X106.9 Y128.4 E1252.574 F3600
G1 X110.22 Y131.71 E1252.808
G1 X113.53 Y135.03 E1253.042
G1 X116.85 Y138.35 E1253.276
G1 X120.17 Y141.67 E1253.51
G1 X123.49 Y144.98 E1253.745
G1 X126.81 Y148.3 E1253.979
G1 X130.13 Y151.62 E1254.213
G1 X133.44 Y154.94 E1254.447
G1 X136.76 Y158.25 E1254.681
G1 X140.08 Y161.57 E1254.915
G1 X139.51 F9000
G1 X136.19 Y158.25 E1255.149 F3600
G1 X132.88 Y154.94 E1255.383
G1 X129.56 Y151.62 E1255.617
G1 X126.24 Y148.3 E1255.851
G1 X122.92 Y144.98 E1256.085
G1 X119.61 Y141.67 E1256.32
G1 X116.29 Y138.35 E1256.554
G1 X112.97 Y135.03 E1256.788
G1 X109.65 Y131.71 E1257.022
G1 X106.34 Y128.4 E1257.256
G1 X103.02 Y125.08 E1257.49
G1 X102.45 F9000
G1 X105.77 Y128.4 E1257.724 F3600
G1 X109.09 Y131.71 E1257.958
G1 X112.4 Y135.03 E1258.192
G1 X115.72 Y138.35 E1258.426
G1 X119.04 Y141.67 E1258.66
G1 X122.36 Y144.98 E1258.895
G1 X125.68 Y148.3 E1259.129
G1 X129 Y151.62 E1259.363
G1 X132.31 Y154.94 E1259.597
G1 X135.63 Y158.25 E1259.831
G1 X138.95 Y161.57 E1260.065
G1 X138.38 F9000
G1 X135.06 Y158.25 E1260.299 F3600
G1 X131.74 Y154.94 E1260.533
G1 X128.43 Y151.62 E1260.767
G1 X125.11 Y148.3 E1261.001
G1 X121.79 Y144.98 E1261.235
G1 X118.47 Y141.67 E1261.47
G1 X115.15 Y138.35 E1261.704
G1 X111.83 Y135.03 E1261.938
G1 X108.52 Y131.71 E1262.172
G1 X105.2 Y128.4 E1262.406
G1 X101.88 Y125.08 E1262.64
G1 X101.32 F9000
G1 X104.64 Y128.4 E1262.874 F3600
G1 X107.95 Y131.71 E1263.108
G1 X111.27 Y135.03 E1263.342
G1 X114.59 Y138.35 E1263.576
G1 X117.91 Y141.67 E1263.81
G1 X121.22 Y144.98 E1264.045
G1 X124.54 Y148.3 E1264.279
G1 X127.86 Y151.62 E1264.513
G1 X131.18 Y154.94 E1264.747
G1 X134.49 Y158.25 E1264.981
G1 X137.81 Y161.57 E1265.215
G1 X137.25 F9000
G1 X133.93 Y158.25 E1265.449 F3600
G1 X130.61 Y154.94 E1265.683
G1 X127.3 Y151.62 E1265.917
G1 X123.98 Y148.3 E1266.151
G1 X120.66 Y144.98 E1266.385
G1 X117.34 Y141.67 E1266.62
G1 X114.02 Y138.35 E1266.854
G1 X110.7 Y135.03 E1267.088
G1 X107.39 Y131.71 E1267.322
G1 X104.07 Y128.4 E1267.556
G1 X100.75 Y125.08 E1267.79
G1 X100.19 F9000
G1 X103.51 Y128.4 E1268.024 F3600
G1 X106.82 Y131.71 E1268.258
G1 X110.14 Y135.03 E1268.492
G1 X113.46 Y138.35 E1268.726
G1 X116.78 Y141.67 E1268.96
G1 X120.09 Y144.98 E1269.195
G1 X123.41 Y148.3 E1269.429
G1 X126.73 Y151.62 E1269.663
G1 X130.05 Y154.94 E1269.897
G1 X133.36 Y158.25 E1270.131
G1 X136.68 Y161.57 E1270.365
G1 X136.12 F9000
G1 X132.8 Y158.25 E1270.599 F3600
G1 X129.48 Y154.94 E1270.833
G1 X126.17 Y151.62 E1271.067
G1 X122.85 Y148.3 E1271.301
G1 X119.53 Y144.98 E1271.535
G1 X116.21 Y141.67 E1271.77
G1 X112.89 Y138.35 E1272.004
G1 X109.57 Y135.03 E1272.238
G1 X106.26 Y131.71 E1272.472
G1 X102.94 Y128.4 E1272.706
G1 X99.62 Y125.08 E1272.94
G1 X99.06 F9000
G1 X102.48 Y128.5 E1273.182 F3600
G1 X105.91 Y131.93 E1273.423
G1 X109.33 Y135.35 E1273.665
G1 X112.75 Y138.77 E1273.906
G1 X112.97 Y138.99 F9000
G1 X116.2 Y142.22 E1274.134 F3600
G1 X119.42 Y145.44 E1274.361
G1 X122.65 Y148.67 E1274.589
G1 X125.87 Y151.89 E1274.817
G1 X129.1 Y155.12 E1275.045
G1 X132.32 Y158.34 E1275.272
G1 X135.55 Y161.57 E1275.5
G1 X134.99 F9000
G1 X131.89 Y158.47 E1275.719 F3600
G1 X128.79 Y155.37 E1275.937
G1 X125.69 Y152.27 E1276.156
G1 X122.59 Y149.18 E1276.375
G1 X119.49 Y146.08 E1276.594
G1 X116.39 Y142.98 E1276.812
G1 X113.29 Y139.88 E1277.031
G1 X113.08 Y140.23 F9000
G1 X116.13 Y143.28 E1277.246 F3600
G1 X119.18 Y146.33 E1277.461
G1 X122.23 Y149.38 E1277.676
G1 X125.27 Y152.42 E1277.891
G1 X128.32 Y155.47 E1278.106
G1 X131.37 Y158.52 E1278.321
G1 X134.42 Y161.57 E1278.536
G1 X133.85 F9000
G1 X130.98 Y158.7 E1278.739 F3600
G1 X128.1 Y155.82 E1278.942
G1 X128.1 Y156.38 F9000
G1 X130.7 Y158.98 E1279.126 F3600
G1 X133.29 Y161.57 E1279.309
G1 X132.72 F9000
G1 X130.41 Y159.26 E1279.472 F3600
G1 X128.1 Y156.95 E1279.635
G1 X128.1 Y157.52 F9000
G1 X132.16 Y161.57 E1279.921 F3600
G1 X131.59 F9000
G1 X128.1 Y158.08 E1280.167 F3600
G1 X128.1 Y158.65 F9000
G1 X131.03 Y161.57 E1280.374 F3600
G1 X130.46 F9000
G1 X128.1 Y159.22 E1280.54 F3600
G1 X128.11 Y159.78 F9000
G1 X129.89 Y161.57 E1280.666 F3600
G1 X129.33 F9000
G1 X128.11 Y160.35 E1280.752 F3600
G1 X128.11 Y160.92 F9000
G1 X128.76 Y161.57 E1280.798 F3600
G1 X128.2 F9000
G1 X128.11 Y161.49 E1280.805 F3600
G1 X128.01 Y156.64 F9000
G1 X127.46 Y155.73
G1 X125.86 Y156.5
G1 X124.19 Y159.27
G1 X120.68 Y155.76 E1281.053 F3600
G1 X117.17 Y152.25 E1281.3
G1 X113.66 Y148.73 E1281.548
G1 X110.15 Y145.22 E1281.795
G1 X109.94 Y145.58 F9000
G1 X113.45 Y149.09 E1282.043 F3600
G1 X116.97 Y152.6 E1282.291
G1 X120.48 Y156.11 E1282.538
G1 X123.99 Y159.62 E1282.786
G1 X123.78 Y159.98 F9000
G1 X120.27 Y156.47 E1283.034 F3600
G1 X116.76 Y152.96 E1283.282
G1 X113.24 Y149.45 E1283.529
G1 X109.73 Y145.94 E1283.777
G1 X109.52 Y146.29 F9000
G1 X113.03 Y149.8 E1284.025 F3600
G1 X116.55 Y153.32 E1284.273
G1 X120.06 Y156.83 E1284.52
G1 X123.57 Y160.34 E1284.768
G1 X123.36 Y160.7 F9000
G1 X119.85 Y157.19 E1285.016 F3600
G1 X116.34 Y153.68 E1285.264
G1 X112.83 Y150.16 E1285.511
G1 X109.32 Y146.65 E1285.759
G1 X109.11 Y147.01 F9000
G1 X112.62 Y150.52 E1286.007 F3600
G1 X116.13 Y154.04 E1286.255
G1 X119.64 Y157.55 E1286.502
G1 X123.15 Y161.06 E1286.75
G1 X122.95 Y161.41 F9000
G1 X119.44 Y157.9 E1286.998 F3600
G1 X115.93 Y154.39 E1287.246
G1 X112.41 Y150.87 E1287.493
G1 X108.9 Y147.36 E1287.741
G1 X108.69 Y147.72 F9000
G1 X112.2 Y151.23 E1287.989 F3600
G1 X115.72 Y154.75 E1288.237
G1 X119.23 Y158.26 E1288.485
G1 X122.74 Y161.77 E1288.733
G1 X122.53 Y162.13 F9000
G1 X119.02 Y158.62 E1288.981 F3600
G1 X115.51 Y155.11 E1289.229
G1 X111.99 Y151.59 E1289.476
G1 X108.48 Y148.08 E1289.724
G1 X108.27 Y148.43 F9000
G1 X111.78 Y151.95 E1289.972 F3600
G1 X115.3 Y155.46 E1290.22
G1 X118.81 Y158.98 E1290.468
G1 X122.32 Y162.49 E1290.716
G1 X122.12 Y162.85 F9000
G1 X118.61 Y159.34 E1290.964 F3600
G1 X115.09 Y155.82 E1291.212
G1 X111.58 Y152.31 E1291.46
G1 X108.06 Y148.79 E1291.708
G1 X107.85 Y149.15 F9000
G1 X111.37 Y152.66 E1291.956 F3600
G1 X114.88 Y156.18 E1292.204
G1 X118.4 Y159.69 E1292.451
G1 X121.91 Y163.2 E1292.699
G1 X121.7 Y163.56 F9000
G1 X118.19 Y160.05 E1292.947 F3600
G1 X114.67 Y156.53 E1293.195
G1 X111.16 Y153.02 E1293.443
G1 X107.64 Y149.5 E1293.691
G1 X107.43 Y149.86 F9000
G1 X110.95 Y153.38 E1293.939 F3600
G1 X114.46 Y156.89 E1294.187
G1 X117.98 Y160.41 E1294.435
G1 X121.49 Y163.92 E1294.683
G1 X121.29 Y164.28 F9000
G1 X117.77 Y160.77 E1294.931 F3600
G1 X114.26 Y157.25 E1295.179
G1 X110.74 Y153.74 E1295.427
G1 X107.22 Y150.22 E1295.675
G1 X107.01 Y150.57 F9000
G1 X110.53 Y154.09 E1295.923 F3600
G1 X114.05 Y157.6 E1296.172
G1 X117.56 Y161.12 E1296.42
G1 X121.08 Y164.63 E1296.668
G1 X120.87 Y164.99 F9000
G1 X117.35 Y161.48 E1296.916 F3600
G1 X113.84 Y157.96 E1297.164
G1 X110.32 Y154.45 E1297.412
G1 X106.8 Y150.93 E1297.66
G1 X106.6 Y151.28 F9000
G1 X110.12 Y154.8 E1297.908 F3600
G1 X113.63 Y158.32 E1298.156
G1 X117.15 Y161.83 E1298.404
G1 X120.66 Y165.35 E1298.652
G1 X120.45 Y165.71 F9000
G1 X116.94 Y162.19 E1298.9 F3600
G1 X113.42 Y158.68 E1299.149
G1 X109.91 Y155.16 E1299.397
G1 X106.39 Y151.64 E1299.645
G1 X106.18 Y152 F9000
G1 X109.7 Y155.52 E1299.893 F3600
G1 X113.22 Y159.04 E1300.142
G1 X116.73 Y162.55 E1300.39
G1 X120.25 Y166.07 E1300.638
G1 X120.04 Y166.42 F9000
G1 X116.52 Y162.9 E1300.886 F3600
G1 X113.01 Y159.39 E1301.134
G1 X109.49 Y155.87 E1301.382
G1 X105.97 Y152.35 E1301.63
G1 X105.76 Y152.71 F9000
G1 X109.28 Y156.23 E1301.878 F3600
G1 X112.8 Y159.75 E1302.127
G1 X116.31 Y163.26 E1302.375
G1 X119.83 Y166.78 E1302.623
G1 X119.62 Y167.14 F9000
G1 X116.1 Y163.62 E1302.871 F3600
G1 X112.59 Y160.11 E1303.12
G1 X109.07 Y156.59 E1303.368
G1 X105.55 Y153.07 E1303.616
G1 X105.34 Y153.42 F9000
G1 X108.86 Y156.94 E1303.864 F3600
G1 X112.38 Y160.46 E1304.113
G1 X115.9 Y163.98 E1304.361
G1 X119.42 Y167.5 E1304.609
G1 X119.21 Y167.86 F9000
G1 X115.76 Y164.41 E1304.852 F3600
G1 X112.32 Y160.97 E1305.095
G1 X108.87 Y157.52 E1305.338
G1 X105.43 Y154.08 E1305.581
G1 X101.98 Y150.63 E1305.824
G1 X98.54 Y147.19 E1306.067
G1 X95.09 Y143.74 E1306.31
G1 X91.65 Y140.3 E1306.553
G1 X88.2 Y136.85 E1306.796
G1 X84.76 Y133.41 E1307.04
G1 X81.31 Y129.96 E1307.283
G1 X77.87 Y126.52 E1307.526
G1 X74.42 Y123.07 E1307.769
G1 X70.98 Y119.63 E1308.012
G1 X67.53 Y116.18 E1308.255
G1 X64.09 Y112.74 E1308.498
G1 X60.64 Y109.29 E1308.741
G1 X57.2 Y105.85 E1308.984
G1 X53.75 Y102.4 E1309.227
G1 X53.19 F9000
G1 X56.65 Y105.86 E1309.471 F3600
G1 X60.12 Y109.33 E1309.716
G1 X63.58 Y112.79 E1309.96
G1 X67.04 Y116.25 E1310.205
G1 X70.51 Y119.72 E1310.449
G1 X73.97 Y123.18 E1310.694
G1 X77.44 Y126.65 E1310.938
G1 X80.9 Y130.11 E1311.182
G1 X84.36 Y133.57 E1311.427
G1 X87.83 Y137.04 E1311.671
G1 X91.29 Y140.5 E1311.916
