; generated by Slic3r 1.3.1-dev (Build (Unknown revision)) on 2020-01-10 at 07:39:39

; external perimeters extrusion width = 0.55mm (4.37mm^3/s)
; perimeters extrusion width = 0.70mm (11.44mm^3/s)
; infill extrusion width = 0.62mm (13.45mm^3/s)
; solid infill extrusion width = 0.70mm (3.81mm^3/s)
; top infill extrusion width = 0.70mm (2.86mm^3/s)

M107
M104 S200 ; set temperature
G28 ; home all axes
G1 Z5 F5000 ; lift nozzle

; Filament gcode

M109 S200 ; set temperature and wait for it to be reached
G21 ; set units to millimeters
G90 ; use absolute coordinates
M82 ; use absolute distances for extrusion
G92 E0
G92 E0
G1 Z0.350 F7800.000
G1 E-2.00000 F2400.00000
G92 E0
G1 X94.638 Y94.411 F7800.000
G1 E2.00000 F2400.00000
G1 F606.666
G1 X95.215 Y93.941 E2.02302
G1 X95.668 Y93.627 E2.04008
G1 X96.407 Y93.213 E2.06630
G1 X96.981 Y92.965 E2.08564
G1 X97.638 Y92.747 E2.10706
G1 X98.341 Y92.581 E2.12941
G1 X99.140 Y92.467 E2.15437
G1 X99.877 Y92.430 E2.17722
G1 X100.690 Y92.454 E2.20237
G1 X101.362 Y92.530 E2.22331
G1 X102.066 Y92.669 E2.24552
G1 X102.806 Y92.887 E2.26936
G1 X103.571 Y93.203 E2.29498
G1 X104.114 Y93.493 E2.31403
G1 X104.767 Y93.928 E2.33832
G1 X105.362 Y94.411 E2.36203
G1 X106.842 Y96.163 E2.43299
G1 X107.742 Y99.434 E2.53798
G1 X107.751 Y100.699 E2.57711
G1 X107.354 Y102.958 E2.64807
G1 X106.211 Y104.946 E2.71903
G1 X104.458 Y106.425 E2.79000
G1 X102.860 Y107.093 E2.84358
G1 X101.950 Y107.340 E2.87274
G1 X100.217 Y107.571 E2.92687
G1 X99.783 Y107.571 E2.94026
G1 X98.050 Y107.340 E2.99439
G1 X97.140 Y107.093 E3.02355
G1 X95.064 Y106.119 E3.09451
G1 X93.444 Y104.495 E3.16547
G1 X92.475 Y102.416 E3.23644
G1 X92.249 Y100.699 E3.29002
G1 X92.258 Y99.434 E3.32915
G1 X92.676 Y97.179 E3.40012
G1 X94.594 Y94.472 E3.50278
G1 E1.50278 F2400.00000
G92 E0
G1 X99.421 Y99.505 F7800.000
G1 E2.00000 F2400.00000
G1 F1800.000
G1 X99.446 Y99.462 E2.00151
G1 F1800.000
G1 X99.478 Y99.414 E2.00314
G1 F1800.000
G1 X99.568 Y99.345 E2.00595
G1 F1800.000
G1 X99.659 Y99.276 E2.00823
G1 F1800.000
G1 X99.704 Y99.242 E2.00911
G1 X99.757 Y99.235 E2.00993
G1 F1800.000
G1 X100.029 Y99.224 E2.01344
G1 X100.315 Y99.247 E2.01714
G1 F1800.000
G1 X100.397 Y99.314 E2.01878
G1 F1800.000
G1 X100.479 Y99.380 E2.02090
G1 F1800.000
G1 X100.535 Y99.434 E2.02278
G1 F1800.000
G1 X100.564 Y99.479 E2.02426
G1 F1800.000
G1 X100.643 Y99.561 E2.02773
G1 X100.693 Y99.654 E2.03097
G1 X100.685 Y99.975 F7800.000
G1 F1800.000
G1 X100.567 Y100.279 E2.04335
G1 X100.613 Y100.326 E2.04583
G1 F1800.000
G1 X100.659 Y100.372 E2.04801
G1 F1800.000
G1 X100.724 Y100.417 E2.05027
G1 F1800.000
G1 X100.807 Y100.460 E2.05254
G1 F1800.000
G1 X100.891 Y100.504 E2.05441
G1 F1800.000
G1 X100.974 Y100.547 E2.05588
G1 F1800.000
G1 X101.126 Y100.401 E2.05828
G1 X100.567 Y100.279 F7800.000
G1 F1800.000
G1 X100.556 Y100.283 E2.05869
G1 F1800.000
G1 X100.503 Y100.252 E2.06086
G1 F1800.000
G1 X100.449 Y100.222 E2.06274
G1 F1800.000
G1 X100.395 Y100.192 E2.06433
G1 F1800.000
G1 X100.341 Y100.161 E2.06563
G1 F1800.000
G1 X100.228 Y100.121 E2.06759
G1 F1800.000
G1 X100.141 Y100.097 E2.06862
G1 X99.862 Y100.097 E2.07182
G1 F1800.000
G1 X99.744 Y100.131 E2.07365
G1 F1800.000
G1 X99.659 Y100.163 E2.07536
G1 F1800.000
G1 X99.606 Y100.194 E2.07678
G1 F1800.000
G1 X99.554 Y100.224 E2.07849
G1 F1800.000
G1 X99.501 Y100.254 E2.08047
G1 F1800.000
G1 X99.449 Y100.284 E2.08273
G1 F1800.000
G1 X99.510 Y100.331 E2.08561
G1 F1800.000
G1 X99.572 Y100.377 E2.08813
G1 F1800.000
G1 X99.640 Y100.422 E2.09044
G1 F1800.000
G1 X99.760 Y100.537 E2.09438
G1 F1800.000
G1 X99.919 Y100.711 E2.09890
G1 X100.081 Y100.711 E2.10201
G1 X100.300 Y100.480 E2.10811
G1 F1800.000
G1 X100.398 Y100.401 E2.11109
G1 F1800.000
G1 X100.461 Y100.354 E2.11331
G1 F1800.000
G1 X100.525 Y100.306 E2.11591
G1 F1800.000
G1 X100.556 Y100.283 E2.11739
G1 X100.685 Y99.975 F7800.000
G1 F1800.000
G1 X100.921 Y99.365 E2.13963
G1 E0.13963 F2400.00000
G92 E0
; Filament-specific end gcode 
;END gcode for filament

M104 S0 ; turn off temperature
G28 X0  ; home X axis
M84     ; disable motors

M140 S0 ; set bed temperature
; filament used = 1.6mm (0.0cm3)
; total filament cost = 0.0

; avoid_crossing_perimeters = 0
; bed_shape = 0x0,200x0,200x200,0x200
; bed_temperature = 0
; before_layer_gcode = 
; between_objects_gcode = 
; bridge_acceleration = 0
; bridge_fan_speed = 100
; brim_connections_width = 0
; brim_ears = 0
; brim_ears_max_angle = 125
; brim_width = 0
; complete_objects = 0
; cooling = 1
; default_acceleration = 0
; disable_fan_first_layers = 3
; duplicate_distance = 6
; end_filament_gcode = "; Filament-specific end gcode \n;END gcode for filament\n"
; end_gcode = M104 S0 ; turn off temperature\nG28 X0  ; home X axis\nM84     ; disable motors\n
; extruder_clearance_height = 20
; extruder_clearance_radius = 20
; extruder_offset = 0x0
; extrusion_axis = E
; extrusion_multiplier = 1
; fan_always_on = 0
; fan_below_layer_time = 60
; filament_colour = #FFFFFF
; filament_cost = 0
; filament_density = 0
; filament_diameter = 3
; filament_max_volumetric_speed = 0
; filament_notes = ""
; first_layer_acceleration = 0
; first_layer_bed_temperature = 0
; first_layer_extrusion_width = 200%
; first_layer_speed = 30
; first_layer_temperature = 200
; gcode_arcs = 0
; gcode_comments = 0
; gcode_flavor = reprap
; has_heatbed = 1
; infill_acceleration = 0
; infill_first = 0
; interior_brim_width = 0
; label_printed_objects = 0
; layer_gcode = 
; max_fan_speed = 100
; max_layer_height = 0.3
; max_print_speed = 80
; max_volumetric_speed = 0
; min_fan_speed = 35
; min_layer_height = 0.15
; min_print_speed = 10
; min_skirt_length = 0
; notes = 
; nozzle_diameter = 0.5
; only_retract_when_crossing_perimeters = 1
; ooze_prevention = 0
; output_filename_format = [input_filename_base].gcode
; perimeter_acceleration = 0
; post_process = 
; pressure_advance = 0
; printer_notes = 
; resolution = 0
; retract_before_travel = 2
; retract_layer_change = 0
; retract_length = 2
; retract_length_toolchange = 10
; retract_lift = 0
; retract_lift_above = 0
; retract_lift_below = 0
; retract_restart_extra = 0
; retract_restart_extra_toolchange = 0
; retract_speed = 40
; skirt_distance = 6
; skirt_height = 1
; skirts = 1
; slowdown_below_layer_time = 5
; spiral_vase = 0
; standby_temperature_delta = -5
; start_filament_gcode = "; Filament gcode\n"
; start_gcode = G28 ; home all axes\nG1 Z5 F5000 ; lift nozzle\n
; temperature = 200
; threads = 3
; toolchange_gcode = 
; travel_speed = 130
; use_firmware_retraction = 0
; use_relative_e_distances = 0
; use_set_and_wait_bed = 0
; use_set_and_wait_extruder = 0
; use_volumetric_e = 0
; vibration_limit = 0
; wipe = 0
; z_offset = 0
; z_steps_per_mm = 0
; adaptive_slicing = 0
; adaptive_slicing_quality = 75%
; dont_support_bridges = 1
; extrusion_width = 0
; first_layer_height = 0.35
; infill_only_where_needed = 0
; interface_shells = 0
; layer_height = 0.3
; match_horizontal_surfaces = 0
; raft_layers = 0
; regions_overlap = 0
; seam_position = aligned
; sequential_print_priority = 0
; support_material = 0
; support_material_angle = 0
; support_material_buildplate_only = 0
; support_material_contact_distance = 0.2
; support_material_enforce_layers = 0
; support_material_extruder = 1
; support_material_extrusion_width = 0
; support_material_interface_extruder = 1
; support_material_interface_extrusion_width = 0
; support_material_interface_layers = 3
; support_material_interface_spacing = 0
; support_material_interface_speed = 100%
; support_material_max_layers = 0
; support_material_pattern = pillars
; support_material_pillar_size = 2.5
; support_material_pillar_spacing = 10
; support_material_spacing = 2.5
; support_material_speed = 60
; support_material_threshold = 60%
; xy_size_compensation = 0
; bottom_infill_pattern = rectilinear
; bottom_solid_layers = 3
; bridge_flow_ratio = 1
; bridge_speed = 60
; external_perimeter_extrusion_width = 0
; external_perimeter_speed = 50%
; external_perimeters_first = 0
; extra_perimeters = 1
; fill_angle = 45
; fill_density = 20%
; fill_gaps = 1
; fill_pattern = stars
; gap_fill_speed = 20
; infill_every_layers = 1
; infill_extruder = 1
; infill_extrusion_width = 0
; infill_overlap = 55%
; infill_speed = 80
; min_shell_thickness = 0
; min_top_bottom_shell_thickness = 0
; overhangs = 1
; perimeter_extruder = 1
; perimeter_extrusion_width = 0
; perimeter_speed = 60
; perimeters = 3
; small_perimeter_speed = 15
; solid_infill_below_area = 70
; solid_infill_every_layers = 0
; solid_infill_extruder = 1
; solid_infill_extrusion_width = 0
; solid_infill_speed = 20
; thin_walls = 1
; top_infill_extrusion_width = 0
; top_infill_pattern = rectilinear
; top_solid_infill_speed = 15
; top_solid_layers = 3
